( Made using CamBam - http://www.cambam.co.uk )
( mike_sims_vca_panel 1/23/2016 5:59:26 PM )
( T3 : 3.175 )
G21 G90 G64 G40
G0 Z3.0
( T3 : 3.175 )
T3 M6
( holes )
G17
M3 S1000
G0 X9.79 Y40.3169
G0 Z3.0
G0 X9.8025 Y40.3169
G1 F1000.0 Z0.0
G2 F2000.0 X9.7838 Y40.3061 Z-0.0333 I-0.0125 J0.0
G2 Y40.3277 Z-0.0667 I0.0063 J0.0108
G2 X9.8025 Y40.3169 Z-0.1 I0.0062 J-0.0108
G2 X9.7838 Y40.3061 Z-0.1333 I-0.0125 J0.0
G2 Y40.3277 Z-0.1667 I0.0063 J0.0108
G2 X9.8025 Y40.3169 Z-0.2 I0.0062 J-0.0108
G2 X9.7838 Y40.3061 Z-0.2333 I-0.0125 J0.0
G2 Y40.3277 Z-0.2667 I0.0063 J0.0108
G2 X9.8025 Y40.3169 Z-0.3 I0.0062 J-0.0108
G2 X9.7838 Y40.3061 Z-0.3333 I-0.0125 J0.0
G2 Y40.3277 Z-0.3667 I0.0063 J0.0108
G2 X9.8025 Y40.3169 Z-0.4 I0.0062 J-0.0108
G2 X9.7838 Y40.3061 Z-0.4333 I-0.0125 J0.0
G2 Y40.3277 Z-0.4667 I0.0063 J0.0108
G2 X9.8025 Y40.3169 Z-0.5 I0.0062 J-0.0108
G2 X9.7838 Y40.3061 Z-0.5333 I-0.0125 J0.0
G2 Y40.3277 Z-0.5667 I0.0063 J0.0108
G2 X9.8025 Y40.3169 Z-0.6 I0.0062 J-0.0108
G2 X9.7838 Y40.3061 Z-0.6333 I-0.0125 J0.0
G2 Y40.3277 Z-0.6667 I0.0063 J0.0108
G2 X9.8025 Y40.3169 Z-0.7 I0.0062 J-0.0108
G2 X9.7838 Y40.3061 Z-0.7333 I-0.0125 J0.0
G2 Y40.3277 Z-0.7667 I0.0063 J0.0108
G2 X9.8025 Y40.3169 Z-0.8 I0.0062 J-0.0108
G2 X9.7838 Y40.3061 Z-0.8333 I-0.0125 J0.0
G2 Y40.3277 Z-0.8667 I0.0063 J0.0108
G2 X9.8025 Y40.3169 Z-0.9 I0.0062 J-0.0108
G2 X9.7838 Y40.3061 Z-0.9333 I-0.0125 J0.0
G2 Y40.3277 Z-0.9667 I0.0063 J0.0108
G2 X9.8025 Y40.3169 Z-1.0 I0.0062 J-0.0108
G2 X9.7838 Y40.3061 Z-1.0333 I-0.0125 J0.0
G2 Y40.3277 Z-1.0667 I0.0063 J0.0108
G2 X9.8025 Y40.3169 Z-1.1 I0.0062 J-0.0108
G2 X9.7838 Y40.3061 Z-1.1333 I-0.0125 J0.0
G2 Y40.3277 Z-1.1667 I0.0063 J0.0108
G2 X9.8025 Y40.3169 Z-1.2 I0.0062 J-0.0108
G2 X9.7838 Y40.3061 Z-1.2333 I-0.0125 J0.0
G2 Y40.3277 Z-1.2667 I0.0063 J0.0108
G2 X9.8025 Y40.3169 Z-1.3 I0.0062 J-0.0108
G2 X9.7838 Y40.3061 Z-1.3333 I-0.0125 J0.0
G2 Y40.3277 Z-1.3667 I0.0063 J0.0108
G2 X9.8025 Y40.3169 Z-1.4 I0.0062 J-0.0108
G2 X9.7838 Y40.3061 Z-1.4333 I-0.0125 J0.0
G2 Y40.3277 Z-1.4667 I0.0063 J0.0108
G2 X9.8025 Y40.3169 Z-1.5 I0.0062 J-0.0108
G2 X9.7838 Y40.3061 Z-1.5333 I-0.0125 J0.0
G2 Y40.3277 Z-1.5667 I0.0063 J0.0108
G2 X9.8025 Y40.3169 Z-1.6 I0.0062 J-0.0108
G2 X9.7838 Y40.3061 Z-1.6333 I-0.0125 J0.0
G2 Y40.3277 Z-1.6667 I0.0063 J0.0108
G2 X9.8025 Y40.3169 Z-1.7 I0.0062 J-0.0108
G2 X9.7838 Y40.3061 Z-1.7333 I-0.0125 J0.0
G2 Y40.3277 Z-1.7667 I0.0063 J0.0108
G2 X9.8025 Y40.3169 Z-1.8 I0.0062 J-0.0108
G2 X9.7838 Y40.3061 Z-1.8333 I-0.0125 J0.0
G2 Y40.3277 Z-1.8667 I0.0063 J0.0108
G2 X9.8025 Y40.3169 Z-1.9 I0.0062 J-0.0108
G2 X9.7838 Y40.3061 Z-1.9333 I-0.0125 J0.0
G2 Y40.3277 Z-1.9667 I0.0063 J0.0108
G2 X9.8025 Y40.3169 Z-2.0 I0.0062 J-0.0108
G2 X9.7838 Y40.3061 Z-2.0333 I-0.0125 J0.0
G2 Y40.3277 Z-2.0667 I0.0063 J0.0108
G2 X9.8025 Y40.3169 Z-2.1 I0.0062 J-0.0108
G2 X9.7838 Y40.3061 Z-2.1333 I-0.0125 J0.0
G2 Y40.3277 Z-2.1667 I0.0063 J0.0108
G2 X9.8025 Y40.3169 Z-2.2 I0.0062 J-0.0108
G2 X9.7838 Y40.3061 Z-2.2333 I-0.0125 J0.0
G2 Y40.3277 Z-2.2667 I0.0063 J0.0108
G2 X9.8025 Y40.3169 Z-2.3 I0.0062 J-0.0108
G2 X9.7838 Y40.3061 Z-2.3333 I-0.0125 J0.0
G2 Y40.3277 Z-2.3667 I0.0063 J0.0108
G2 X9.8025 Y40.3169 Z-2.4 I0.0062 J-0.0108
G2 X9.7838 Y40.3061 Z-2.4333 I-0.0125 J0.0
G2 Y40.3277 Z-2.4667 I0.0063 J0.0108
G2 X9.8025 Y40.3169 Z-2.5 I0.0062 J-0.0108
G2 X9.7838 Y40.3061 Z-2.5333 I-0.0125 J0.0
G2 Y40.3277 Z-2.5667 I0.0063 J0.0108
G2 X9.8025 Y40.3169 Z-2.6 I0.0062 J-0.0108
G2 X9.7838 Y40.3061 Z-2.6333 I-0.0125 J0.0
G2 Y40.3277 Z-2.6667 I0.0063 J0.0108
G2 X9.8025 Y40.3169 Z-2.7 I0.0062 J-0.0108
G2 X9.7838 Y40.3061 Z-2.7333 I-0.0125 J0.0
G2 Y40.3277 Z-2.7667 I0.0063 J0.0108
G2 X9.8025 Y40.3169 Z-2.8 I0.0062 J-0.0108
G2 X9.7838 Y40.3061 Z-2.8333 I-0.0125 J0.0
G2 Y40.3277 Z-2.8667 I0.0063 J0.0108
G2 X9.8025 Y40.3169 Z-2.9 I0.0062 J-0.0108
G2 X9.7838 Y40.3061 Z-2.9333 I-0.0125 J0.0
G2 Y40.3277 Z-2.9667 I0.0063 J0.0108
G2 X9.8025 Y40.3169 Z-3.0 I0.0062 J-0.0108
G2 X9.7838 Y40.3061 Z-3.0333 I-0.0125 J0.0
G2 Y40.3277 Z-3.0667 I0.0063 J0.0108
G2 X9.8025 Y40.3169 Z-3.1 I0.0062 J-0.0108
G2 X9.7838 Y40.3061 Z-3.1333 I-0.0125 J0.0
G2 Y40.3277 Z-3.1667 I0.0063 J0.0108
G2 X9.8025 Y40.3169 Z-3.2 I0.0062 J-0.0108
G2 X9.7838 Y40.3061 I-0.0125 J0.0
G2 Y40.3277 I0.0063 J0.0108
G2 X9.8025 Y40.3169 I0.0062 J-0.0108
G0 Z3.0
G0 X17.6233 Y56.8763
G1 F1000.0 Z0.0
G2 F2000.0 X17.6046 Y56.8655 Z-0.0333 I-0.0125 J0.0
G2 Y56.8871 Z-0.0667 I0.0063 J0.0108
G2 X17.6233 Y56.8763 Z-0.1 I0.0062 J-0.0108
G2 X17.6046 Y56.8655 Z-0.1333 I-0.0125 J0.0
G2 Y56.8871 Z-0.1667 I0.0063 J0.0108
G2 X17.6233 Y56.8763 Z-0.2 I0.0062 J-0.0108
G2 X17.6046 Y56.8655 Z-0.2333 I-0.0125 J0.0
G2 Y56.8871 Z-0.2667 I0.0063 J0.0108
G2 X17.6233 Y56.8763 Z-0.3 I0.0062 J-0.0108
G2 X17.6046 Y56.8655 Z-0.3333 I-0.0125 J0.0
G2 Y56.8871 Z-0.3667 I0.0063 J0.0108
G2 X17.6233 Y56.8763 Z-0.4 I0.0062 J-0.0108
G2 X17.6046 Y56.8655 Z-0.4333 I-0.0125 J0.0
G2 Y56.8871 Z-0.4667 I0.0063 J0.0108
G2 X17.6233 Y56.8763 Z-0.5 I0.0062 J-0.0108
G2 X17.6046 Y56.8655 Z-0.5333 I-0.0125 J0.0
G2 Y56.8871 Z-0.5667 I0.0063 J0.0108
G2 X17.6233 Y56.8763 Z-0.6 I0.0062 J-0.0108
G2 X17.6046 Y56.8655 Z-0.6333 I-0.0125 J0.0
G2 Y56.8871 Z-0.6667 I0.0063 J0.0108
G2 X17.6233 Y56.8763 Z-0.7 I0.0062 J-0.0108
G2 X17.6046 Y56.8655 Z-0.7333 I-0.0125 J0.0
G2 Y56.8871 Z-0.7667 I0.0063 J0.0108
G2 X17.6233 Y56.8763 Z-0.8 I0.0062 J-0.0108
G2 X17.6046 Y56.8655 Z-0.8333 I-0.0125 J0.0
G2 Y56.8871 Z-0.8667 I0.0063 J0.0108
G2 X17.6233 Y56.8763 Z-0.9 I0.0062 J-0.0108
G2 X17.6046 Y56.8655 Z-0.9333 I-0.0125 J0.0
G2 Y56.8871 Z-0.9667 I0.0063 J0.0108
G2 X17.6233 Y56.8763 Z-1.0 I0.0062 J-0.0108
G2 X17.6046 Y56.8655 Z-1.0333 I-0.0125 J0.0
G2 Y56.8871 Z-1.0667 I0.0063 J0.0108
G2 X17.6233 Y56.8763 Z-1.1 I0.0062 J-0.0108
G2 X17.6046 Y56.8655 Z-1.1333 I-0.0125 J0.0
G2 Y56.8871 Z-1.1667 I0.0063 J0.0108
G2 X17.6233 Y56.8763 Z-1.2 I0.0062 J-0.0108
G2 X17.6046 Y56.8655 Z-1.2333 I-0.0125 J0.0
G2 Y56.8871 Z-1.2667 I0.0063 J0.0108
G2 X17.6233 Y56.8763 Z-1.3 I0.0062 J-0.0108
G2 X17.6046 Y56.8655 Z-1.3333 I-0.0125 J0.0
G2 Y56.8871 Z-1.3667 I0.0063 J0.0108
G2 X17.6233 Y56.8763 Z-1.4 I0.0062 J-0.0108
G2 X17.6046 Y56.8655 Z-1.4333 I-0.0125 J0.0
G2 Y56.8871 Z-1.4667 I0.0063 J0.0108
G2 X17.6233 Y56.8763 Z-1.5 I0.0062 J-0.0108
G2 X17.6046 Y56.8655 Z-1.5333 I-0.0125 J0.0
G2 Y56.8871 Z-1.5667 I0.0063 J0.0108
G2 X17.6233 Y56.8763 Z-1.6 I0.0062 J-0.0108
G2 X17.6046 Y56.8655 Z-1.6333 I-0.0125 J0.0
G2 Y56.8871 Z-1.6667 I0.0063 J0.0108
G2 X17.6233 Y56.8763 Z-1.7 I0.0062 J-0.0108
G2 X17.6046 Y56.8655 Z-1.7333 I-0.0125 J0.0
G2 Y56.8871 Z-1.7667 I0.0063 J0.0108
G2 X17.6233 Y56.8763 Z-1.8 I0.0062 J-0.0108
G2 X17.6046 Y56.8655 Z-1.8333 I-0.0125 J0.0
G2 Y56.8871 Z-1.8667 I0.0063 J0.0108
G2 X17.6233 Y56.8763 Z-1.9 I0.0062 J-0.0108
G2 X17.6046 Y56.8655 Z-1.9333 I-0.0125 J0.0
G2 Y56.8871 Z-1.9667 I0.0063 J0.0108
G2 X17.6233 Y56.8763 Z-2.0 I0.0062 J-0.0108
G2 X17.6046 Y56.8655 Z-2.0333 I-0.0125 J0.0
G2 Y56.8871 Z-2.0667 I0.0063 J0.0108
G2 X17.6233 Y56.8763 Z-2.1 I0.0062 J-0.0108
G2 X17.6046 Y56.8655 Z-2.1333 I-0.0125 J0.0
G2 Y56.8871 Z-2.1667 I0.0063 J0.0108
G2 X17.6233 Y56.8763 Z-2.2 I0.0062 J-0.0108
G2 X17.6046 Y56.8655 Z-2.2333 I-0.0125 J0.0
G2 Y56.8871 Z-2.2667 I0.0063 J0.0108
G2 X17.6233 Y56.8763 Z-2.3 I0.0062 J-0.0108
G2 X17.6046 Y56.8655 Z-2.3333 I-0.0125 J0.0
G2 Y56.8871 Z-2.3667 I0.0063 J0.0108
G2 X17.6233 Y56.8763 Z-2.4 I0.0062 J-0.0108
G2 X17.6046 Y56.8655 Z-2.4333 I-0.0125 J0.0
G2 Y56.8871 Z-2.4667 I0.0063 J0.0108
G2 X17.6233 Y56.8763 Z-2.5 I0.0062 J-0.0108
G2 X17.6046 Y56.8655 Z-2.5333 I-0.0125 J0.0
G2 Y56.8871 Z-2.5667 I0.0063 J0.0108
G2 X17.6233 Y56.8763 Z-2.6 I0.0062 J-0.0108
G2 X17.6046 Y56.8655 Z-2.6333 I-0.0125 J0.0
G2 Y56.8871 Z-2.6667 I0.0063 J0.0108
G2 X17.6233 Y56.8763 Z-2.7 I0.0062 J-0.0108
G2 X17.6046 Y56.8655 Z-2.7333 I-0.0125 J0.0
G2 Y56.8871 Z-2.7667 I0.0063 J0.0108
G2 X17.6233 Y56.8763 Z-2.8 I0.0062 J-0.0108
G2 X17.6046 Y56.8655 Z-2.8333 I-0.0125 J0.0
G2 Y56.8871 Z-2.8667 I0.0063 J0.0108
G2 X17.6233 Y56.8763 Z-2.9 I0.0062 J-0.0108
G2 X17.6046 Y56.8655 Z-2.9333 I-0.0125 J0.0
G2 Y56.8871 Z-2.9667 I0.0063 J0.0108
G2 X17.6233 Y56.8763 Z-3.0 I0.0062 J-0.0108
G2 X17.6046 Y56.8655 Z-3.0333 I-0.0125 J0.0
G2 Y56.8871 Z-3.0667 I0.0063 J0.0108
G2 X17.6233 Y56.8763 Z-3.1 I0.0062 J-0.0108
G2 X17.6046 Y56.8655 Z-3.1333 I-0.0125 J0.0
G2 Y56.8871 Z-3.1667 I0.0063 J0.0108
G2 X17.6233 Y56.8763 Z-3.2 I0.0062 J-0.0108
G2 X17.6046 Y56.8655 I-0.0125 J0.0
G2 Y56.8871 I0.0063 J0.0108
G2 X17.6233 Y56.8763 I0.0062 J-0.0108
G0 Z3.0
G0 X9.8132 Y74.526
G1 F1000.0 Z0.0
G2 F2000.0 X9.7945 Y74.5152 Z-0.0333 I-0.0125 J0.0
G2 Y74.5368 Z-0.0667 I0.0062 J0.0108
G2 X9.8132 Y74.526 Z-0.1 I0.0063 J-0.0108
G2 X9.7945 Y74.5152 Z-0.1333 I-0.0125 J0.0
G2 Y74.5368 Z-0.1667 I0.0062 J0.0108
G2 X9.8132 Y74.526 Z-0.2 I0.0063 J-0.0108
G2 X9.7945 Y74.5152 Z-0.2333 I-0.0125 J0.0
G2 Y74.5368 Z-0.2667 I0.0062 J0.0108
G2 X9.8132 Y74.526 Z-0.3 I0.0063 J-0.0108
G2 X9.7945 Y74.5152 Z-0.3333 I-0.0125 J0.0
G2 Y74.5368 Z-0.3667 I0.0062 J0.0108
G2 X9.8132 Y74.526 Z-0.4 I0.0063 J-0.0108
G2 X9.7945 Y74.5152 Z-0.4333 I-0.0125 J0.0
G2 Y74.5368 Z-0.4667 I0.0062 J0.0108
G2 X9.8132 Y74.526 Z-0.5 I0.0063 J-0.0108
G2 X9.7945 Y74.5152 Z-0.5333 I-0.0125 J0.0
G2 Y74.5368 Z-0.5667 I0.0062 J0.0108
G2 X9.8132 Y74.526 Z-0.6 I0.0063 J-0.0108
G2 X9.7945 Y74.5152 Z-0.6333 I-0.0125 J0.0
G2 Y74.5368 Z-0.6667 I0.0062 J0.0108
G2 X9.8132 Y74.526 Z-0.7 I0.0063 J-0.0108
G2 X9.7945 Y74.5152 Z-0.7333 I-0.0125 J0.0
G2 Y74.5368 Z-0.7667 I0.0062 J0.0108
G2 X9.8132 Y74.526 Z-0.8 I0.0063 J-0.0108
G2 X9.7945 Y74.5152 Z-0.8333 I-0.0125 J0.0
G2 Y74.5368 Z-0.8667 I0.0062 J0.0108
G2 X9.8132 Y74.526 Z-0.9 I0.0063 J-0.0108
G2 X9.7945 Y74.5152 Z-0.9333 I-0.0125 J0.0
G2 Y74.5368 Z-0.9667 I0.0062 J0.0108
G2 X9.8132 Y74.526 Z-1.0 I0.0063 J-0.0108
G2 X9.7945 Y74.5152 Z-1.0333 I-0.0125 J0.0
G2 Y74.5368 Z-1.0667 I0.0062 J0.0108
G2 X9.8132 Y74.526 Z-1.1 I0.0063 J-0.0108
G2 X9.7945 Y74.5152 Z-1.1333 I-0.0125 J0.0
G2 Y74.5368 Z-1.1667 I0.0062 J0.0108
G2 X9.8132 Y74.526 Z-1.2 I0.0063 J-0.0108
G2 X9.7945 Y74.5152 Z-1.2333 I-0.0125 J0.0
G2 Y74.5368 Z-1.2667 I0.0062 J0.0108
G2 X9.8132 Y74.526 Z-1.3 I0.0063 J-0.0108
G2 X9.7945 Y74.5152 Z-1.3333 I-0.0125 J0.0
G2 Y74.5368 Z-1.3667 I0.0062 J0.0108
G2 X9.8132 Y74.526 Z-1.4 I0.0063 J-0.0108
G2 X9.7945 Y74.5152 Z-1.4333 I-0.0125 J0.0
G2 Y74.5368 Z-1.4667 I0.0062 J0.0108
G2 X9.8132 Y74.526 Z-1.5 I0.0063 J-0.0108
G2 X9.7945 Y74.5152 Z-1.5333 I-0.0125 J0.0
G2 Y74.5368 Z-1.5667 I0.0062 J0.0108
G2 X9.8132 Y74.526 Z-1.6 I0.0063 J-0.0108
G2 X9.7945 Y74.5152 Z-1.6333 I-0.0125 J0.0
G2 Y74.5368 Z-1.6667 I0.0062 J0.0108
G2 X9.8132 Y74.526 Z-1.7 I0.0063 J-0.0108
G2 X9.7945 Y74.5152 Z-1.7333 I-0.0125 J0.0
G2 Y74.5368 Z-1.7667 I0.0062 J0.0108
G2 X9.8132 Y74.526 Z-1.8 I0.0063 J-0.0108
G2 X9.7945 Y74.5152 Z-1.8333 I-0.0125 J0.0
G2 Y74.5368 Z-1.8667 I0.0062 J0.0108
G2 X9.8132 Y74.526 Z-1.9 I0.0063 J-0.0108
G2 X9.7945 Y74.5152 Z-1.9333 I-0.0125 J0.0
G2 Y74.5368 Z-1.9667 I0.0062 J0.0108
G2 X9.8132 Y74.526 Z-2.0 I0.0063 J-0.0108
G2 X9.7945 Y74.5152 Z-2.0333 I-0.0125 J0.0
G2 Y74.5368 Z-2.0667 I0.0062 J0.0108
G2 X9.8132 Y74.526 Z-2.1 I0.0063 J-0.0108
G2 X9.7945 Y74.5152 Z-2.1333 I-0.0125 J0.0
G2 Y74.5368 Z-2.1667 I0.0062 J0.0108
G2 X9.8132 Y74.526 Z-2.2 I0.0063 J-0.0108
G2 X9.7945 Y74.5152 Z-2.2333 I-0.0125 J0.0
G2 Y74.5368 Z-2.2667 I0.0062 J0.0108
G2 X9.8132 Y74.526 Z-2.3 I0.0063 J-0.0108
G2 X9.7945 Y74.5152 Z-2.3333 I-0.0125 J0.0
G2 Y74.5368 Z-2.3667 I0.0062 J0.0108
G2 X9.8132 Y74.526 Z-2.4 I0.0063 J-0.0108
G2 X9.7945 Y74.5152 Z-2.4333 I-0.0125 J0.0
G2 Y74.5368 Z-2.4667 I0.0062 J0.0108
G2 X9.8132 Y74.526 Z-2.5 I0.0063 J-0.0108
G2 X9.7945 Y74.5152 Z-2.5333 I-0.0125 J0.0
G2 Y74.5368 Z-2.5667 I0.0062 J0.0108
G2 X9.8132 Y74.526 Z-2.6 I0.0063 J-0.0108
G2 X9.7945 Y74.5152 Z-2.6333 I-0.0125 J0.0
G2 Y74.5368 Z-2.6667 I0.0062 J0.0108
G2 X9.8132 Y74.526 Z-2.7 I0.0063 J-0.0108
G2 X9.7945 Y74.5152 Z-2.7333 I-0.0125 J0.0
G2 Y74.5368 Z-2.7667 I0.0062 J0.0108
G2 X9.8132 Y74.526 Z-2.8 I0.0062 J-0.0108
G2 X9.7945 Y74.5152 Z-2.8333 I-0.0125 J0.0
G2 Y74.5368 Z-2.8667 I0.0062 J0.0108
G2 X9.8132 Y74.526 Z-2.9 I0.0062 J-0.0108
G2 X9.7945 Y74.5152 Z-2.9333 I-0.0125 J0.0
G2 Y74.5368 Z-2.9667 I0.0062 J0.0108
G2 X9.8132 Y74.526 Z-3.0 I0.0062 J-0.0108
G2 X9.7945 Y74.5152 Z-3.0333 I-0.0125 J0.0
G2 Y74.5368 Z-3.0667 I0.0062 J0.0108
G2 X9.8132 Y74.526 Z-3.1 I0.0062 J-0.0108
G2 X9.7945 Y74.5152 Z-3.1333 I-0.0125 J0.0
G2 Y74.5368 Z-3.1667 I0.0063 J0.0108
G2 X9.8132 Y74.526 Z-3.2 I0.0062 J-0.0108
G2 X9.7945 Y74.5152 I-0.0125 J0.0
G2 Y74.5368 I0.0063 J0.0108
G2 X9.8132 Y74.526 I0.0062 J-0.0108
G0 Z3.0
G0 X9.7671 Y88.4785
G1 F1000.0 Z0.0
G2 F2000.0 X9.7483 Y88.4677 Z-0.0333 I-0.0125 J0.0
G2 Y88.4893 Z-0.0667 I0.0062 J0.0108
G2 X9.7671 Y88.4785 Z-0.1 I0.0063 J-0.0108
G2 X9.7483 Y88.4677 Z-0.1333 I-0.0125 J0.0
G2 Y88.4893 Z-0.1667 I0.0062 J0.0108
G2 X9.7671 Y88.4785 Z-0.2 I0.0063 J-0.0108
G2 X9.7483 Y88.4677 Z-0.2333 I-0.0125 J0.0
G2 Y88.4893 Z-0.2667 I0.0062 J0.0108
G2 X9.7671 Y88.4785 Z-0.3 I0.0063 J-0.0108
G2 X9.7483 Y88.4677 Z-0.3333 I-0.0125 J0.0
G2 Y88.4893 Z-0.3667 I0.0062 J0.0108
G2 X9.7671 Y88.4785 Z-0.4 I0.0063 J-0.0108
G2 X9.7483 Y88.4677 Z-0.4333 I-0.0125 J0.0
G2 Y88.4893 Z-0.4667 I0.0062 J0.0108
G2 X9.7671 Y88.4785 Z-0.5 I0.0063 J-0.0108
G2 X9.7483 Y88.4677 Z-0.5333 I-0.0125 J0.0
G2 Y88.4893 Z-0.5667 I0.0062 J0.0108
G2 X9.7671 Y88.4785 Z-0.6 I0.0063 J-0.0108
G2 X9.7483 Y88.4677 Z-0.6333 I-0.0125 J0.0
G2 Y88.4893 Z-0.6667 I0.0062 J0.0108
G2 X9.7671 Y88.4785 Z-0.7 I0.0063 J-0.0108
G2 X9.7483 Y88.4677 Z-0.7333 I-0.0125 J0.0
G2 Y88.4893 Z-0.7667 I0.0062 J0.0108
G2 X9.7671 Y88.4785 Z-0.8 I0.0063 J-0.0108
G2 X9.7483 Y88.4677 Z-0.8333 I-0.0125 J0.0
G2 Y88.4893 Z-0.8667 I0.0062 J0.0108
G2 X9.7671 Y88.4785 Z-0.9 I0.0063 J-0.0108
G2 X9.7483 Y88.4677 Z-0.9333 I-0.0125 J0.0
G2 Y88.4893 Z-0.9667 I0.0062 J0.0108
G2 X9.7671 Y88.4785 Z-1.0 I0.0063 J-0.0108
G2 X9.7483 Y88.4677 Z-1.0333 I-0.0125 J0.0
G2 Y88.4893 Z-1.0667 I0.0062 J0.0108
G2 X9.7671 Y88.4785 Z-1.1 I0.0063 J-0.0108
G2 X9.7483 Y88.4677 Z-1.1333 I-0.0125 J0.0
G2 Y88.4893 Z-1.1667 I0.0062 J0.0108
G2 X9.7671 Y88.4785 Z-1.2 I0.0063 J-0.0108
G2 X9.7483 Y88.4677 Z-1.2333 I-0.0125 J0.0
G2 Y88.4893 Z-1.2667 I0.0062 J0.0108
G2 X9.7671 Y88.4785 Z-1.3 I0.0063 J-0.0108
G2 X9.7483 Y88.4677 Z-1.3333 I-0.0125 J0.0
G2 Y88.4893 Z-1.3667 I0.0062 J0.0108
G2 X9.7671 Y88.4785 Z-1.4 I0.0063 J-0.0108
G2 X9.7483 Y88.4677 Z-1.4333 I-0.0125 J0.0
G2 Y88.4893 Z-1.4667 I0.0062 J0.0108
G2 X9.7671 Y88.4785 Z-1.5 I0.0063 J-0.0108
G2 X9.7483 Y88.4677 Z-1.5333 I-0.0125 J0.0
G2 Y88.4893 Z-1.5667 I0.0062 J0.0108
G2 X9.7671 Y88.4785 Z-1.6 I0.0063 J-0.0108
G2 X9.7483 Y88.4677 Z-1.6333 I-0.0125 J0.0
G2 Y88.4893 Z-1.6667 I0.0062 J0.0108
G2 X9.7671 Y88.4785 Z-1.7 I0.0063 J-0.0108
G2 X9.7483 Y88.4677 Z-1.7333 I-0.0125 J0.0
G2 Y88.4893 Z-1.7667 I0.0062 J0.0108
G2 X9.7671 Y88.4785 Z-1.8 I0.0063 J-0.0108
G2 X9.7483 Y88.4677 Z-1.8333 I-0.0125 J0.0
G2 Y88.4893 Z-1.8667 I0.0062 J0.0108
G2 X9.7671 Y88.4785 Z-1.9 I0.0063 J-0.0108
G2 X9.7483 Y88.4677 Z-1.9333 I-0.0125 J0.0
G2 Y88.4893 Z-1.9667 I0.0062 J0.0108
G2 X9.7671 Y88.4785 Z-2.0 I0.0063 J-0.0108
G2 X9.7483 Y88.4677 Z-2.0333 I-0.0125 J0.0
G2 Y88.4893 Z-2.0667 I0.0062 J0.0108
G2 X9.7671 Y88.4785 Z-2.1 I0.0063 J-0.0108
G2 X9.7483 Y88.4677 Z-2.1333 I-0.0125 J0.0
G2 Y88.4893 Z-2.1667 I0.0062 J0.0108
G2 X9.7671 Y88.4785 Z-2.2 I0.0063 J-0.0108
G2 X9.7483 Y88.4677 Z-2.2333 I-0.0125 J0.0
G2 Y88.4893 Z-2.2667 I0.0062 J0.0108
G2 X9.7671 Y88.4785 Z-2.3 I0.0063 J-0.0108
G2 X9.7483 Y88.4677 Z-2.3333 I-0.0125 J0.0
G2 Y88.4893 Z-2.3667 I0.0062 J0.0108
G2 X9.7671 Y88.4785 Z-2.4 I0.0063 J-0.0108
G2 X9.7483 Y88.4677 Z-2.4333 I-0.0125 J0.0
G2 Y88.4893 Z-2.4667 I0.0062 J0.0108
G2 X9.7671 Y88.4785 Z-2.5 I0.0063 J-0.0108
G2 X9.7483 Y88.4677 Z-2.5333 I-0.0125 J0.0
G2 Y88.4893 Z-2.5667 I0.0062 J0.0108
G2 X9.7671 Y88.4785 Z-2.6 I0.0063 J-0.0108
G2 X9.7483 Y88.4677 Z-2.6333 I-0.0125 J0.0
G2 Y88.4893 Z-2.6667 I0.0062 J0.0108
G2 X9.7671 Y88.4785 Z-2.7 I0.0063 J-0.0108
G2 X9.7483 Y88.4677 Z-2.7333 I-0.0125 J0.0
G2 Y88.4893 Z-2.7667 I0.0062 J0.0108
G2 X9.7671 Y88.4785 Z-2.8 I0.0062 J-0.0108
G2 X9.7483 Y88.4677 Z-2.8333 I-0.0125 J0.0
G2 Y88.4893 Z-2.8667 I0.0062 J0.0108
G2 X9.7671 Y88.4785 Z-2.9 I0.0062 J-0.0108
G2 X9.7483 Y88.4677 Z-2.9333 I-0.0125 J0.0
G2 Y88.4893 Z-2.9667 I0.0062 J0.0108
G2 X9.7671 Y88.4785 Z-3.0 I0.0062 J-0.0108
G2 X9.7483 Y88.4677 Z-3.0333 I-0.0125 J0.0
G2 Y88.4893 Z-3.0667 I0.0062 J0.0108
G2 X9.7671 Y88.4785 Z-3.1 I0.0062 J-0.0108
G2 X9.7483 Y88.4677 Z-3.1333 I-0.0125 J0.0
G2 Y88.4893 Z-3.1667 I0.0063 J0.0108
G2 X9.7671 Y88.4785 Z-3.2 I0.0062 J-0.0108
G2 X9.7483 Y88.4677 I-0.0125 J0.0
G2 Y88.4893 I0.0063 J0.0108
G2 X9.7671 Y88.4785 I0.0062 J-0.0108
G0 Z3.0
G0 X20.0125 Y125.5
G1 F1000.0 Z0.0
G2 F2000.0 X19.9938 Y125.4892 Z-0.0333 I-0.0125 J0.0
G2 Y125.5108 Z-0.0667 I0.0062 J0.0108
G2 X20.0125 Y125.5 Z-0.1 I0.0063 J-0.0108
G2 X19.9938 Y125.4892 Z-0.1333 I-0.0125 J0.0
G2 Y125.5108 Z-0.1667 I0.0062 J0.0108
G2 X20.0125 Y125.5 Z-0.2 I0.0063 J-0.0108
G2 X19.9938 Y125.4892 Z-0.2333 I-0.0125 J0.0
G2 Y125.5108 Z-0.2667 I0.0062 J0.0108
G2 X20.0125 Y125.5 Z-0.3 I0.0063 J-0.0108
G2 X19.9938 Y125.4892 Z-0.3333 I-0.0125 J0.0
G2 Y125.5108 Z-0.3667 I0.0062 J0.0108
G2 X20.0125 Y125.5 Z-0.4 I0.0063 J-0.0108
G2 X19.9938 Y125.4892 Z-0.4333 I-0.0125 J0.0
G2 Y125.5108 Z-0.4667 I0.0062 J0.0108
G2 X20.0125 Y125.5 Z-0.5 I0.0063 J-0.0108
G2 X19.9938 Y125.4892 Z-0.5333 I-0.0125 J0.0
G2 Y125.5108 Z-0.5667 I0.0062 J0.0108
G2 X20.0125 Y125.5 Z-0.6 I0.0063 J-0.0108
G2 X19.9938 Y125.4892 Z-0.6333 I-0.0125 J0.0
G2 Y125.5108 Z-0.6667 I0.0062 J0.0108
G2 X20.0125 Y125.5 Z-0.7 I0.0063 J-0.0108
G2 X19.9938 Y125.4892 Z-0.7333 I-0.0125 J0.0
G2 Y125.5108 Z-0.7667 I0.0062 J0.0108
G2 X20.0125 Y125.5 Z-0.8 I0.0063 J-0.0108
G2 X19.9938 Y125.4892 Z-0.8333 I-0.0125 J0.0
G2 Y125.5108 Z-0.8667 I0.0062 J0.0108
G2 X20.0125 Y125.5 Z-0.9 I0.0063 J-0.0108
G2 X19.9938 Y125.4892 Z-0.9333 I-0.0125 J0.0
G2 Y125.5108 Z-0.9667 I0.0062 J0.0108
G2 X20.0125 Y125.5 Z-1.0 I0.0063 J-0.0108
G2 X19.9938 Y125.4892 Z-1.0333 I-0.0125 J0.0
G2 Y125.5108 Z-1.0667 I0.0062 J0.0108
G2 X20.0125 Y125.5 Z-1.1 I0.0063 J-0.0108
G2 X19.9938 Y125.4892 Z-1.1333 I-0.0125 J0.0
G2 Y125.5108 Z-1.1667 I0.0062 J0.0108
G2 X20.0125 Y125.5 Z-1.2 I0.0063 J-0.0108
G2 X19.9938 Y125.4892 Z-1.2333 I-0.0125 J0.0
G2 Y125.5108 Z-1.2667 I0.0062 J0.0108
G2 X20.0125 Y125.5 Z-1.3 I0.0063 J-0.0108
G2 X19.9938 Y125.4892 Z-1.3333 I-0.0125 J0.0
G2 Y125.5108 Z-1.3667 I0.0062 J0.0108
G2 X20.0125 Y125.5 Z-1.4 I0.0063 J-0.0108
G2 X19.9938 Y125.4892 Z-1.4333 I-0.0125 J0.0
G2 Y125.5108 Z-1.4667 I0.0062 J0.0108
G2 X20.0125 Y125.5 Z-1.5 I0.0063 J-0.0108
G2 X19.9938 Y125.4892 Z-1.5333 I-0.0125 J0.0
G2 Y125.5108 Z-1.5667 I0.0062 J0.0108
G2 X20.0125 Y125.5 Z-1.6 I0.0063 J-0.0108
G2 X19.9938 Y125.4892 Z-1.6333 I-0.0125 J0.0
G2 Y125.5108 Z-1.6667 I0.0062 J0.0108
G2 X20.0125 Y125.5 Z-1.7 I0.0063 J-0.0108
G2 X19.9938 Y125.4892 Z-1.7333 I-0.0125 J0.0
G2 Y125.5108 Z-1.7667 I0.0062 J0.0108
G2 X20.0125 Y125.5 Z-1.8 I0.0063 J-0.0108
G2 X19.9938 Y125.4892 Z-1.8333 I-0.0125 J0.0
G2 Y125.5108 Z-1.8667 I0.0062 J0.0108
G2 X20.0125 Y125.5 Z-1.9 I0.0063 J-0.0108
G2 X19.9938 Y125.4892 Z-1.9333 I-0.0125 J0.0
G2 Y125.5108 Z-1.9667 I0.0062 J0.0108
G2 X20.0125 Y125.5 Z-2.0 I0.0063 J-0.0108
G2 X19.9938 Y125.4892 Z-2.0333 I-0.0125 J0.0
G2 Y125.5108 Z-2.0667 I0.0062 J0.0108
G2 X20.0125 Y125.5 Z-2.1 I0.0063 J-0.0108
G2 X19.9938 Y125.4892 Z-2.1333 I-0.0125 J0.0
G2 Y125.5108 Z-2.1667 I0.0062 J0.0108
G2 X20.0125 Y125.5 Z-2.2 I0.0063 J-0.0108
G2 X19.9938 Y125.4892 Z-2.2333 I-0.0125 J0.0
G2 Y125.5108 Z-2.2667 I0.0062 J0.0108
G2 X20.0125 Y125.5 Z-2.3 I0.0063 J-0.0108
G2 X19.9938 Y125.4892 Z-2.3333 I-0.0125 J0.0
G2 Y125.5108 Z-2.3667 I0.0062 J0.0108
G2 X20.0125 Y125.5 Z-2.4 I0.0063 J-0.0108
G2 X19.9938 Y125.4892 Z-2.4333 I-0.0125 J0.0
G2 Y125.5108 Z-2.4667 I0.0062 J0.0108
G2 X20.0125 Y125.5 Z-2.5 I0.0063 J-0.0108
G2 X19.9938 Y125.4892 Z-2.5333 I-0.0125 J0.0
G2 Y125.5108 Z-2.5667 I0.0062 J0.0108
G2 X20.0125 Y125.5 Z-2.6 I0.0063 J-0.0108
G2 X19.9938 Y125.4892 Z-2.6333 I-0.0125 J0.0
G2 Y125.5108 Z-2.6667 I0.0062 J0.0108
G2 X20.0125 Y125.5 Z-2.7 I0.0063 J-0.0108
G2 X19.9938 Y125.4892 Z-2.7333 I-0.0125 J0.0
G2 Y125.5108 Z-2.7667 I0.0062 J0.0108
G2 X20.0125 Y125.5 Z-2.8 I0.0063 J-0.0108
G2 X19.9938 Y125.4892 Z-2.8333 I-0.0125 J0.0
G2 Y125.5108 Z-2.8667 I0.0062 J0.0108
G2 X20.0125 Y125.5 Z-2.9 I0.0063 J-0.0108
G2 X19.9938 Y125.4892 Z-2.9333 I-0.0125 J0.0
G2 Y125.5108 Z-2.9667 I0.0062 J0.0108
G2 X20.0125 Y125.5 Z-3.0 I0.0063 J-0.0108
G2 X19.9938 Y125.4892 Z-3.0333 I-0.0125 J0.0
G2 Y125.5108 Z-3.0667 I0.0062 J0.0108
G2 X20.0125 Y125.5 Z-3.1 I0.0063 J-0.0108
G2 X19.9938 Y125.4892 Z-3.1333 I-0.0125 J0.0
G2 Y125.5108 Z-3.1667 I0.0062 J0.0108
G2 X20.0125 Y125.5 Z-3.2 I0.0063 J-0.0108
G2 X19.9938 Y125.4892 I-0.0125 J0.0
G2 Y125.5108 I0.0063 J0.0108
G2 X20.0125 Y125.5 I0.0062 J-0.0108
G0 Z3.0
G0 X7.5125 Y3.0
G1 F1000.0 Z0.0
G2 F2000.0 X7.4938 Y2.9892 Z-0.0333 I-0.0125 J0.0
G2 Y3.0108 Z-0.0667 I0.0062 J0.0108
G2 X7.5125 Y3.0 Z-0.1 I0.0063 J-0.0108
G2 X7.4938 Y2.9892 Z-0.1333 I-0.0125 J0.0
G2 Y3.0108 Z-0.1667 I0.0062 J0.0108
G2 X7.5125 Y3.0 Z-0.2 I0.0063 J-0.0108
G2 X7.4938 Y2.9892 Z-0.2333 I-0.0125 J0.0
G2 Y3.0108 Z-0.2667 I0.0062 J0.0108
G2 X7.5125 Y3.0 Z-0.3 I0.0063 J-0.0108
G2 X7.4938 Y2.9892 Z-0.3333 I-0.0125 J0.0
G2 Y3.0108 Z-0.3667 I0.0063 J0.0108
G2 X7.5125 Y3.0 Z-0.4 I0.0062 J-0.0108
G2 X7.4938 Y2.9892 Z-0.4333 I-0.0125 J0.0
G2 Y3.0108 Z-0.4667 I0.0063 J0.0108
G2 X7.5125 Y3.0 Z-0.5 I0.0062 J-0.0108
G2 X7.4938 Y2.9892 Z-0.5333 I-0.0125 J0.0
G2 Y3.0108 Z-0.5667 I0.0063 J0.0108
G2 X7.5125 Y3.0 Z-0.6 I0.0062 J-0.0108
G2 X7.4938 Y2.9892 Z-0.6333 I-0.0125 J0.0
G2 Y3.0108 Z-0.6667 I0.0062 J0.0108
G2 X7.5125 Y3.0 Z-0.7 I0.0063 J-0.0108
G2 X7.4938 Y2.9892 Z-0.7333 I-0.0125 J0.0
G2 Y3.0108 Z-0.7667 I0.0062 J0.0108
G2 X7.5125 Y3.0 Z-0.8 I0.0063 J-0.0108
G2 X7.4938 Y2.9892 Z-0.8333 I-0.0125 J0.0
G2 Y3.0108 Z-0.8667 I0.0062 J0.0108
G2 X7.5125 Y3.0 Z-0.9 I0.0063 J-0.0108
G2 X7.4938 Y2.9892 Z-0.9333 I-0.0125 J0.0
G2 Y3.0108 Z-0.9667 I0.0062 J0.0108
G2 X7.5125 Y3.0 Z-1.0 I0.0063 J-0.0108
G2 X7.4938 Y2.9892 Z-1.0333 I-0.0125 J0.0
G2 Y3.0108 Z-1.0667 I0.0062 J0.0108
G2 X7.5125 Y3.0 Z-1.1 I0.0063 J-0.0108
G2 X7.4938 Y2.9892 Z-1.1333 I-0.0125 J0.0
G2 Y3.0108 Z-1.1667 I0.0062 J0.0108
G2 X7.5125 Y3.0 Z-1.2 I0.0063 J-0.0108
G2 X7.4938 Y2.9892 Z-1.2333 I-0.0125 J0.0
G2 Y3.0108 Z-1.2667 I0.0062 J0.0108
G2 X7.5125 Y3.0 Z-1.3 I0.0063 J-0.0108
G2 X7.4938 Y2.9892 Z-1.3333 I-0.0125 J0.0
G2 Y3.0108 Z-1.3667 I0.0062 J0.0108
G2 X7.5125 Y3.0 Z-1.4 I0.0063 J-0.0108
G2 X7.4938 Y2.9892 Z-1.4333 I-0.0125 J0.0
G2 Y3.0108 Z-1.4667 I0.0062 J0.0108
G2 X7.5125 Y3.0 Z-1.5 I0.0063 J-0.0108
G2 X7.4938 Y2.9892 Z-1.5333 I-0.0125 J0.0
G2 Y3.0108 Z-1.5667 I0.0062 J0.0108
G2 X7.5125 Y3.0 Z-1.6 I0.0063 J-0.0108
G2 X7.4938 Y2.9892 Z-1.6333 I-0.0125 J0.0
G2 Y3.0108 Z-1.6667 I0.0062 J0.0108
G2 X7.5125 Y3.0 Z-1.7 I0.0063 J-0.0108
G2 X7.4938 Y2.9892 Z-1.7333 I-0.0125 J0.0
G2 Y3.0108 Z-1.7667 I0.0062 J0.0108
G2 X7.5125 Y3.0 Z-1.8 I0.0063 J-0.0108
G2 X7.4938 Y2.9892 Z-1.8333 I-0.0125 J0.0
G2 Y3.0108 Z-1.8667 I0.0062 J0.0108
G2 X7.5125 Y3.0 Z-1.9 I0.0063 J-0.0108
G2 X7.4938 Y2.9892 Z-1.9333 I-0.0125 J0.0
G2 Y3.0108 Z-1.9667 I0.0062 J0.0108
G2 X7.5125 Y3.0 Z-2.0 I0.0063 J-0.0108
G2 X7.4938 Y2.9892 Z-2.0333 I-0.0125 J0.0
G2 Y3.0108 Z-2.0667 I0.0062 J0.0108
G2 X7.5125 Y3.0 Z-2.1 I0.0063 J-0.0108
G2 X7.4938 Y2.9892 Z-2.1333 I-0.0125 J0.0
G2 Y3.0108 Z-2.1667 I0.0062 J0.0108
G2 X7.5125 Y3.0 Z-2.2 I0.0063 J-0.0108
G2 X7.4938 Y2.9892 Z-2.2333 I-0.0125 J0.0
G2 Y3.0108 Z-2.2667 I0.0062 J0.0108
G2 X7.5125 Y3.0 Z-2.3 I0.0063 J-0.0108
G2 X7.4938 Y2.9892 Z-2.3333 I-0.0125 J0.0
G2 Y3.0108 Z-2.3667 I0.0063 J0.0108
G2 X7.5125 Y3.0 Z-2.4 I0.0062 J-0.0108
G2 X7.4938 Y2.9892 Z-2.4333 I-0.0125 J0.0
G2 Y3.0108 Z-2.4667 I0.0063 J0.0108
G2 X7.5125 Y3.0 Z-2.5 I0.0062 J-0.0108
G2 X7.4938 Y2.9892 Z-2.5333 I-0.0125 J0.0
G2 Y3.0108 Z-2.5667 I0.0063 J0.0108
G2 X7.5125 Y3.0 Z-2.6 I0.0062 J-0.0108
G2 X7.4938 Y2.9892 Z-2.6333 I-0.0125 J0.0
G2 Y3.0108 Z-2.6667 I0.0063 J0.0108
G2 X7.5125 Y3.0 Z-2.7 I0.0062 J-0.0108
G2 X7.4938 Y2.9892 Z-2.7333 I-0.0125 J0.0
G2 Y3.0108 Z-2.7667 I0.0063 J0.0108
G2 X7.5125 Y3.0 Z-2.8 I0.0062 J-0.0108
G2 X7.4938 Y2.9892 Z-2.8333 I-0.0125 J0.0
G2 Y3.0108 Z-2.8667 I0.0063 J0.0108
G2 X7.5125 Y3.0 Z-2.9 I0.0062 J-0.0108
G2 X7.4938 Y2.9892 Z-2.9333 I-0.0125 J0.0
G2 Y3.0108 Z-2.9667 I0.0063 J0.0108
G2 X7.5125 Y3.0 Z-3.0 I0.0062 J-0.0108
G2 X7.4938 Y2.9892 Z-3.0333 I-0.0125 J0.0
G2 Y3.0108 Z-3.0667 I0.0063 J0.0108
G2 X7.5125 Y3.0 Z-3.1 I0.0062 J-0.0108
G2 X7.4938 Y2.9892 Z-3.1333 I-0.0125 J0.0
G2 Y3.0108 Z-3.1667 I0.0063 J0.0108
G2 X7.5125 Y3.0 Z-3.2 I0.0062 J-0.0108
G2 X7.4938 Y2.9892 I-0.0125 J0.0
G2 Y3.0108 I0.0063 J0.0108
G2 X7.5125 Y3.0 I0.0062 J-0.0108
( cutout )
S1000
G0 Z3.0
G0 X9.9839 Y-1.5837
G1 F1000.0 Z-0.1
G1 F2000.0 X0.0043
G2 X-1.5832 Y0.0038 I0.0 J1.5875
G1 Y128.166
G2 X0.0043 Y129.7535 I1.5875 J0.0
G1 X27.637
G2 X29.2245 Y128.166 I0.0 J-1.5875
G1 Y0.0038
G2 X27.637 Y-1.5837 I-1.5875 J0.0
G1 X9.9839
G1 F1000.0 Z-0.2
G1 F2000.0 X0.0043
G2 X-1.5832 Y0.0038 I0.0 J1.5875
G1 Y128.166
G2 X0.0043 Y129.7535 I1.5875 J0.0
G1 X27.637
G2 X29.2245 Y128.166 I0.0 J-1.5875
G1 Y0.0038
G2 X27.637 Y-1.5837 I-1.5875 J0.0
G1 X9.9839
G1 F1000.0 Z-0.3
G1 F2000.0 X0.0043
G2 X-1.5832 Y0.0038 I0.0 J1.5875
G1 Y128.166
G2 X0.0043 Y129.7535 I1.5875 J0.0
G1 X27.637
G2 X29.2245 Y128.166 I0.0 J-1.5875
G1 Y0.0038
G2 X27.637 Y-1.5837 I-1.5875 J0.0
G1 X9.9839
G1 F1000.0 Z-0.4
G1 F2000.0 X0.0043
G2 X-1.5832 Y0.0038 I0.0 J1.5875
G1 Y128.166
G2 X0.0043 Y129.7535 I1.5875 J0.0
G1 X27.637
G2 X29.2245 Y128.166 I0.0 J-1.5875
G1 Y0.0038
G2 X27.637 Y-1.5837 I-1.5875 J0.0
G1 X9.9839
G1 F1000.0 Z-0.5
G1 F2000.0 X0.0043
G2 X-1.5832 Y0.0038 I0.0 J1.5875
G1 Y128.166
G2 X0.0043 Y129.7535 I1.5875 J0.0
G1 X27.637
G2 X29.2245 Y128.166 I0.0 J-1.5875
G1 Y0.0038
G2 X27.637 Y-1.5837 I-1.5875 J0.0
G1 X9.9839
G1 F1000.0 Z-0.6
G1 F2000.0 X0.0043
G2 X-1.5832 Y0.0038 I0.0 J1.5875
G1 Y128.166
G2 X0.0043 Y129.7535 I1.5875 J0.0
G1 X27.637
G2 X29.2245 Y128.166 I0.0 J-1.5875
G1 Y0.0038
G2 X27.637 Y-1.5837 I-1.5875 J0.0
G1 X9.9839
G1 F1000.0 Z-0.7
G1 F2000.0 X0.0043
G2 X-1.5832 Y0.0038 I0.0 J1.5875
G1 Y128.166
G2 X0.0043 Y129.7535 I1.5875 J0.0
G1 X27.637
G2 X29.2245 Y128.166 I0.0 J-1.5875
G1 Y0.0038
G2 X27.637 Y-1.5837 I-1.5875 J0.0
G1 X9.9839
G1 F1000.0 Z-0.8
G1 F2000.0 X0.0043
G2 X-1.5832 Y0.0038 I0.0 J1.5875
G1 Y128.166
G2 X0.0043 Y129.7535 I1.5875 J0.0
G1 X27.637
G2 X29.2245 Y128.166 I0.0 J-1.5875
G1 Y0.0038
G2 X27.637 Y-1.5837 I-1.5875 J0.0
G1 X9.9839
G1 F1000.0 Z-0.9
G1 F2000.0 X0.0043
G2 X-1.5832 Y0.0038 I0.0 J1.5875
G1 Y128.166
G2 X0.0043 Y129.7535 I1.5875 J0.0
G1 X27.637
G2 X29.2245 Y128.166 I0.0 J-1.5875
G1 Y0.0038
G2 X27.637 Y-1.5837 I-1.5875 J0.0
G1 X9.9839
G1 F1000.0 Z-1.0
G1 F2000.0 X0.0043
G2 X-1.5832 Y0.0038 I0.0 J1.5875
G1 Y128.166
G2 X0.0043 Y129.7535 I1.5875 J0.0
G1 X27.637
G2 X29.2245 Y128.166 I0.0 J-1.5875
G1 Y0.0038
G2 X27.637 Y-1.5837 I-1.5875 J0.0
G1 X9.9839
G1 F1000.0 Z-1.1
G1 F2000.0 X0.0043
G2 X-1.5832 Y0.0038 I0.0 J1.5875
G1 Y128.166
G2 X0.0043 Y129.7535 I1.5875 J0.0
G1 X27.637
G2 X29.2245 Y128.166 I0.0 J-1.5875
G1 Y0.0038
G2 X27.637 Y-1.5837 I-1.5875 J0.0
G1 X9.9839
G1 F1000.0 Z-1.2
G1 F2000.0 X0.0043
G2 X-1.5832 Y0.0038 I0.0 J1.5875
G1 Y128.166
G2 X0.0043 Y129.7535 I1.5875 J0.0
G1 X27.637
G2 X29.2245 Y128.166 I0.0 J-1.5875
G1 Y0.0038
G2 X27.637 Y-1.5837 I-1.5875 J0.0
G1 X9.9839
G1 F1000.0 Z-1.3
G1 F2000.0 X0.0043
G2 X-1.5832 Y0.0038 I0.0 J1.5875
G1 Y28.1329
G1 Y30.2204 Z-1.2
G1 Y32.3079 Z-1.3
G1 Y108.5253
G1 Y110.6128 Z-1.2
G1 Y112.7003 Z-1.3
G1 Y128.166
G2 X0.0043 Y129.7535 I1.5875 J0.0
G1 X27.637
G2 X29.2245 Y128.166 I0.0 J-1.5875
G1 Y95.0471
G1 Y92.9596 Z-1.2
G1 Y90.8721 Z-1.3
G1 Y14.6547
G1 Y12.5672 Z-1.2
G1 Y10.4797 Z-1.3
G1 Y0.0038
G2 X27.637 Y-1.5837 I-1.5875 J0.0
G1 X9.9839
G1 F1000.0 Z-1.4
G1 F2000.0 X0.0043
G2 X-1.5832 Y0.0038 I0.0 J1.5875
G1 Y28.1329
G1 Y30.2204 Z-1.2
G1 Y32.3079 Z-1.4
G1 Y108.5253
G1 Y110.6128 Z-1.2
G1 Y112.7003 Z-1.4
G1 Y128.166
G2 X0.0043 Y129.7535 I1.5875 J0.0
G1 X27.637
G2 X29.2245 Y128.166 I0.0 J-1.5875
G1 Y95.0471
G1 Y92.9596 Z-1.2
G1 Y90.8721 Z-1.4
G1 Y14.6547
G1 Y12.5672 Z-1.2
G1 Y10.4797 Z-1.4
G1 Y0.0038
G2 X27.637 Y-1.5837 I-1.5875 J0.0
G1 X9.9839
G1 F1000.0 Z-1.5
G1 F2000.0 X0.0043
G2 X-1.5832 Y0.0038 I0.0 J1.5875
G1 Y28.1329
G1 Y30.2204 Z-1.2
G1 Y32.3079 Z-1.5
G1 Y108.5253
G1 Y110.6128 Z-1.2
G1 Y112.7003 Z-1.5
G1 Y128.166
G2 X0.0043 Y129.7535 I1.5875 J0.0
G1 X27.637
G2 X29.2245 Y128.166 I0.0 J-1.5875
G1 Y95.0471
G1 Y92.9596 Z-1.2
G1 Y90.8721 Z-1.5
G1 Y14.6547
G1 Y12.5672 Z-1.2
G1 Y10.4797 Z-1.5
G1 Y0.0038
G2 X27.637 Y-1.5837 I-1.5875 J0.0
G1 X9.9839
G1 F1000.0 Z-1.6
G1 F2000.0 X0.0043
G2 X-1.5832 Y0.0038 I0.0 J1.5875
G1 Y28.1329
G1 Y30.2204 Z-1.2
G1 Y32.3079 Z-1.6
G1 Y108.5253
G1 Y110.6128 Z-1.2
G1 Y112.7003 Z-1.6
G1 Y128.166
G2 X0.0043 Y129.7535 I1.5875 J0.0
G1 X27.637
G2 X29.2245 Y128.166 I0.0 J-1.5875
G1 Y95.0471
G1 Y92.9596 Z-1.2
G1 Y90.8721 Z-1.6
G1 Y14.6547
G1 Y12.5672 Z-1.2
G1 Y10.4797 Z-1.6
G1 Y0.0038
G2 X27.637 Y-1.5837 I-1.5875 J0.0
G1 X9.9839
G1 F1000.0 Z-1.7
G1 F2000.0 X0.0043
G2 X-1.5832 Y0.0038 I0.0 J1.5875
G1 Y28.1329
G1 Y30.2204 Z-1.2
G1 Y32.3079 Z-1.7
G1 Y108.5253
G1 Y110.6128 Z-1.2
G1 Y112.7003 Z-1.7
G1 Y128.166
G2 X0.0043 Y129.7535 I1.5875 J0.0
G1 X27.637
G2 X29.2245 Y128.166 I0.0 J-1.5875
G1 Y95.0471
G1 Y92.9596 Z-1.2
G1 Y90.8721 Z-1.7
G1 Y14.6547
G1 Y12.5672 Z-1.2
G1 Y10.4797 Z-1.7
G1 Y0.0038
G2 X27.637 Y-1.5837 I-1.5875 J0.0
G1 X9.9839
G1 F1000.0 Z-1.8
G1 F2000.0 X0.0043
G2 X-1.5832 Y0.0038 I0.0 J1.5875
G1 Y28.1329
G1 Y30.2204 Z-1.2
G1 Y32.3079 Z-1.8
G1 Y108.5253
G1 Y110.6128 Z-1.2
G1 Y112.7003 Z-1.8
G1 Y128.166
G2 X0.0043 Y129.7535 I1.5875 J0.0
G1 X27.637
G2 X29.2245 Y128.166 I0.0 J-1.5875
G1 Y95.0471
G1 Y92.9596 Z-1.2
G1 Y90.8721 Z-1.8
G1 Y14.6547
G1 Y12.5672 Z-1.2
G1 Y10.4797 Z-1.8
G1 Y0.0038
G2 X27.637 Y-1.5837 I-1.5875 J0.0
G1 X9.9839
G1 F1000.0 Z-1.9
G1 F2000.0 X0.0043
G2 X-1.5832 Y0.0038 I0.0 J1.5875
G1 Y28.1329
G1 Y30.2204 Z-1.2
G1 Y32.3079 Z-1.9
G1 Y108.5253
G1 Y110.6128 Z-1.2
G1 Y112.7003 Z-1.9
G1 Y128.166
G2 X0.0043 Y129.7535 I1.5875 J0.0
G1 X27.637
G2 X29.2245 Y128.166 I0.0 J-1.5875
G1 Y95.0471
G1 Y92.9596 Z-1.2
G1 Y90.8721 Z-1.9
G1 Y14.6547
G1 Y12.5672 Z-1.2
G1 Y10.4797 Z-1.9
G1 Y0.0038
G2 X27.637 Y-1.5837 I-1.5875 J0.0
G1 X9.9839
G1 F1000.0 Z-2.0
G1 F2000.0 X0.0043
G2 X-1.5832 Y0.0038 I0.0 J1.5875
G1 Y28.1329
G1 Y30.2204 Z-1.2
G1 Y32.3079 Z-2.0
G1 Y108.5253
G1 Y110.6128 Z-1.2
G1 Y112.7003 Z-2.0
G1 Y128.166
G2 X0.0043 Y129.7535 I1.5875 J0.0
G1 X27.637
G2 X29.2245 Y128.166 I0.0 J-1.5875
G1 Y95.0471
G1 Y92.9596 Z-1.2
G1 Y90.8721 Z-2.0
G1 Y14.6547
G1 Y12.5672 Z-1.2
G1 Y10.4797 Z-2.0
G1 Y0.0038
G2 X27.637 Y-1.5837 I-1.5875 J0.0
G1 X9.9839
G1 F1000.0 Z-2.1
G1 F2000.0 X0.0043
G2 X-1.5832 Y0.0038 I0.0 J1.5875
G1 Y28.1329
G1 Y30.2204 Z-1.2
G1 Y32.3079 Z-2.1
G1 Y108.5253
G1 Y110.6128 Z-1.2
G1 Y112.7003 Z-2.1
G1 Y128.166
G2 X0.0043 Y129.7535 I1.5875 J0.0
G1 X27.637
G2 X29.2245 Y128.166 I0.0 J-1.5875
G1 Y95.0471
G1 Y92.9596 Z-1.2
G1 Y90.8721 Z-2.1
G1 Y14.6547
G1 Y12.5672 Z-1.2
G1 Y10.4797 Z-2.1
G1 Y0.0038
G2 X27.637 Y-1.5837 I-1.5875 J0.0
G1 X9.9839
G1 F1000.0 Z-2.2
G1 F2000.0 X0.0043
G2 X-1.5832 Y0.0038 I0.0 J1.5875
G1 Y28.1329
G1 Y30.2204 Z-1.2
G1 Y32.3079 Z-2.2
G1 Y108.5253
G1 Y110.6128 Z-1.2
G1 Y112.7003 Z-2.2
G1 Y128.166
G2 X0.0043 Y129.7535 I1.5875 J0.0
G1 X27.637
G2 X29.2245 Y128.166 I0.0 J-1.5875
G1 Y95.0471
G1 Y92.9596 Z-1.2
G1 Y90.8721 Z-2.2
G1 Y14.6547
G1 Y12.5672 Z-1.2
G1 Y10.4797 Z-2.2
G1 Y0.0038
G2 X27.637 Y-1.5837 I-1.5875 J0.0
G1 X9.9839
G1 F1000.0 Z-2.3
G1 F2000.0 X0.0043
G2 X-1.5832 Y0.0038 I0.0 J1.5875
G1 Y28.1329
G1 Y30.2204 Z-1.2
G1 Y32.3079 Z-2.3
G1 Y108.5253
G1 Y110.6128 Z-1.2
G1 Y112.7003 Z-2.3
G1 Y128.166
G2 X0.0043 Y129.7535 I1.5875 J0.0
G1 X27.637
G2 X29.2245 Y128.166 I0.0 J-1.5875
G1 Y95.0471
G1 Y92.9596 Z-1.2
G1 Y90.8721 Z-2.3
G1 Y14.6547
G1 Y12.5672 Z-1.2
G1 Y10.4797 Z-2.3
G1 Y0.0038
G2 X27.637 Y-1.5837 I-1.5875 J0.0
G1 X9.9839
G1 F1000.0 Z-2.4
G1 F2000.0 X0.0043
G2 X-1.5832 Y0.0038 I0.0 J1.5875
G1 Y28.1329
G1 Y30.2204 Z-1.2
G1 Y32.3079 Z-2.4
G1 Y108.5253
G1 Y110.6128 Z-1.2
G1 Y112.7003 Z-2.4
G1 Y128.166
G2 X0.0043 Y129.7535 I1.5875 J0.0
G1 X27.637
G2 X29.2245 Y128.166 I0.0 J-1.5875
G1 Y95.0471
G1 Y92.9596 Z-1.2
G1 Y90.8721 Z-2.4
G1 Y14.6547
G1 Y12.5672 Z-1.2
G1 Y10.4797 Z-2.4
G1 Y0.0038
G2 X27.637 Y-1.5837 I-1.5875 J0.0
G1 X9.9839
G1 F1000.0 Z-2.5
G1 F2000.0 X0.0043
G2 X-1.5832 Y0.0038 I0.0 J1.5875
G1 Y28.1329
G1 Y30.2204 Z-1.2
G1 Y32.3079 Z-2.5
G1 Y108.5253
G1 Y110.6128 Z-1.2
G1 Y112.7003 Z-2.5
G1 Y128.166
G2 X0.0043 Y129.7535 I1.5875 J0.0
G1 X27.637
G2 X29.2245 Y128.166 I0.0 J-1.5875
G1 Y95.0471
G1 Y92.9596 Z-1.2
G1 Y90.8721 Z-2.5
G1 Y14.6547
G1 Y12.5672 Z-1.2
G1 Y10.4797 Z-2.5
G1 Y0.0038
G2 X27.637 Y-1.5837 I-1.5875 J0.0
G1 X9.9839
G1 F1000.0 Z-2.6
G1 F2000.0 X0.0043
G2 X-1.5832 Y0.0038 I0.0 J1.5875
G1 Y28.1329
G1 Y30.2204 Z-1.2
G1 Y32.3079 Z-2.6
G1 Y108.5253
G1 Y110.6128 Z-1.2
G1 Y112.7003 Z-2.6
G1 Y128.166
G2 X0.0043 Y129.7535 I1.5875 J0.0
G1 X27.637
G2 X29.2245 Y128.166 I0.0 J-1.5875
G1 Y95.0471
G1 Y92.9596 Z-1.2
G1 Y90.8721 Z-2.6
G1 Y14.6547
G1 Y12.5672 Z-1.2
G1 Y10.4797 Z-2.6
G1 Y0.0038
G2 X27.637 Y-1.5837 I-1.5875 J0.0
G1 X9.9839
G1 F1000.0 Z-2.7
G1 F2000.0 X0.0043
G2 X-1.5832 Y0.0038 I0.0 J1.5875
G1 Y28.1329
G1 Y30.2204 Z-1.2
G1 Y32.3079 Z-2.7
G1 Y108.5253
G1 Y110.6128 Z-1.2
G1 Y112.7003 Z-2.7
G1 Y128.166
G2 X0.0043 Y129.7535 I1.5875 J0.0
G1 X27.637
G2 X29.2245 Y128.166 I0.0 J-1.5875
G1 Y95.0471
G1 Y92.9596 Z-1.2
G1 Y90.8721 Z-2.7
G1 Y14.6547
G1 Y12.5672 Z-1.2
G1 Y10.4797 Z-2.7
G1 Y0.0038
G2 X27.637 Y-1.5837 I-1.5875 J0.0
G1 X9.9839
G1 F1000.0 Z-2.8
G1 F2000.0 X0.0043
G2 X-1.5832 Y0.0038 I0.0 J1.5875
G1 Y28.1329
G1 Y30.2204 Z-1.2
G1 Y32.3079 Z-2.8
G1 Y108.5253
G1 Y110.6128 Z-1.2
G1 Y112.7003 Z-2.8
G1 Y128.166
G2 X0.0043 Y129.7535 I1.5875 J0.0
G1 X27.637
G2 X29.2245 Y128.166 I0.0 J-1.5875
G1 Y95.0471
G1 Y92.9596 Z-1.2
G1 Y90.8721 Z-2.8
G1 Y14.6547
G1 Y12.5672 Z-1.2
G1 Y10.4797 Z-2.8
G1 Y0.0038
G2 X27.637 Y-1.5837 I-1.5875 J0.0
G1 X9.9839
G1 F1000.0 Z-2.9
G1 F2000.0 X0.0043
G2 X-1.5832 Y0.0038 I0.0 J1.5875
G1 Y28.1329
G1 Y30.2204 Z-1.2
G1 Y32.3079 Z-2.9
G1 Y108.5253
G1 Y110.6128 Z-1.2
G1 Y112.7003 Z-2.9
G1 Y128.166
G2 X0.0043 Y129.7535 I1.5875 J0.0
G1 X27.637
G2 X29.2245 Y128.166 I0.0 J-1.5875
G1 Y95.0471
G1 Y92.9596 Z-1.2
G1 Y90.8721 Z-2.9
G1 Y14.6547
G1 Y12.5672 Z-1.2
G1 Y10.4797 Z-2.9
G1 Y0.0038
G2 X27.637 Y-1.5837 I-1.5875 J0.0
G1 X9.9839
G1 F1000.0 Z-3.0
G1 F2000.0 X0.0043
G2 X-1.5832 Y0.0038 I0.0 J1.5875
G1 Y28.1329
G1 Y30.2204 Z-1.2
G1 Y32.3079 Z-3.0
G1 Y108.5253
G1 Y110.6128 Z-1.2
G1 Y112.7003 Z-3.0
G1 Y128.166
G2 X0.0043 Y129.7535 I1.5875 J0.0
G1 X27.637
G2 X29.2245 Y128.166 I0.0 J-1.5875
G1 Y95.0471
G1 Y92.9596 Z-1.2
G1 Y90.8721 Z-3.0
G1 Y14.6547
G1 Y12.5672 Z-1.2
G1 Y10.4797 Z-3.0
G1 Y0.0038
G2 X27.637 Y-1.5837 I-1.5875 J0.0
G1 X9.9839
G1 F1000.0 Z-3.1
G1 F2000.0 X0.0043
G2 X-1.5832 Y0.0038 I0.0 J1.5875
G1 Y28.1329
G1 Y30.2204 Z-1.2
G1 Y32.3079 Z-3.1
G1 Y108.5253
G1 Y110.6128 Z-1.2
G1 Y112.7003 Z-3.1
G1 Y128.166
G2 X0.0043 Y129.7535 I1.5875 J0.0
G1 X27.637
G2 X29.2245 Y128.166 I0.0 J-1.5875
G1 Y95.0471
G1 Y92.9596 Z-1.2
G1 Y90.8721 Z-3.1
G1 Y14.6547
G1 Y12.5672 Z-1.2
G1 Y10.4797 Z-3.1
G1 Y0.0038
G2 X27.637 Y-1.5837 I-1.5875 J0.0
G1 X9.9839
G1 F1000.0 Z-3.2
G1 F2000.0 X0.0043
G2 X-1.5832 Y0.0038 I0.0 J1.5875
G1 Y28.1329
G1 Y30.2204 Z-1.2
G1 Y32.3079 Z-3.2
G1 Y108.5253
G1 Y110.6128 Z-1.2
G1 Y112.7003 Z-3.2
G1 Y128.166
G2 X0.0043 Y129.7535 I1.5875 J0.0
G1 X27.637
G2 X29.2245 Y128.166 I0.0 J-1.5875
G1 Y95.0471
G1 Y92.9596 Z-1.2
G1 Y90.8721 Z-3.2
G1 Y14.6547
G1 Y12.5672 Z-1.2
G1 Y10.4797 Z-3.2
G1 Y0.0038
G2 X27.637 Y-1.5837 I-1.5875 J0.0
G1 X9.9839
G0 Z3.0
M5
M30
