(/Applications/pcbgcode.repo/pcb-gcode.ulp)
(Copyright 2005 - 2012 by John Johnson)
(See readme.txt for licensing terms.)
(This file generated from the board:)
(.../Mike-Sims-VCA/eagle/mike_sims_vca.brd)
(Current profile is .../pcbgcode.repo/profiles/mach.pp  )
(This file generated 1/22/16 9:06 PM)
(Settings from pcb-machine.h)
(spindle on time = 0.0000)
(spindle speed = 15000.0000)
(milling depth = -0.0700)
(tool change at 0.0000  0.0000  3.0000  )
(feed rate xy = F10    )
(feed rate z  = F5     )
(Z Axis Settings)
(  High     Up        Down     Drill)
(1.0000  	0.0500  	-0.0040 	-0.0730 )
(Settings from pcb-defaults.h)
(isolate min = 0.0010)
(isolate max = 0.0170)
(isolate step = 0.0017)
(Generated bottom outlines, bottom drill, )
(Unit of measure: inch)
(Inch Mode)
G20
(Absolute Coordinates)
G90
S15000
G00 Z1.0000  
G00 X0.0000  Y0.0000  
M03
G04 P0.000000
G00 Z0.0500  
G00 X-0.0400 Y0.1000  
G01 Z-0.0700 F5     
G01 X-1.9000 Y0.1000  F10    
G01 X-2.0000 Y0.2000  
G01 X-2.0000 Y2.9000  
G01 X-1.9000 Y3.0000  
G01 X0.0000  Y3.0000  
G01 X0.0400  Y2.9600  
G01 X0.0400  Y0.1800  
G01 X-0.0400 Y0.1000  
G00 Z0.0500  
G00 X-0.1100 Y0.2400  
G01 Z-0.0700 F5     
G01 X-0.1100 Y0.2600  F10    
G00 Z0.0500  
G00 X-0.1100 Y0.2400  
G01 Z-0.0700 F5     
G01 X-0.1300 Y0.2400  F10    
G01 X-0.1300 Y0.2600  
G00 Z0.0500  
G00 X-0.1000 Y2.8700  
G01 Z-0.0700 F5     
G01 X-0.0800 Y2.8700  F10    
G01 X-0.0800 Y2.8900  
G00 Z0.0500  
G00 X-0.1000 Y2.8900  
G01 Z-0.0700 F5     
G01 X-0.1000 Y2.8700  F10    
G00 Z0.0500  
G00 X-1.8100 Y2.8700  
G01 Z-0.0700 F5     
G01 X-1.8100 Y2.8500  F10    
G01 X-1.8300 Y2.8500  
G01 X-1.8300 Y2.8700  
G00 Z1.0000  
M05
M02
