(/Applications/pcbgcode.repo/pcb-gcode.ulp)
(Copyright 2005 - 2012 by John Johnson)
(See readme.txt for licensing terms.)
(This file generated from the board:)
(.../Mike-Sims-VCA/eagle/mike_sims_vca.brd)
(Current profile is .../pcbgcode.repo/profiles/mach.pp  )
(This file generated 1/22/16 9:04 PM)
(Settings from pcb-machine.h)
(spindle on time = 0.0000)
(  Tool Size)
(0.0100  )
(spindle speed = 30000.0000)
(tool change at 0.0000  0.0000  3.0000  )
(feed rate xy = F20    )
(feed rate z  = F10    )
(Z Axis Settings)
(  High     Up        Down     Drill)
(1.0000  	0.0500  	-0.0040 	-0.0730 )
(Settings from pcb-defaults.h)
(isolate min = 0.0010)
(isolate max = 0.0170)
(isolate step = 0.0017)
(Generated bottom outlines, bottom drill, )
(Unit of measure: inch)
(Inch Mode)
G20
(Absolute Coordinates)
G90
S30000
G00 Z1.0000  
G00 X0.0000  Y0.0000  
M03
G04 P0.000000
G00 Z0.0500  
G00 X0.0001  Y0.4650  
G01 Z-0.0040 F10    
G01 X-0.5384 Y0.1455  F20    
G01 X-0.5409 Y0.1440  
G01 X-0.5433 Y0.1426  
G01 X-0.5434 Y0.1426  
G01 X-0.5435 Y0.1425  
G01 X-0.5462 Y0.1418  
G01 X-0.5488 Y0.1410  
G01 X-0.5490 Y0.1410  
G01 X-0.5491 Y0.1410  
G01 X-0.5519 Y0.1410  
G01 X-0.5546 Y0.1410  
G01 X-0.5548 Y0.1410  
G01 X-1.8509 Y0.1410  
G01 X-1.8565 Y0.1425  
G01 X-1.8615 Y0.1454  
G01 X-1.9385 Y0.2224  
G01 X-1.9426 Y0.2265  
G01 X-1.9455 Y0.2315  
G01 X-1.9470 Y0.2371  
G01 X-1.9470 Y1.5814  
G01 X-1.9471 Y1.5816  
G01 X-1.9470 Y1.5843  
G01 X-1.9470 Y1.5869  
G01 X-1.9469 Y1.5871  
G01 X-1.9469 Y1.5874  
G01 X-1.9462 Y1.5899  
G01 X-1.9455 Y1.5925  
G01 X-1.9454 Y1.5927  
G01 X-1.9453 Y1.5930  
G01 X-1.9439 Y1.5952  
G01 X-1.9426 Y1.5975  
G01 X-1.9424 Y1.5977  
G01 X-1.8092 Y1.8164  
G01 X-1.8940 Y1.8511  
G01 X-1.8955 Y1.8515  
G01 X-1.8967 Y1.8522  
G01 X-1.8980 Y1.8527  
G01 X-1.8992 Y1.8536  
G01 X-1.9005 Y1.8544  
G01 X-1.9015 Y1.8554  
G01 X-1.9026 Y1.8562  
G01 X-1.9035 Y1.8574  
G01 X-1.9046 Y1.8585  
G01 X-1.9053 Y1.8597  
G01 X-1.9062 Y1.8608  
G01 X-1.9067 Y1.8622  
G01 X-1.9075 Y1.8635  
G01 X-1.9079 Y1.8649  
G01 X-1.9084 Y1.8662  
G01 X-1.9086 Y1.8677  
G01 X-1.9090 Y1.8691  
G01 X-1.9090 Y1.8705  
G01 X-1.9092 Y1.8719  
G01 X-1.9090 Y1.8734  
G01 X-1.9090 Y2.5674  
G01 X-1.9091 Y2.5697  
G01 X-1.9090 Y2.5703  
G01 X-1.9090 Y2.5709  
G01 X-1.9084 Y2.5731  
G01 X-1.9079 Y2.5754  
G01 X-1.9077 Y2.5759  
G01 X-1.9075 Y2.5765  
G01 X-1.9064 Y2.5785  
G01 X-1.9053 Y2.5805  
G01 X-1.9049 Y2.5810  
G01 X-1.9046 Y2.5815  
G01 X-1.9030 Y2.5831  
G01 X-1.8189 Y2.6770  
G01 X-1.8186 Y2.6775  
G01 X-1.8170 Y2.6791  
G01 X-1.8155 Y2.6808  
G01 X-1.8149 Y2.6812  
G01 X-1.8145 Y2.6816  
G01 X-1.8125 Y2.6827  
G01 X-1.8106 Y2.6840  
G01 X-1.8100 Y2.6842  
G01 X-1.8095 Y2.6845  
G01 X-1.8073 Y2.6851  
G01 X-1.8051 Y2.6858  
G01 X-1.8045 Y2.6858  
G01 X-1.8039 Y2.6860  
G01 X-1.8016 Y2.6860  
G01 X-1.7993 Y2.6861  
G01 X-1.7987 Y2.6860  
G01 X-1.6892 Y2.6860  
G01 X-1.6876 Y2.6862  
G01 X-1.6863 Y2.6860  
G01 X-1.6851 Y2.6860  
G01 X-1.6835 Y2.6856  
G01 X-1.6818 Y2.6853  
G01 X-1.6807 Y2.6848  
G01 X-1.6795 Y2.6845  
G01 X-1.6781 Y2.6837  
G01 X-1.6765 Y2.6830  
G01 X-1.6756 Y2.6822  
G01 X-1.6745 Y2.6816  
G01 X-1.6733 Y2.6804  
G01 X-1.6720 Y2.6794  
G01 X-1.6713 Y2.6784  
G01 X-1.6704 Y2.6775  
G01 X-1.6696 Y2.6761  
G01 X-1.5878 Y2.5651  
G01 X-1.5875 Y2.5649  
G01 X-1.5861 Y2.5628  
G01 X-1.5846 Y2.5607  
G01 X-1.5844 Y2.5604  
G01 X-1.5842 Y2.5601  
G01 X-1.5834 Y2.5577  
G01 X-1.5825 Y2.5553  
G01 X-1.5824 Y2.5550  
G01 X-1.5823 Y2.5546  
G01 X-1.5821 Y2.5521  
G01 X-1.5818 Y2.5496  
G01 X-1.5819 Y2.5492  
G01 X-1.5799 Y2.5252  
G01 X-1.5727 Y2.5180  
G01 X-1.4525 Y2.5180  
G01 X-1.4509 Y2.5204  
G01 X-1.4464 Y2.5249  
G01 X-1.4412 Y2.5284  
G01 X-1.4353 Y2.5308  
G01 X-1.4292 Y2.5320  
G01 X-1.3708 Y2.5320  
G01 X-1.3647 Y2.5308  
G01 X-1.3588 Y2.5284  
G01 X-1.3536 Y2.5249  
G01 X-1.3491 Y2.5204  
G01 X-1.3456 Y2.5152  
G01 X-1.3432 Y2.5093  
G01 X-1.3420 Y2.5032  
G01 X-1.3420 Y2.4968  
G01 X-1.3432 Y2.4907  
G01 X-1.3456 Y2.4848  
G01 X-1.3491 Y2.4796  
G01 X-1.3536 Y2.4751  
G01 X-1.3588 Y2.4716  
G01 X-1.3647 Y2.4692  
G01 X-1.3708 Y2.4680  
G01 X-1.4292 Y2.4680  
G01 X-1.4353 Y2.4692  
G01 X-1.4412 Y2.4716  
G01 X-1.4447 Y2.4740  
G01 X-1.5807 Y2.4740  
G01 X-1.5867 Y2.4680  
G01 X-1.6133 Y2.4680  
G01 X-1.6320 Y2.4867  
G01 X-1.6320 Y2.5133  
G01 X-1.6238 Y2.5215  
G01 X-1.6254 Y2.5420  
G01 X-1.6991 Y2.6420  
G01 X-1.7912 Y2.6420  
G01 X-1.8650 Y2.5596  
G01 X-1.8650 Y1.8868  
G01 X-1.7700 Y1.8479  
G01 X-1.7685 Y1.8475  
G01 X-1.7683 Y1.8474  
G01 X-1.7680 Y1.8473  
G01 X-1.7671 Y1.8467  
G01 X-1.7660 Y1.8463  
G01 X-1.7648 Y1.8454  
G01 X-1.7635 Y1.8446  
G01 X-1.7633 Y1.8444  
G01 X-1.7631 Y1.8443  
G01 X-1.7623 Y1.8435  
G01 X-1.7614 Y1.8428  
G01 X-1.7605 Y1.8416  
G01 X-1.6624 Y1.7435  
G01 X-1.6595 Y1.7385  
G01 X-1.6580 Y1.7329  
G01 X-1.6580 Y1.5666  
G01 X-1.6579 Y1.5663  
G01 X-1.6580 Y1.5637  
G01 X-1.6580 Y1.5611  
G01 X-1.6581 Y1.5608  
G01 X-1.6581 Y1.5605  
G01 X-1.6588 Y1.5580  
G01 X-1.6595 Y1.5555  
G01 X-1.6597 Y1.5552  
G01 X-1.6597 Y1.5550  
G01 X-1.6611 Y1.5527  
G01 X-1.6624 Y1.5505  
G01 X-1.6626 Y1.5503  
G01 X-1.7074 Y1.4774  
G01 X-1.7036 Y1.4749  
G01 X-1.6991 Y1.4704  
G01 X-1.6956 Y1.4652  
G01 X-1.6932 Y1.4593  
G01 X-1.6920 Y1.4532  
G01 X-1.6920 Y1.4468  
G01 X-1.6932 Y1.4407  
G01 X-1.6956 Y1.4348  
G01 X-1.6991 Y1.4296  
G01 X-1.7036 Y1.4251  
G01 X-1.7088 Y1.4216  
G01 X-1.7147 Y1.4192  
G01 X-1.7208 Y1.4180  
G01 X-1.7792 Y1.4180  
G01 X-1.7853 Y1.4192  
G01 X-1.7912 Y1.4216  
G01 X-1.7964 Y1.4251  
G01 X-1.8009 Y1.4296  
G01 X-1.8044 Y1.4348  
G01 X-1.8068 Y1.4407  
G01 X-1.8080 Y1.4468  
G01 X-1.8080 Y1.4532  
G01 X-1.8068 Y1.4593  
G01 X-1.8044 Y1.4652  
G01 X-1.8009 Y1.4704  
G01 X-1.7964 Y1.4749  
G01 X-1.7912 Y1.4784  
G01 X-1.7853 Y1.4808  
G01 X-1.7792 Y1.4820  
G01 X-1.7562 Y1.4820  
G01 X-1.7020 Y1.5702  
G01 X-1.7020 Y1.7209  
G01 X-1.7728 Y1.7917  
G01 X-1.9030 Y1.5778  
G01 X-1.9030 Y0.2491  
G01 X-1.8389 Y0.1850  
G01 X-0.5580 Y0.1850  
G01 X-0.0330 Y0.4965  
G01 X-0.0330 Y0.7739  
G01 X-0.2188 Y0.8099  
G01 X-0.2192 Y0.8099  
G01 X-0.2216 Y0.8105  
G01 X-0.2240 Y0.8110  
G01 X-0.2244 Y0.8111  
G01 X-0.2248 Y0.8112  
G01 X-0.2270 Y0.8124  
G01 X-0.2292 Y0.8135  
G01 X-0.2296 Y0.8138  
G01 X-0.2299 Y0.8140  
G01 X-0.2317 Y0.8157  
G01 X-0.2336 Y0.8173  
G01 X-0.2338 Y0.8176  
G01 X-0.4573 Y1.0267  
G01 X-0.5780 Y1.0087  
G01 X-0.5781 Y1.0086  
G01 X-0.5809 Y1.0082  
G01 X-0.5836 Y1.0078  
G01 X-0.5837 Y1.0078  
G01 X-0.7965 Y0.9783  
G01 X-0.7988 Y0.9778  
G01 X-0.7993 Y0.9779  
G01 X-0.7998 Y0.9778  
G01 X-0.8022 Y0.9781  
G01 X-0.8046 Y0.9783  
G01 X-0.8051 Y0.9785  
G01 X-0.8056 Y0.9785  
G01 X-0.8078 Y0.9794  
G01 X-0.8100 Y0.9802  
G01 X-0.8105 Y0.9805  
G01 X-0.8110 Y0.9807  
G01 X-0.8129 Y0.9821  
G01 X-0.8148 Y0.9835  
G01 X-0.8152 Y0.9839  
G01 X-0.8156 Y0.9842  
G01 X-0.8170 Y0.9861  
G01 X-0.8764 Y1.0553  
G01 X-0.8897 Y1.0696  
G01 X-0.8900 Y1.0695  
G01 X-0.8900 Y1.0291  
G01 X-0.8915 Y1.0235  
G01 X-0.8944 Y1.0185  
G01 X-0.9180 Y0.9949  
G01 X-0.9180 Y0.9867  
G01 X-0.9367 Y0.9680  
G01 X-0.9380 Y0.9680  
G01 X-0.9380 Y0.7875  
G01 X-0.9345 Y0.7875  
G01 X-0.9186 Y0.7716  
G01 X-0.8732 Y0.7575  
G01 X-0.8721 Y0.7574  
G01 X-0.8704 Y0.7567  
G01 X-0.8687 Y0.7562  
G01 X-0.8678 Y0.7556  
G01 X-0.8667 Y0.7551  
G01 X-0.8653 Y0.7540  
G01 X-0.8638 Y0.7531  
G01 X-0.8630 Y0.7522  
G01 X-0.8622 Y0.7515  
G01 X-0.8611 Y0.7501  
G01 X-0.8599 Y0.7488  
G01 X-0.8594 Y0.7478  
G01 X-0.8587 Y0.7469  
G01 X-0.8580 Y0.7453  
G01 X-0.8572 Y0.7437  
G01 X-0.8569 Y0.7426  
G01 X-0.8565 Y0.7415  
G01 X-0.8563 Y0.7398  
G01 X-0.8559 Y0.7380  
G01 X-0.8559 Y0.7369  
G01 X-0.8466 Y0.6599  
G01 X-0.7951 Y0.5422  
G01 X-0.7897 Y0.5413  
G01 X-0.7831 Y0.5392  
G01 X-0.7769 Y0.5361  
G01 X-0.7713 Y0.5320  
G01 X-0.7664 Y0.5271  
G01 X-0.7624 Y0.5215  
G01 X-0.7592 Y0.5153  
G01 X-0.7571 Y0.5087  
G01 X-0.7560 Y0.5019  
G01 X-0.7560 Y0.4950  
G01 X-0.7571 Y0.4881  
G01 X-0.7592 Y0.4815  
G01 X-0.7624 Y0.4754  
G01 X-0.7664 Y0.4698  
G01 X-0.7713 Y0.4649  
G01 X-0.7769 Y0.4608  
G01 X-0.7831 Y0.4576  
G01 X-0.7897 Y0.4555  
G01 X-0.7965 Y0.4544  
G01 X-0.8035 Y0.4544  
G01 X-0.8103 Y0.4555  
G01 X-0.8169 Y0.4576  
G01 X-0.8231 Y0.4608  
G01 X-0.8287 Y0.4649  
G01 X-0.8336 Y0.4698  
G01 X-0.8376 Y0.4754  
G01 X-0.8408 Y0.4815  
G01 X-0.8429 Y0.4881  
G01 X-0.8440 Y0.4950  
G01 X-0.8440 Y0.5019  
G01 X-0.8429 Y0.5087  
G01 X-0.8408 Y0.5153  
G01 X-0.8376 Y0.5215  
G01 X-0.8354 Y0.5245  
G01 X-0.8871 Y0.6428  
G01 X-0.8873 Y0.6431  
G01 X-0.8883 Y0.6455  
G01 X-0.8893 Y0.6478  
G01 X-0.8894 Y0.6482  
G01 X-0.8895 Y0.6485  
G01 X-0.8898 Y0.6510  
G01 X-0.8902 Y0.6536  
G01 X-0.8901 Y0.6539  
G01 X-0.8981 Y0.7192  
G01 X-0.9207 Y0.7262  
G01 X-0.9345 Y0.7125  
G01 X-0.9655 Y0.7125  
G01 X-0.9875 Y0.7345  
G01 X-0.9875 Y0.7644  
G01 X-0.9931 Y0.7700  
G01 X-1.0784 Y0.7700  
G01 X-1.0797 Y0.7698  
G01 X-1.0813 Y0.7700  
G01 X-1.0829 Y0.7700  
G01 X-1.0842 Y0.7703  
G01 X-1.0844 Y0.7704  
G01 X-1.0867 Y0.7680  
G01 X-1.1133 Y0.7680  
G01 X-1.1320 Y0.7867  
G01 X-1.1320 Y0.8133  
G01 X-1.1133 Y0.8320  
G01 X-1.0867 Y0.8320  
G01 X-1.0687 Y0.8140  
G01 X-0.9820 Y0.8140  
G01 X-0.9820 Y0.9815  
G01 X-0.9821 Y0.9819  
G01 X-0.9820 Y0.9844  
G01 X-0.9820 Y0.9869  
G01 X-0.9820 Y1.0133  
G01 X-0.9633 Y1.0320  
G01 X-0.9431 Y1.0320  
G01 X-0.9340 Y1.0411  
G01 X-0.9340 Y1.0773  
G01 X-0.9340 Y1.0775  
G01 X-0.9340 Y1.0802  
G01 X-0.9340 Y1.0829  
G01 X-0.9340 Y1.0831  
G01 X-0.9339 Y1.0833  
G01 X-0.9332 Y1.0859  
G01 X-0.9325 Y1.0885  
G01 X-0.9324 Y1.0887  
G01 X-0.9324 Y1.0888  
G01 X-0.9310 Y1.0912  
G01 X-0.9309 Y1.0913  
G01 X-0.9320 Y1.0968  
G01 X-0.9320 Y1.1032  
G01 X-0.9308 Y1.1093  
G01 X-0.9284 Y1.1152  
G01 X-0.9249 Y1.1204  
G01 X-0.9204 Y1.1249  
G01 X-0.9152 Y1.1284  
G01 X-0.9093 Y1.1308  
G01 X-0.9032 Y1.1320  
G01 X-0.8968 Y1.1320  
G01 X-0.8907 Y1.1308  
G01 X-0.8848 Y1.1284  
G01 X-0.8796 Y1.1249  
G01 X-0.8751 Y1.1204  
G01 X-0.8716 Y1.1152  
G01 X-0.8714 Y1.1145  
G01 X-0.8704 Y1.1135  
G01 X-0.8702 Y1.1132  
G01 X-0.8456 Y1.0868  
G01 X-0.8452 Y1.0865  
G01 X-0.8436 Y1.0847  
G01 X-0.8419 Y1.0829  
G01 X-0.8417 Y1.0825  
G01 X-0.7911 Y1.0234  
G01 X-0.5871 Y1.0518  
G01 X-0.4548 Y1.0715  
G01 X-0.4536 Y1.0719  
G01 X-0.4520 Y1.0719  
G01 X-0.4504 Y1.0722  
G01 X-0.4491 Y1.0720  
G01 X-0.4478 Y1.0721  
G01 X-0.4462 Y1.0717  
G01 X-0.4446 Y1.0715  
G01 X-0.4434 Y1.0711  
G01 X-0.4422 Y1.0708  
G01 X-0.4408 Y1.0700  
G01 X-0.4392 Y1.0694  
G01 X-0.4382 Y1.0686  
G01 X-0.4371 Y1.0680  
G01 X-0.4359 Y1.0669  
G01 X-0.4346 Y1.0660  
G01 X-0.4338 Y1.0650  
G01 X-0.2066 Y0.8524  
G01 X-0.0089 Y0.8140  
G01 X-0.0081 Y0.8140  
G01 X-0.0061 Y0.8134  
G01 X-0.0040 Y0.8130  
G01 X-0.0033 Y0.8127  
G01 X-0.0025 Y0.8125  
G01 X-0.0007 Y0.8114  
G01 X0.0012  Y0.8105  
G01 X0.0018  Y0.8100  
G01 X0.0025  Y0.8096  
G01 X0.0040  Y0.8081  
G01 X0.0056  Y0.8067  
G01 X0.0061  Y0.8061  
G01 X0.0066  Y0.8055  
G01 X0.0077  Y0.8037  
G01 X0.0089  Y0.8019  
G01 X0.0091  Y0.8012  
G01 X0.0095  Y0.8005  
G01 X0.0101  Y0.7984  
G01 X0.0107  Y0.7964  
G01 X0.0108  Y0.7956  
G01 X0.0110  Y0.7949  
G01 X0.0110  Y0.7928  
G01 X0.0111  Y0.7906  
G01 X0.0110  Y0.7899  
G01 X0.0110  Y0.4841  
G01 X0.0110  Y0.4814  
G01 X0.0110  Y0.4812  
G01 X0.0110  Y0.4811  
G01 X0.0103  Y0.4784  
G01 X0.0096  Y0.4758  
G01 X0.0095  Y0.4756  
G01 X0.0095  Y0.4755  
G01 X0.0081  Y0.4731  
G01 X0.0068  Y0.4707  
G01 X0.0066  Y0.4705  
G01 X0.0046  Y0.4685  
G01 X0.0027  Y0.4666  
G01 X0.0026  Y0.4665  
G01 X0.0001  Y0.4650  
G00 Z0.0500  
G00 X-0.0557 Y0.5604  
G01 Z-0.0040 F10    
G01 X-0.0619 Y0.5541  F20    
G01 X-0.0691 Y0.5490  
G01 X-0.0769 Y0.5450  
G01 X-0.0853 Y0.5422  
G01 X-0.0940 Y0.5409  
G01 X-0.1028 Y0.5409  
G01 X-0.1115 Y0.5422  
G01 X-0.1199 Y0.5450  
G01 X-0.1278 Y0.5490  
G01 X-0.1349 Y0.5541  
G01 X-0.1411 Y0.5604  
G01 X-0.1463 Y0.5675  
G01 X-0.1503 Y0.5754  
G01 X-0.1530 Y0.5837  
G01 X-0.1544 Y0.5924  
G01 X-0.1544 Y0.6384  
G01 X-0.1550 Y0.6386  
G01 X-0.1573 Y0.6390  
G01 X-0.1578 Y0.6393  
G01 X-0.1584 Y0.6395  
G01 X-0.1604 Y0.6406  
G01 X-0.1625 Y0.6416  
G01 X-0.1629 Y0.6420  
G01 X-0.2994 Y0.7201  
G01 X-0.3006 Y0.7205  
G01 X-0.3019 Y0.7215  
G01 X-0.3034 Y0.7223  
G01 X-0.3043 Y0.7232  
G01 X-0.3052 Y0.7239  
G01 X-0.3063 Y0.7252  
G01 X-0.3075 Y0.7264  
G01 X-0.3081 Y0.7274  
G01 X-0.4364 Y0.8852  
G01 X-0.5023 Y0.9512  
G01 X-0.7412 Y0.9053  
G01 X-0.7780 Y0.8439  
G01 X-0.7780 Y0.7552  
G01 X-0.6806 Y0.5604  
G01 X-0.6795 Y0.5585  
G01 X-0.6793 Y0.5578  
G01 X-0.6790 Y0.5572  
G01 X-0.6786 Y0.5551  
G01 X-0.6780 Y0.5529  
G01 X-0.6780 Y0.5522  
G01 X-0.6779 Y0.5516  
G01 X-0.6780 Y0.5493  
G01 X-0.6780 Y0.4471  
G01 X-0.6795 Y0.4415  
G01 X-0.6824 Y0.4365  
G01 X-0.6865 Y0.4324  
G01 X-0.7365 Y0.3824  
G01 X-0.7415 Y0.3795  
G01 X-0.7471 Y0.3780  
G01 X-0.9029 Y0.3780  
G01 X-0.9085 Y0.3795  
G01 X-0.9135 Y0.3824  
G01 X-0.9176 Y0.3865  
G01 X-0.9676 Y0.4365  
G01 X-0.9705 Y0.4415  
G01 X-0.9720 Y0.4471  
G01 X-0.9720 Y0.6049  
G01 X-0.9945 Y0.5824  
G01 X-0.9995 Y0.5795  
G01 X-1.0051 Y0.5780  
G01 X-1.0767 Y0.5780  
G01 X-1.0867 Y0.5680  
G01 X-1.1133 Y0.5680  
G01 X-1.1233 Y0.5780  
G01 X-1.1780 Y0.5780  
G01 X-1.1780 Y0.4388  
G01 X-1.1570 Y0.4178  
G01 X-1.1570 Y0.3822  
G01 X-1.1780 Y0.3612  
G01 X-1.1780 Y0.3388  
G01 X-1.1570 Y0.3178  
G01 X-1.1570 Y0.2822  
G01 X-1.1822 Y0.2570  
G01 X-1.2178 Y0.2570  
G01 X-1.2430 Y0.2822  
G01 X-1.2430 Y0.2900  
G01 X-1.2570 Y0.2900  
G01 X-1.2570 Y0.2822  
G01 X-1.2822 Y0.2570  
G01 X-1.3178 Y0.2570  
G01 X-1.3430 Y0.2822  
G01 X-1.3430 Y0.2900  
G01 X-1.3570 Y0.2900  
G01 X-1.3570 Y0.2822  
G01 X-1.3822 Y0.2570  
G01 X-1.4178 Y0.2570  
G01 X-1.4430 Y0.2822  
G01 X-1.4430 Y0.3178  
G01 X-1.4178 Y0.3430  
G01 X-1.4060 Y0.3430  
G01 X-1.4060 Y0.3570  
G01 X-1.4178 Y0.3570  
G01 X-1.4430 Y0.3822  
G01 X-1.4430 Y0.4178  
G01 X-1.4178 Y0.4430  
G01 X-1.3822 Y0.4430  
G01 X-1.3692 Y0.4300  
G01 X-1.3308 Y0.4300  
G01 X-1.3178 Y0.4430  
G01 X-1.2822 Y0.4430  
G01 X-1.2570 Y0.4178  
G01 X-1.2570 Y0.4060  
G01 X-1.2430 Y0.4060  
G01 X-1.2430 Y0.4178  
G01 X-1.2220 Y0.4388  
G01 X-1.2220 Y0.5780  
G01 X-1.2767 Y0.5780  
G01 X-1.2867 Y0.5680  
G01 X-1.3133 Y0.5680  
G01 X-1.3233 Y0.5780  
G01 X-1.3949 Y0.5780  
G01 X-1.4005 Y0.5795  
G01 X-1.4055 Y0.5824  
G01 X-1.4356 Y0.6125  
G01 X-1.4655 Y0.6125  
G01 X-1.4875 Y0.6345  
G01 X-1.4875 Y0.6655  
G01 X-1.4655 Y0.6875  
G01 X-1.4345 Y0.6875  
G01 X-1.4125 Y0.6655  
G01 X-1.4125 Y0.6516  
G01 X-1.3829 Y0.6220  
G01 X-1.3233 Y0.6220  
G01 X-1.3133 Y0.6320  
G01 X-1.2867 Y0.6320  
G01 X-1.2767 Y0.6220  
G01 X-1.1980 Y0.6220  
G01 X-1.1980 Y0.9629  
G01 X-1.1965 Y0.9685  
G01 X-1.1936 Y0.9735  
G01 X-1.1812 Y0.9859  
G01 X-1.1820 Y0.9867  
G01 X-1.1820 Y1.0133  
G01 X-1.1732 Y1.0221  
G01 X-1.2135 Y1.0624  
G01 X-1.2176 Y1.0665  
G01 X-1.2205 Y1.0715  
G01 X-1.2219 Y1.0766  
G01 X-1.2249 Y1.0796  
G01 X-1.2265 Y1.0820  
G01 X-1.4909 Y1.0820  
G01 X-1.4965 Y1.0835  
G01 X-1.5015 Y1.0864  
G01 X-1.5056 Y1.0905  
G01 X-1.6526 Y1.2375  
G01 X-1.6555 Y1.2425  
G01 X-1.6570 Y1.2481  
G01 X-1.6570 Y1.4489  
G01 X-1.6572 Y1.4508  
G01 X-1.6570 Y1.4518  
G01 X-1.6570 Y1.4529  
G01 X-1.6565 Y1.4547  
G01 X-1.6562 Y1.4565  
G01 X-1.6558 Y1.4575  
G01 X-1.6555 Y1.4585  
G01 X-1.6546 Y1.4601  
G01 X-1.6538 Y1.4617  
G01 X-1.6531 Y1.4626  
G01 X-1.6526 Y1.4635  
G01 X-1.6513 Y1.4648  
G01 X-1.6501 Y1.4662  
G01 X-1.6493 Y1.4668  
G01 X-1.6485 Y1.4676  
G01 X-1.6469 Y1.4685  
G01 X-1.6220 Y1.4863  
G01 X-1.6220 Y1.6959  
G01 X-1.6489 Y1.7648  
G01 X-1.6500 Y1.7659  
G01 X-1.8368 Y1.9280  
G01 X-1.8375 Y1.9284  
G01 X-1.8390 Y1.9299  
G01 X-1.8406 Y1.9313  
G01 X-1.8410 Y1.9319  
G01 X-1.8416 Y1.9325  
G01 X-1.8427 Y1.9343  
G01 X-1.8438 Y1.9361  
G01 X-1.8441 Y1.9368  
G01 X-1.8445 Y1.9375  
G01 X-1.8450 Y1.9396  
G01 X-1.8457 Y1.9416  
G01 X-1.8458 Y1.9423  
G01 X-1.8460 Y1.9431  
G01 X-1.8460 Y1.9452  
G01 X-1.8461 Y1.9473  
G01 X-1.8460 Y1.9481  
G01 X-1.8460 Y2.2349  
G01 X-1.8445 Y2.2405  
G01 X-1.8416 Y2.2455  
G01 X-1.8375 Y2.2496  
G01 X-1.7895 Y2.2976  
G01 X-1.7845 Y2.3005  
G01 X-1.7789 Y2.3020  
G01 X-1.6320 Y2.3020  
G01 X-1.6320 Y2.3133  
G01 X-1.6300 Y2.3153  
G01 X-1.6300 Y2.3399  
G01 X-1.7420 Y2.4519  
G01 X-1.7426 Y2.4523  
G01 X-1.7440 Y2.4539  
G01 X-1.7456 Y2.4555  
G01 X-1.7459 Y2.4561  
G01 X-1.7464 Y2.4566  
G01 X-1.7474 Y2.4586  
G01 X-1.7485 Y2.4605  
G01 X-1.7487 Y2.4612  
G01 X-1.7490 Y2.4618  
G01 X-1.7494 Y2.4640  
G01 X-1.7500 Y2.4661  
G01 X-1.7500 Y2.4668  
G01 X-1.7724 Y2.5772  
G01 X-1.7820 Y2.5867  
G01 X-1.7820 Y2.6133  
G01 X-1.7633 Y2.6320  
G01 X-1.7367 Y2.6320  
G01 X-1.7180 Y2.6133  
G01 X-1.7180 Y2.5867  
G01 X-1.7275 Y2.5772  
G01 X-1.7078 Y2.4799  
G01 X-1.5904 Y2.3625  
G01 X-1.5875 Y2.3575  
G01 X-1.5860 Y2.3519  
G01 X-1.5860 Y2.3313  
G01 X-1.5680 Y2.3133  
G01 X-1.5680 Y2.2867  
G01 X-1.5867 Y2.2680  
G01 X-1.5895 Y2.2680  
G01 X-1.5896 Y2.2679  
G01 X-1.5904 Y2.2665  
G01 X-1.5913 Y2.2656  
G01 X-1.5921 Y2.2645  
G01 X-1.5934 Y2.2635  
G01 X-1.5945 Y2.2624  
G01 X-1.5956 Y2.2617  
G01 X-1.5967 Y2.2609  
G01 X-1.5981 Y2.2603  
G01 X-1.5995 Y2.2595  
G01 X-1.6008 Y2.2592  
G01 X-1.6020 Y2.2586  
G01 X-1.6036 Y2.2584  
G01 X-1.6051 Y2.2580  
G01 X-1.6064 Y2.2580  
G01 X-1.6077 Y2.2578  
G01 X-1.6093 Y2.2580  
G01 X-1.7669 Y2.2580  
G01 X-1.8020 Y2.2229  
G01 X-1.8020 Y1.9560  
G01 X-1.6260 Y1.8033  
G01 X-1.6258 Y1.8033  
G01 X-1.6247 Y1.8028  
G01 X-1.6235 Y1.8025  
G01 X-1.6221 Y1.8017  
G01 X-1.6205 Y1.8010  
G01 X-1.6196 Y1.8002  
G01 X-1.6185 Y1.7996  
G01 X-1.6173 Y1.7984  
G01 X-1.6160 Y1.7974  
G01 X-1.6153 Y1.7964  
G01 X-1.6144 Y1.7955  
G01 X-1.6136 Y1.7941  
G01 X-1.6126 Y1.7927  
G01 X-1.6121 Y1.7916  
G01 X-1.6115 Y1.7905  
G01 X-1.6111 Y1.7889  
G01 X-1.5801 Y1.7096  
G01 X-1.5795 Y1.7085  
G01 X-1.5791 Y1.7069  
G01 X-1.5785 Y1.7053  
G01 X-1.5783 Y1.7041  
G01 X-1.5780 Y1.7029  
G01 X-1.5780 Y1.7012  
G01 X-1.5778 Y1.6995  
G01 X-1.5780 Y1.6983  
G01 X-1.5780 Y1.4761  
G01 X-1.5778 Y1.4742  
G01 X-1.5780 Y1.4732  
G01 X-1.5780 Y1.4721  
G01 X-1.5785 Y1.4703  
G01 X-1.5788 Y1.4685  
G01 X-1.5792 Y1.4675  
G01 X-1.5795 Y1.4665  
G01 X-1.5804 Y1.4649  
G01 X-1.5812 Y1.4633  
G01 X-1.5819 Y1.4624  
G01 X-1.5824 Y1.4615  
G01 X-1.5837 Y1.4602  
G01 X-1.5849 Y1.4588  
G01 X-1.5857 Y1.4582  
G01 X-1.5865 Y1.4574  
G01 X-1.5881 Y1.4565  
G01 X-1.6130 Y1.4387  
G01 X-1.6130 Y1.2601  
G01 X-1.4789 Y1.1260  
G01 X-1.2187 Y1.1260  
G01 X-1.2152 Y1.1284  
G01 X-1.2093 Y1.1308  
G01 X-1.2032 Y1.1320  
G01 X-1.1968 Y1.1320  
G01 X-1.1907 Y1.1308  
G01 X-1.1848 Y1.1284  
G01 X-1.1796 Y1.1249  
G01 X-1.1751 Y1.1204  
G01 X-1.1716 Y1.1152  
G01 X-1.1692 Y1.1093  
G01 X-1.1680 Y1.1032  
G01 X-1.1680 Y1.0968  
G01 X-1.1692 Y1.0907  
G01 X-1.1716 Y1.0848  
G01 X-1.1725 Y1.0836  
G01 X-1.1295 Y1.0407  
G01 X-1.0215 Y1.1714  
G01 X-1.0202 Y1.1731  
G01 X-1.0196 Y1.1736  
G01 X-1.0191 Y1.1742  
G01 X-1.0174 Y1.1755  
G01 X-1.0158 Y1.1768  
G01 X-1.0150 Y1.1771  
G01 X-1.0144 Y1.1776  
G01 X-1.0124 Y1.1783  
G01 X-0.9599 Y1.2023  
G01 X-1.0059 Y1.2289  
G01 X-1.0085 Y1.2304  
G01 X-1.0105 Y1.2324  
G01 X-1.0126 Y1.2345  
G01 X-1.0141 Y1.2370  
G01 X-1.0155 Y1.2395  
G01 X-1.0163 Y1.2423  
G01 X-1.0170 Y1.2451  
G01 X-1.0170 Y1.2480  
G01 X-1.0170 Y1.4851  
G01 X-1.0170 Y1.4880  
G01 X-1.0170 Y1.4909  
G01 X-1.0162 Y1.4937  
G01 X-1.0155 Y1.4965  
G01 X-1.0141 Y1.4990  
G01 X-1.0126 Y1.5015  
G01 X-1.0106 Y1.5036  
G01 X-1.0085 Y1.5056  
G01 X-1.0060 Y1.5071  
G01 X-1.0035 Y1.5085  
G01 X-1.0006 Y1.5093  
G01 X-0.9979 Y1.5100  
G01 X-0.9807 Y1.5146  
G01 X-0.9720 Y1.5233  
G01 X-0.9720 Y1.5997  
G01 X-0.9721 Y1.6022  
G01 X-0.9720 Y1.6026  
G01 X-0.9720 Y1.6029  
G01 X-0.9713 Y1.6054  
G01 X-0.9707 Y1.6079  
G01 X-0.9706 Y1.6082  
G01 X-0.9705 Y1.6085  
G01 X-0.9692 Y1.6107  
G01 X-0.9680 Y1.6130  
G01 X-0.9678 Y1.6132  
G01 X-0.9676 Y1.6135  
G01 X-0.9658 Y1.6153  
G01 X-0.9640 Y1.6172  
G01 X-0.9637 Y1.6174  
G01 X-0.9635 Y1.6176  
G01 X-0.9613 Y1.6189  
G01 X-0.9591 Y1.6202  
G01 X-0.9588 Y1.6203  
G01 X-0.9585 Y1.6205  
G01 X-0.9560 Y1.6212  
G01 X-0.9088 Y1.6353  
G01 X-0.9085 Y1.6355  
G01 X-0.9060 Y1.6362  
G01 X-0.9035 Y1.6369  
G01 X-0.9032 Y1.6369  
G01 X-0.9029 Y1.6370  
G01 X-0.9003 Y1.6370  
G01 X-0.8978 Y1.6371  
G01 X-0.8974 Y1.6370  
G01 X-0.5521 Y1.6370  
G01 X-0.5514 Y1.6371  
G01 X-0.5493 Y1.6370  
G01 X-0.5471 Y1.6370  
G01 X-0.5464 Y1.6368  
G01 X-0.5456 Y1.6368  
G01 X-0.5436 Y1.6361  
G01 X-0.5415 Y1.6355  
G01 X-0.5409 Y1.6351  
G01 X-0.5401 Y1.6349  
G01 X-0.5384 Y1.6337  
G01 X-0.5365 Y1.6326  
G01 X-0.5360 Y1.6321  
G01 X-0.5353 Y1.6317  
G01 X-0.5339 Y1.6300  
G01 X-0.5324 Y1.6285  
G01 X-0.5320 Y1.6279  
G01 X-0.4369 Y1.5189  
G01 X-0.1938 Y1.5189  
G01 X-0.1919 Y1.5225  
G01 X-0.1900 Y1.5252  
G01 X-0.1900 Y1.9302  
G01 X-0.1885 Y1.9358  
G01 X-0.1856 Y1.9408  
G01 X-0.1544 Y1.9720  
G01 X-0.1544 Y1.9749  
G01 X-0.3306 Y1.9749  
G01 X-0.3826 Y1.9720  
G01 X-0.3854 Y1.9719  
G01 X-0.3855 Y1.9719  
G01 X-0.3857 Y1.9719  
G01 X-0.3884 Y1.9724  
G01 X-0.3910 Y1.9730  
G01 X-0.3912 Y1.9730  
G01 X-0.3914 Y1.9731  
G01 X-0.3938 Y1.9743  
G01 X-0.3963 Y1.9755  
G01 X-0.3964 Y1.9756  
G01 X-0.3965 Y1.9757  
G01 X-0.3986 Y1.9775  
G01 X-0.7670 Y2.2979  
G01 X-0.7680 Y2.2969  
G01 X-0.7680 Y2.2867  
G01 X-0.7867 Y2.2680  
G01 X-0.8133 Y2.2680  
G01 X-0.8273 Y2.2820  
G01 X-0.9477 Y2.2820  
G01 X-0.9559 Y2.2738  
G01 X-0.9621 Y2.2216  
G01 X-0.9624 Y2.2190  
G01 X-0.9625 Y2.2188  
G01 X-0.9625 Y2.2185  
G01 X-0.9635 Y2.2161  
G01 X-0.9644 Y2.2136  
G01 X-0.9646 Y2.2134  
G01 X-0.9646 Y2.2132  
G01 X-0.9662 Y2.2110  
G01 X-0.9678 Y2.2089  
G01 X-0.9680 Y2.2087  
G01 X-0.9681 Y2.2085  
G01 X-0.9702 Y2.2069  
G01 X-0.9723 Y2.2052  
G01 X-0.9725 Y2.2051  
G01 X-0.9727 Y2.2049  
G01 X-0.9751 Y2.2039  
G01 X-0.9775 Y2.2028  
G01 X-0.9778 Y2.2027  
G01 X-0.9780 Y2.2026  
G01 X-0.9806 Y2.2023  
G01 X-1.0430 Y2.1919  
G01 X-1.0432 Y2.1907  
G01 X-1.0456 Y2.1848  
G01 X-1.0491 Y2.1796  
G01 X-1.0536 Y2.1751  
G01 X-1.0588 Y2.1716  
G01 X-1.0647 Y2.1692  
G01 X-1.0708 Y2.1680  
G01 X-1.1292 Y2.1680  
G01 X-1.1353 Y2.1692  
G01 X-1.1412 Y2.1716  
G01 X-1.1464 Y2.1751  
G01 X-1.1509 Y2.1796  
G01 X-1.1544 Y2.1848  
G01 X-1.1568 Y2.1907  
G01 X-1.1580 Y2.1968  
G01 X-1.1580 Y2.2032  
G01 X-1.1568 Y2.2093  
G01 X-1.1544 Y2.2152  
G01 X-1.1509 Y2.2204  
G01 X-1.1464 Y2.2249  
G01 X-1.1412 Y2.2284  
G01 X-1.1353 Y2.2308  
G01 X-1.1292 Y2.2320  
G01 X-1.0708 Y2.2320  
G01 X-1.0704 Y2.2319  
G01 X-1.0039 Y2.2430  
G01 X-0.9996 Y2.2793  
G01 X-1.0070 Y2.2867  
G01 X-1.0070 Y2.3133  
G01 X-0.9883 Y2.3320  
G01 X-0.9617 Y2.3320  
G01 X-0.9557 Y2.3260  
G01 X-0.8193 Y2.3260  
G01 X-0.8133 Y2.3320  
G01 X-0.7951 Y2.3320  
G01 X-0.7841 Y2.3430  
G01 X-0.7827 Y2.3446  
G01 X-0.7821 Y2.3451  
G01 X-0.7815 Y2.3456  
G01 X-0.7136 Y2.4135  
G01 X-0.7095 Y2.4176  
G01 X-0.7045 Y2.4205  
G01 X-0.6989 Y2.4220  
G01 X-0.6983 Y2.4220  
G01 X-0.6883 Y2.4320  
G01 X-0.6617 Y2.4320  
G01 X-0.6430 Y2.4133  
G01 X-0.6430 Y2.3867  
G01 X-0.6617 Y2.3680  
G01 X-0.6883 Y2.3680  
G01 X-0.6926 Y2.3723  
G01 X-0.7358 Y2.3291  
G01 X-0.3763 Y2.0164  
G01 X-0.3346 Y2.0187  
G01 X-0.3340 Y2.0189  
G01 X-0.3317 Y2.0189  
G01 X-0.3294 Y2.0190  
G01 X-0.3289 Y2.0189  
G01 X-0.1544 Y2.0189  
G01 X-0.1544 Y2.0513  
G01 X-0.1530 Y2.0600  
G01 X-0.1503 Y2.0683  
G01 X-0.1463 Y2.0762  
G01 X-0.1411 Y2.0833  
G01 X-0.1349 Y2.0896  
G01 X-0.1278 Y2.0947  
G01 X-0.1204 Y2.0985  
G01 X-0.1204 Y2.4452  
G01 X-0.1278 Y2.4490  
G01 X-0.1349 Y2.4541  
G01 X-0.1411 Y2.4604  
G01 X-0.1463 Y2.4675  
G01 X-0.1503 Y2.4754  
G01 X-0.1530 Y2.4837  
G01 X-0.1544 Y2.4924  
G01 X-0.1544 Y2.6013  
G01 X-0.1530 Y2.6100  
G01 X-0.1503 Y2.6183  
G01 X-0.1463 Y2.6262  
G01 X-0.1411 Y2.6333  
G01 X-0.1349 Y2.6396  
G01 X-0.1278 Y2.6447  
G01 X-0.1199 Y2.6487  
G01 X-0.1115 Y2.6515  
G01 X-0.1028 Y2.6529  
G01 X-0.0940 Y2.6529  
G01 X-0.0853 Y2.6515  
G01 X-0.0769 Y2.6487  
G01 X-0.0691 Y2.6447  
G01 X-0.0619 Y2.6396  
G01 X-0.0557 Y2.6333  
G01 X-0.0505 Y2.6262  
G01 X-0.0465 Y2.6183  
G01 X-0.0438 Y2.6100  
G01 X-0.0424 Y2.6013  
G01 X-0.0424 Y2.4924  
G01 X-0.0438 Y2.4837  
G01 X-0.0465 Y2.4754  
G01 X-0.0505 Y2.4675  
G01 X-0.0557 Y2.4604  
G01 X-0.0619 Y2.4541  
G01 X-0.0691 Y2.4490  
G01 X-0.0764 Y2.4452  
G01 X-0.0764 Y2.0985  
G01 X-0.0691 Y2.0947  
G01 X-0.0619 Y2.0896  
G01 X-0.0557 Y2.0833  
G01 X-0.0505 Y2.0762  
G01 X-0.0465 Y2.0683  
G01 X-0.0438 Y2.0600  
G01 X-0.0424 Y2.0513  
G01 X-0.0424 Y1.9424  
G01 X-0.0438 Y1.9337  
G01 X-0.0465 Y1.9254  
G01 X-0.0505 Y1.9175  
G01 X-0.0557 Y1.9104  
G01 X-0.0619 Y1.9041  
G01 X-0.0691 Y1.8990  
G01 X-0.0769 Y1.8950  
G01 X-0.0853 Y1.8922  
G01 X-0.0940 Y1.8909  
G01 X-0.1028 Y1.8909  
G01 X-0.1115 Y1.8922  
G01 X-0.1199 Y1.8950  
G01 X-0.1278 Y1.8990  
G01 X-0.1349 Y1.9041  
G01 X-0.1411 Y1.9104  
G01 X-0.1460 Y1.9171  
G01 X-0.1460 Y1.5458  
G01 X-0.1385 Y1.5446  
G01 X-0.1312 Y1.5423  
G01 X-0.1243 Y1.5388  
G01 X-0.1181 Y1.5342  
G01 X-0.1126 Y1.5288  
G01 X-0.1081 Y1.5225  
G01 X-0.1046 Y1.5157  
G01 X-0.1022 Y1.5083  
G01 X-0.1010 Y1.5007  
G01 X-0.1010 Y1.4930  
G01 X-0.1022 Y1.4854  
G01 X-0.1046 Y1.4780  
G01 X-0.1081 Y1.4712  
G01 X-0.1126 Y1.4649  
G01 X-0.1181 Y1.4595  
G01 X-0.1243 Y1.4549  
G01 X-0.1312 Y1.4514  
G01 X-0.1385 Y1.4491  
G01 X-0.1461 Y1.4479  
G01 X-0.1539 Y1.4479  
G01 X-0.1615 Y1.4491  
G01 X-0.1688 Y1.4514  
G01 X-0.1757 Y1.4549  
G01 X-0.1819 Y1.4595  
G01 X-0.1874 Y1.4649  
G01 X-0.1919 Y1.4712  
G01 X-0.1938 Y1.4749  
G01 X-0.4447 Y1.4749  
G01 X-0.4454 Y1.4747  
G01 X-0.4476 Y1.4749  
G01 X-0.4497 Y1.4749  
G01 X-0.4505 Y1.4750  
G01 X-0.4512 Y1.4751  
G01 X-0.4533 Y1.4758  
G01 X-0.4553 Y1.4763  
G01 X-0.4560 Y1.4767  
G01 X-0.4567 Y1.4770  
G01 X-0.4585 Y1.4782  
G01 X-0.4604 Y1.4792  
G01 X-0.4609 Y1.4798  
G01 X-0.4615 Y1.4802  
G01 X-0.4629 Y1.4818  
G01 X-0.4645 Y1.4833  
G01 X-0.4648 Y1.4840  
G01 X-0.5600 Y1.5930  
G01 X-0.8968 Y1.5930  
G01 X-0.9280 Y1.5836  
G01 X-0.9280 Y1.5233  
G01 X-0.9180 Y1.5133  
G01 X-0.9180 Y1.4867  
G01 X-0.9367 Y1.4680  
G01 X-0.9633 Y1.4680  
G01 X-0.9678 Y1.4725  
G01 X-0.9730 Y1.4711  
G01 X-0.9730 Y1.2607  
G01 X-0.9161 Y1.2278  
G01 X-0.9152 Y1.2284  
G01 X-0.9093 Y1.2308  
G01 X-0.9032 Y1.2320  
G01 X-0.8968 Y1.2320  
G01 X-0.8907 Y1.2308  
G01 X-0.8848 Y1.2284  
G01 X-0.8796 Y1.2249  
G01 X-0.8751 Y1.2204  
G01 X-0.8716 Y1.2152  
G01 X-0.8692 Y1.2093  
G01 X-0.8680 Y1.2032  
G01 X-0.8680 Y1.1968  
G01 X-0.8692 Y1.1907  
G01 X-0.8716 Y1.1848  
G01 X-0.8751 Y1.1796  
G01 X-0.8796 Y1.1751  
G01 X-0.8848 Y1.1716  
G01 X-0.8907 Y1.1692  
G01 X-0.8968 Y1.1680  
G01 X-0.9032 Y1.1680  
G01 X-0.9093 Y1.1692  
G01 X-0.9152 Y1.1716  
G01 X-0.9176 Y1.1733  
G01 X-0.9903 Y1.1401  
G01 X-1.1093 Y0.9961  
G01 X-1.1099 Y0.9953  
G01 X-1.1104 Y0.9945  
G01 X-1.1117 Y0.9932  
G01 X-1.1129 Y0.9918  
G01 X-1.1130 Y0.9916  
G01 X-1.1138 Y0.9911  
G01 X-1.1145 Y0.9904  
G01 X-1.1161 Y0.9895  
G01 X-1.1176 Y0.9884  
G01 X-1.1178 Y0.9883  
G01 X-1.1180 Y0.9882  
G01 X-1.1180 Y0.9867  
G01 X-1.1358 Y0.9689  
G01 X-1.1362 Y0.9684  
G01 X-1.1374 Y0.9675  
G01 X-1.1540 Y0.9509  
G01 X-1.1540 Y0.6220  
G01 X-1.1233 Y0.6220  
G01 X-1.1133 Y0.6320  
G01 X-1.0867 Y0.6320  
G01 X-1.0767 Y0.6220  
G01 X-1.0171 Y0.6220  
G01 X-0.9875 Y0.6516  
G01 X-0.9875 Y0.6537  
G01 X-0.9861 Y0.6609  
G01 X-0.9832 Y0.6678  
G01 X-0.9791 Y0.6739  
G01 X-0.9739 Y0.6791  
G01 X-0.9678 Y0.6832  
G01 X-0.9609 Y0.6861  
G01 X-0.9537 Y0.6875  
G01 X-0.9463 Y0.6875  
G01 X-0.9391 Y0.6861  
G01 X-0.9322 Y0.6832  
G01 X-0.9261 Y0.6791  
G01 X-0.9209 Y0.6739  
G01 X-0.9168 Y0.6678  
G01 X-0.9139 Y0.6609  
G01 X-0.9125 Y0.6537  
G01 X-0.9125 Y0.6463  
G01 X-0.9139 Y0.6391  
G01 X-0.9168 Y0.6322  
G01 X-0.9209 Y0.6261  
G01 X-0.9261 Y0.6209  
G01 X-0.9280 Y0.6196  
G01 X-0.9280 Y0.4591  
G01 X-0.8909 Y0.4220  
G01 X-0.7591 Y0.4220  
G01 X-0.7220 Y0.4591  
G01 X-0.7220 Y0.5448  
G01 X-0.8194 Y0.7396  
G01 X-0.8205 Y0.7415  
G01 X-0.8207 Y0.7422  
G01 X-0.8210 Y0.7428  
G01 X-0.8214 Y0.7449  
G01 X-0.8220 Y0.7471  
G01 X-0.8220 Y0.7478  
G01 X-0.8221 Y0.7484  
G01 X-0.8220 Y0.7507  
G01 X-0.8220 Y0.8473  
G01 X-0.8220 Y0.8475  
G01 X-0.8220 Y0.8502  
G01 X-0.8220 Y0.8529  
G01 X-0.8220 Y0.8531  
G01 X-0.8219 Y0.8533  
G01 X-0.8212 Y0.8559  
G01 X-0.8205 Y0.8585  
G01 X-0.8204 Y0.8587  
G01 X-0.8204 Y0.8588  
G01 X-0.8190 Y0.8612  
G01 X-0.8176 Y0.8635  
G01 X-0.8175 Y0.8636  
G01 X-0.7750 Y0.9344  
G01 X-0.7748 Y0.9349  
G01 X-0.7736 Y0.9368  
G01 X-0.7724 Y0.9388  
G01 X-0.7719 Y0.9392  
G01 X-0.7716 Y0.9397  
G01 X-0.7699 Y0.9412  
G01 X-0.7682 Y0.9428  
G01 X-0.7677 Y0.9431  
G01 X-0.7672 Y0.9435  
G01 X-0.7651 Y0.9445  
G01 X-0.7631 Y0.9456  
G01 X-0.7626 Y0.9458  
G01 X-0.7620 Y0.9461  
G01 X-0.7597 Y0.9465  
G01 X-0.7575 Y0.9470  
G01 X-0.7569 Y0.9470  
G01 X-0.4999 Y0.9965  
G01 X-0.4979 Y0.9970  
G01 X-0.4971 Y0.9970  
G01 X-0.4963 Y0.9972  
G01 X-0.4942 Y0.9970  
G01 X-0.4921 Y0.9970  
G01 X-0.4913 Y0.9968  
G01 X-0.4905 Y0.9967  
G01 X-0.4885 Y0.9960  
G01 X-0.4865 Y0.9955  
G01 X-0.4858 Y0.9951  
G01 X-0.4851 Y0.9948  
G01 X-0.4833 Y0.9937  
G01 X-0.4815 Y0.9926  
G01 X-0.4809 Y0.9920  
G01 X-0.4803 Y0.9916  
G01 X-0.4789 Y0.9900  
G01 X-0.4057 Y0.9168  
G01 X-0.4048 Y0.9161  
G01 X-0.4036 Y0.9148  
G01 X-0.4024 Y0.9135  
G01 X-0.4018 Y0.9125  
G01 X-0.2755 Y0.7571  
G01 X-0.1544 Y0.6879  
G01 X-0.1544 Y0.7013  
G01 X-0.1530 Y0.7100  
G01 X-0.1503 Y0.7183  
G01 X-0.1463 Y0.7262  
G01 X-0.1411 Y0.7333  
G01 X-0.1349 Y0.7396  
G01 X-0.1278 Y0.7447  
G01 X-0.1199 Y0.7487  
G01 X-0.1115 Y0.7515  
G01 X-0.1028 Y0.7529  
G01 X-0.0940 Y0.7529  
G01 X-0.0853 Y0.7515  
G01 X-0.0769 Y0.7487  
G01 X-0.0691 Y0.7447  
G01 X-0.0619 Y0.7396  
G01 X-0.0557 Y0.7333  
G01 X-0.0505 Y0.7262  
G01 X-0.0465 Y0.7183  
G01 X-0.0438 Y0.7100  
G01 X-0.0424 Y0.7013  
G01 X-0.0424 Y0.5924  
G01 X-0.0438 Y0.5837  
G01 X-0.0465 Y0.5754  
G01 X-0.0505 Y0.5675  
G01 X-0.0557 Y0.5604  
G00 Z0.0500  
G00 X-0.3674 Y0.5245  
G01 Z-0.0040 F10    
G01 X-0.3664 Y0.5235  F20    
G01 X-0.3656 Y0.5222  
G01 X-0.3647 Y0.5210  
G01 X-0.3642 Y0.5197  
G01 X-0.3635 Y0.5185  
G01 X-0.3631 Y0.5170  
G01 X-0.3625 Y0.5156  
G01 X-0.3624 Y0.5142  
G01 X-0.3620 Y0.5129  
G01 X-0.3620 Y0.5114  
G01 X-0.3618 Y0.5099  
G01 X-0.3620 Y0.5085  
G01 X-0.3620 Y0.3696  
G01 X-0.3618 Y0.3683  
G01 X-0.3620 Y0.3667  
G01 X-0.3620 Y0.3651  
G01 X-0.3623 Y0.3639  
G01 X-0.3625 Y0.3626  
G01 X-0.3631 Y0.3611  
G01 X-0.3635 Y0.3595  
G01 X-0.3641 Y0.3584  
G01 X-0.3646 Y0.3572  
G01 X-0.3656 Y0.3559  
G01 X-0.3664 Y0.3545  
G01 X-0.3673 Y0.3536  
G01 X-0.3681 Y0.3525  
G01 X-0.3693 Y0.3515  
G01 X-0.3705 Y0.3504  
G01 X-0.3716 Y0.3498  
G01 X-0.5613 Y0.1995  
G01 X-0.5625 Y0.1984  
G01 X-0.5636 Y0.1978  
G01 X-0.5646 Y0.1970  
G01 X-0.5661 Y0.1963  
G01 X-0.5675 Y0.1955  
G01 X-0.5688 Y0.1952  
G01 X-0.5699 Y0.1947  
G01 X-0.5715 Y0.1944  
G01 X-0.5731 Y0.1940  
G01 X-0.5744 Y0.1940  
G01 X-0.5757 Y0.1938  
G01 X-0.5773 Y0.1940  
G01 X-1.8269 Y0.1940  
G01 X-1.8325 Y0.1955  
G01 X-1.8375 Y0.1984  
G01 X-1.8855 Y0.2464  
G01 X-1.8896 Y0.2505  
G01 X-1.8925 Y0.2555  
G01 X-1.8940 Y0.2611  
G01 X-1.8940 Y0.5789  
G01 X-1.8925 Y0.5845  
G01 X-1.8896 Y0.5895  
G01 X-1.6924 Y0.7867  
G01 X-1.6929 Y0.7881  
G01 X-1.6940 Y0.7950  
G01 X-1.6940 Y0.8019  
G01 X-1.6929 Y0.8087  
G01 X-1.6908 Y0.8153  
G01 X-1.6893 Y0.8182  
G01 X-1.6976 Y0.8265  
G01 X-1.7005 Y0.8315  
G01 X-1.7020 Y0.8371  
G01 X-1.7020 Y0.9950  
G01 X-1.7639 Y1.2180  
G01 X-1.7792 Y1.2180  
G01 X-1.7853 Y1.2192  
G01 X-1.7912 Y1.2216  
G01 X-1.7964 Y1.2251  
G01 X-1.8009 Y1.2296  
G01 X-1.8044 Y1.2348  
G01 X-1.8068 Y1.2407  
G01 X-1.8080 Y1.2468  
G01 X-1.8080 Y1.2532  
G01 X-1.8068 Y1.2593  
G01 X-1.8044 Y1.2652  
G01 X-1.8009 Y1.2704  
G01 X-1.7964 Y1.2749  
G01 X-1.7912 Y1.2784  
G01 X-1.7853 Y1.2808  
G01 X-1.7792 Y1.2820  
G01 X-1.7208 Y1.2820  
G01 X-1.7147 Y1.2808  
G01 X-1.7088 Y1.2784  
G01 X-1.7036 Y1.2749  
G01 X-1.6991 Y1.2704  
G01 X-1.6956 Y1.2652  
G01 X-1.6932 Y1.2593  
G01 X-1.6920 Y1.2532  
G01 X-1.6920 Y1.2468  
G01 X-1.6932 Y1.2407  
G01 X-1.6956 Y1.2348  
G01 X-1.6991 Y1.2296  
G01 X-1.7036 Y1.2251  
G01 X-1.7088 Y1.2216  
G01 X-1.7147 Y1.2192  
G01 X-1.7184 Y1.2185  
G01 X-1.6638 Y1.0220  
G01 X-1.5297 Y1.0220  
G01 X-1.5297 Y1.0249  
G01 X-1.5288 Y1.0271  
G01 X-1.5271 Y1.0288  
G01 X-1.5249 Y1.0297  
G01 X-1.4751 Y1.0297  
G01 X-1.4729 Y1.0288  
G01 X-1.4712 Y1.0271  
G01 X-1.4703 Y1.0249  
G01 X-1.4703 Y0.9751  
G01 X-1.4712 Y0.9729  
G01 X-1.4729 Y0.9712  
G01 X-1.4751 Y0.9703  
G01 X-1.5249 Y0.9703  
G01 X-1.5271 Y0.9712  
G01 X-1.5288 Y0.9729  
G01 X-1.5297 Y0.9751  
G01 X-1.5297 Y0.9780  
G01 X-1.6580 Y0.9780  
G01 X-1.6580 Y0.8491  
G01 X-1.6513 Y0.8424  
G01 X-1.6465 Y0.8424  
G01 X-1.6397 Y0.8413  
G01 X-1.6331 Y0.8392  
G01 X-1.6269 Y0.8361  
G01 X-1.6213 Y0.8320  
G01 X-1.6164 Y0.8271  
G01 X-1.6124 Y0.8215  
G01 X-1.6092 Y0.8153  
G01 X-1.6071 Y0.8087  
G01 X-1.6060 Y0.8019  
G01 X-1.6060 Y0.7971  
G01 X-1.5989 Y0.7900  
G01 X-1.4655 Y0.7900  
G01 X-1.4641 Y0.7902  
G01 X-1.4626 Y0.7900  
G01 X-1.4611 Y0.7900  
G01 X-1.4598 Y0.7896  
G01 X-1.4584 Y0.7895  
G01 X-1.4570 Y0.7889  
G01 X-1.4555 Y0.7885  
G01 X-1.4543 Y0.7878  
G01 X-1.4535 Y0.7875  
G01 X-1.4516 Y0.7875  
G01 X-1.4295 Y0.8096  
G01 X-1.4245 Y0.8125  
G01 X-1.4189 Y0.8140  
G01 X-1.3313 Y0.8140  
G01 X-1.3133 Y0.8320  
G01 X-1.2867 Y0.8320  
G01 X-1.2680 Y0.8133  
G01 X-1.2680 Y0.7867  
G01 X-1.2867 Y0.7680  
G01 X-1.3133 Y0.7680  
G01 X-1.3156 Y0.7704  
G01 X-1.3158 Y0.7703  
G01 X-1.3171 Y0.7700  
G01 X-1.3187 Y0.7700  
G01 X-1.3203 Y0.7698  
G01 X-1.3216 Y0.7700  
G01 X-1.4069 Y0.7700  
G01 X-1.4145 Y0.7624  
G01 X-1.4139 Y0.7609  
G01 X-1.4125 Y0.7537  
G01 X-1.4125 Y0.7463  
G01 X-1.4139 Y0.7391  
G01 X-1.4168 Y0.7322  
G01 X-1.4209 Y0.7261  
G01 X-1.4261 Y0.7209  
G01 X-1.4322 Y0.7168  
G01 X-1.4391 Y0.7139  
G01 X-1.4463 Y0.7125  
G01 X-1.4537 Y0.7125  
G01 X-1.4609 Y0.7139  
G01 X-1.4678 Y0.7168  
G01 X-1.4739 Y0.7209  
G01 X-1.4791 Y0.7261  
G01 X-1.4832 Y0.7322  
G01 X-1.4861 Y0.7391  
G01 X-1.4874 Y0.7460  
G01 X-1.6109 Y0.7460  
G01 X-1.6165 Y0.7475  
G01 X-1.6215 Y0.7504  
G01 X-1.6302 Y0.7591  
G01 X-1.6331 Y0.7576  
G01 X-1.6397 Y0.7555  
G01 X-1.6465 Y0.7544  
G01 X-1.6535 Y0.7544  
G01 X-1.6603 Y0.7555  
G01 X-1.6611 Y0.7558  
G01 X-1.8500 Y0.5669  
G01 X-1.8500 Y0.2731  
G01 X-1.8149 Y0.2380  
G01 X-0.5837 Y0.2380  
G01 X-0.4060 Y0.3786  
G01 X-0.4060 Y0.5026  
G01 X-0.4951 Y0.6201  
G01 X-0.4965 Y0.6217  
G01 X-0.4968 Y0.6224  
G01 X-0.4973 Y0.6230  
G01 X-0.4981 Y0.6250  
G01 X-0.4990 Y0.6269  
G01 X-0.4992 Y0.6277  
G01 X-0.4995 Y0.6284  
G01 X-0.4997 Y0.6305  
G01 X-0.5465 Y0.8680  
G01 X-0.5633 Y0.8680  
G01 X-0.5820 Y0.8867  
G01 X-0.5820 Y0.9133  
G01 X-0.5633 Y0.9320  
G01 X-0.5367 Y0.9320  
G01 X-0.5180 Y0.9133  
G01 X-0.5180 Y0.9078  
G01 X-0.5166 Y0.9068  
G01 X-0.5149 Y0.9059  
G01 X-0.5142 Y0.9052  
G01 X-0.5133 Y0.9047  
G01 X-0.5121 Y0.9032  
G01 X-0.5107 Y0.9019  
G01 X-0.5102 Y0.9011  
G01 X-0.5095 Y0.9003  
G01 X-0.5087 Y0.8986  
G01 X-0.5077 Y0.8970  
G01 X-0.5074 Y0.8960  
G01 X-0.5070 Y0.8951  
G01 X-0.5066 Y0.8932  
G01 X-0.5061 Y0.8914  
G01 X-0.5061 Y0.8904  
G01 X-0.4574 Y0.6432  
G01 X-0.3674 Y0.5245  
G00 Z0.0500  
G00 X-0.4450 Y0.4848  
G01 Z-0.0040 F10    
G01 X-0.4388 Y0.4786  F20    
G01 X-0.4336 Y0.4715  
G01 X-0.4296 Y0.4636  
G01 X-0.4269 Y0.4552  
G01 X-0.4255 Y0.4465  
G01 X-0.4255 Y0.4377  
G01 X-0.4269 Y0.4290  
G01 X-0.4296 Y0.4206  
G01 X-0.4336 Y0.4128  
G01 X-0.4388 Y0.4056  
G01 X-0.4450 Y0.3994  
G01 X-0.4521 Y0.3942  
G01 X-0.4600 Y0.3902  
G01 X-0.4684 Y0.3875  
G01 X-0.4771 Y0.3861  
G01 X-0.5859 Y0.3861  
G01 X-0.5946 Y0.3875  
G01 X-0.6030 Y0.3902  
G01 X-0.6108 Y0.3942  
G01 X-0.6180 Y0.3994  
G01 X-0.6242 Y0.4056  
G01 X-0.6294 Y0.4128  
G01 X-0.6334 Y0.4206  
G01 X-0.6361 Y0.4290  
G01 X-0.6375 Y0.4377  
G01 X-0.6375 Y0.4465  
G01 X-0.6361 Y0.4552  
G01 X-0.6334 Y0.4636  
G01 X-0.6294 Y0.4715  
G01 X-0.6242 Y0.4786  
G01 X-0.6180 Y0.4848  
G01 X-0.6108 Y0.4900  
G01 X-0.6030 Y0.4940  
G01 X-0.5946 Y0.4967  
G01 X-0.5859 Y0.4981  
G01 X-0.4771 Y0.4981  
G01 X-0.4684 Y0.4967  
G01 X-0.4600 Y0.4940  
G01 X-0.4521 Y0.4900  
G01 X-0.4450 Y0.4848  
G00 Z0.0500  
G00 X-0.5754 Y0.5604  
G01 Z-0.0040 F10    
G01 X-0.5816 Y0.5541  F20    
G01 X-0.5888 Y0.5490  
G01 X-0.5966 Y0.5450  
G01 X-0.6050 Y0.5422  
G01 X-0.6137 Y0.5409  
G01 X-0.6225 Y0.5409  
G01 X-0.6312 Y0.5422  
G01 X-0.6396 Y0.5450  
G01 X-0.6475 Y0.5490  
G01 X-0.6546 Y0.5541  
G01 X-0.6608 Y0.5604  
G01 X-0.6660 Y0.5675  
G01 X-0.6700 Y0.5754  
G01 X-0.6727 Y0.5837  
G01 X-0.6741 Y0.5924  
G01 X-0.6741 Y0.6859  
G01 X-0.7179 Y0.7455  
G01 X-0.7187 Y0.7463  
G01 X-0.7196 Y0.7478  
G01 X-0.7207 Y0.7493  
G01 X-0.7211 Y0.7503  
G01 X-0.7316 Y0.7680  
G01 X-0.7383 Y0.7680  
G01 X-0.7570 Y0.7867  
G01 X-0.7570 Y0.8133  
G01 X-0.7383 Y0.8320  
G01 X-0.7117 Y0.8320  
G01 X-0.6930 Y0.8133  
G01 X-0.6930 Y0.7892  
G01 X-0.6829 Y0.7722  
G01 X-0.6571 Y0.7371  
G01 X-0.6546 Y0.7396  
G01 X-0.6475 Y0.7447  
G01 X-0.6396 Y0.7487  
G01 X-0.6312 Y0.7515  
G01 X-0.6225 Y0.7529  
G01 X-0.6137 Y0.7529  
G01 X-0.6050 Y0.7515  
G01 X-0.5966 Y0.7487  
G01 X-0.5888 Y0.7447  
G01 X-0.5816 Y0.7396  
G01 X-0.5754 Y0.7333  
G01 X-0.5702 Y0.7262  
G01 X-0.5662 Y0.7183  
G01 X-0.5635 Y0.7100  
G01 X-0.5621 Y0.7013  
G01 X-0.5621 Y0.5924  
G01 X-0.5635 Y0.5837  
G01 X-0.5662 Y0.5754  
G01 X-0.5702 Y0.5675  
G01 X-0.5754 Y0.5604  
G00 Z0.0500  
G00 X-0.7713 Y0.3351  
G01 Z-0.0040 F10    
G01 X-0.7664 Y0.3302  F20    
G01 X-0.7624 Y0.3246  
G01 X-0.7592 Y0.3185  
G01 X-0.7571 Y0.3119  
G01 X-0.7560 Y0.3050  
G01 X-0.7560 Y0.2981  
G01 X-0.7571 Y0.2913  
G01 X-0.7592 Y0.2847  
G01 X-0.7624 Y0.2785  
G01 X-0.7664 Y0.2729  
G01 X-0.7713 Y0.2680  
G01 X-0.7769 Y0.2639  
G01 X-0.7831 Y0.2608  
G01 X-0.7897 Y0.2587  
G01 X-0.7965 Y0.2576  
G01 X-0.8035 Y0.2576  
G01 X-0.8103 Y0.2587  
G01 X-0.8169 Y0.2608  
G01 X-0.8231 Y0.2639  
G01 X-0.8287 Y0.2680  
G01 X-0.8336 Y0.2729  
G01 X-0.8376 Y0.2785  
G01 X-0.8408 Y0.2847  
G01 X-0.8425 Y0.2900  
G01 X-1.0570 Y0.2900  
G01 X-1.0570 Y0.2822  
G01 X-1.0822 Y0.2570  
G01 X-1.1178 Y0.2570  
G01 X-1.1430 Y0.2822  
G01 X-1.1430 Y0.3178  
G01 X-1.1260 Y0.3348  
G01 X-1.1260 Y0.3652  
G01 X-1.1430 Y0.3822  
G01 X-1.1430 Y0.4178  
G01 X-1.1178 Y0.4430  
G01 X-1.0822 Y0.4430  
G01 X-1.0570 Y0.4178  
G01 X-1.0570 Y0.3822  
G01 X-1.0820 Y0.3572  
G01 X-1.0820 Y0.3428  
G01 X-1.0732 Y0.3340  
G01 X-0.8298 Y0.3340  
G01 X-0.8287 Y0.3351  
G01 X-0.8231 Y0.3392  
G01 X-0.8169 Y0.3424  
G01 X-0.8103 Y0.3445  
G01 X-0.8035 Y0.3456  
G01 X-0.7965 Y0.3456  
G01 X-0.7897 Y0.3445  
G01 X-0.7831 Y0.3424  
G01 X-0.7769 Y0.3392  
G01 X-0.7713 Y0.3351  
G00 Z0.0500  
G00 X-1.4570 Y0.3178  
G01 Z-0.0040 F10    
G01 X-1.4570 Y0.2822  F20    
G01 X-1.4822 Y0.2570  
G01 X-1.5178 Y0.2570  
G01 X-1.5430 Y0.2822  
G01 X-1.5430 Y0.3178  
G01 X-1.5340 Y0.3268  
G01 X-1.5340 Y0.3732  
G01 X-1.5430 Y0.3822  
G01 X-1.5430 Y0.4178  
G01 X-1.5360 Y0.4248  
G01 X-1.6496 Y0.5385  
G01 X-1.6525 Y0.5435  
G01 X-1.6540 Y0.5491  
G01 X-1.6540 Y0.5577  
G01 X-1.6603 Y0.5587  
G01 X-1.6669 Y0.5608  
G01 X-1.6731 Y0.5639  
G01 X-1.6787 Y0.5680  
G01 X-1.6836 Y0.5729  
G01 X-1.6876 Y0.5785  
G01 X-1.6908 Y0.5847  
G01 X-1.6929 Y0.5913  
G01 X-1.6940 Y0.5981  
G01 X-1.6940 Y0.6050  
G01 X-1.6929 Y0.6119  
G01 X-1.6908 Y0.6185  
G01 X-1.6876 Y0.6246  
G01 X-1.6836 Y0.6302  
G01 X-1.6787 Y0.6351  
G01 X-1.6731 Y0.6392  
G01 X-1.6669 Y0.6424  
G01 X-1.6603 Y0.6445  
G01 X-1.6535 Y0.6456  
G01 X-1.6465 Y0.6456  
G01 X-1.6397 Y0.6445  
G01 X-1.6331 Y0.6424  
G01 X-1.6269 Y0.6392  
G01 X-1.6213 Y0.6351  
G01 X-1.6164 Y0.6302  
G01 X-1.6124 Y0.6246  
G01 X-1.6092 Y0.6185  
G01 X-1.6071 Y0.6119  
G01 X-1.6060 Y0.6050  
G01 X-1.6060 Y0.5981  
G01 X-1.6071 Y0.5913  
G01 X-1.6092 Y0.5847  
G01 X-1.6100 Y0.5832  
G01 X-1.6100 Y0.5611  
G01 X-1.4919 Y0.4430  
G01 X-1.4822 Y0.4430  
G01 X-1.4570 Y0.4178  
G01 X-1.4570 Y0.3822  
G01 X-1.4822 Y0.3570  
G01 X-1.4900 Y0.3570  
G01 X-1.4900 Y0.3430  
G01 X-1.4822 Y0.3430  
G01 X-1.4570 Y0.3178  
G00 Z0.0500  
G00 X-1.5570 Y0.3178  
G01 Z-0.0040 F10    
G01 X-1.5570 Y0.2822  F20    
G01 X-1.5822 Y0.2570  
G01 X-1.6178 Y0.2570  
G01 X-1.6430 Y0.2822  
G01 X-1.6430 Y0.3178  
G01 X-1.6178 Y0.3430  
G01 X-1.5822 Y0.3430  
G01 X-1.5570 Y0.3178  
G00 Z0.0500  
G00 X-1.5570 Y0.3822  
G01 Z-0.0040 F10    
G01 X-1.5822 Y0.3570  F20    
G01 X-1.6178 Y0.3570  
G01 X-1.6430 Y0.3822  
G01 X-1.6430 Y0.4178  
G01 X-1.6178 Y0.4430  
G01 X-1.5822 Y0.4430  
G01 X-1.5570 Y0.4178  
G01 X-1.5570 Y0.3822  
G00 Z0.0500  
G00 X-1.6570 Y0.3822  
G01 Z-0.0040 F10    
G01 X-1.6822 Y0.3570  F20    
G01 X-1.7178 Y0.3570  
G01 X-1.7430 Y0.3822  
G01 X-1.7430 Y0.4178  
G01 X-1.7178 Y0.4430  
G01 X-1.6822 Y0.4430  
G01 X-1.6570 Y0.4178  
G01 X-1.6570 Y0.3822  
G00 Z0.0500  
G00 X-1.6822 Y0.3430  
G01 Z-0.0040 F10    
G01 X-1.6570 Y0.3178  F20    
G01 X-1.6570 Y0.2822  
G01 X-1.6822 Y0.2570  
G01 X-1.7178 Y0.2570  
G01 X-1.7430 Y0.2822  
G01 X-1.7430 Y0.3178  
G01 X-1.7178 Y0.3430  
G01 X-1.6822 Y0.3430  
G00 Z0.0500  
G00 X-1.7822 Y0.3430  
G01 Z-0.0040 F10    
G01 X-1.7570 Y0.3178  F20    
G01 X-1.7570 Y0.2822  
G01 X-1.7822 Y0.2570  
G01 X-1.8178 Y0.2570  
G01 X-1.8430 Y0.2822  
G01 X-1.8430 Y0.3178  
G01 X-1.8178 Y0.3430  
G01 X-1.7822 Y0.3430  
G00 Z0.0500  
G00 X-1.7822 Y0.3570  
G01 Z-0.0040 F10    
G01 X-1.8178 Y0.3570  F20    
G01 X-1.8430 Y0.3822  
G01 X-1.8430 Y0.4178  
G01 X-1.8178 Y0.4430  
G01 X-1.7822 Y0.4430  
G01 X-1.7570 Y0.4178  
G01 X-1.7570 Y0.3822  
G01 X-1.7822 Y0.3570  
G00 Z0.0500  
G00 X-1.7792 Y1.3180  
G01 Z-0.0040 F10    
G01 X-1.7853 Y1.3192  F20    
G01 X-1.7896 Y1.3210  
G01 X-1.8059 Y1.3210  
G01 X-1.8115 Y1.3225  
G01 X-1.8165 Y1.3254  
G01 X-1.8206 Y1.3295  
G01 X-1.8635 Y1.3724  
G01 X-1.8676 Y1.3765  
G01 X-1.8705 Y1.3815  
G01 X-1.8720 Y1.3871  
G01 X-1.8720 Y1.5369  
G01 X-1.8705 Y1.5425  
G01 X-1.8676 Y1.5475  
G01 X-1.7802 Y1.6349  
G01 X-1.7820 Y1.6367  
G01 X-1.7820 Y1.6633  
G01 X-1.7633 Y1.6820  
G01 X-1.7367 Y1.6820  
G01 X-1.7180 Y1.6633  
G01 X-1.7180 Y1.6367  
G01 X-1.7319 Y1.6229  
G01 X-1.7321 Y1.6224  
G01 X-1.7326 Y1.6213  
G01 X-1.7336 Y1.6199  
G01 X-1.7344 Y1.6185  
G01 X-1.7353 Y1.6176  
G01 X-1.7360 Y1.6166  
G01 X-1.7373 Y1.6156  
G01 X-1.8280 Y1.5249  
G01 X-1.8280 Y1.3991  
G01 X-1.8001 Y1.3712  
G01 X-1.7964 Y1.3749  
G01 X-1.7912 Y1.3784  
G01 X-1.7853 Y1.3808  
G01 X-1.7792 Y1.3820  
G01 X-1.7208 Y1.3820  
G01 X-1.7147 Y1.3808  
G01 X-1.7088 Y1.3784  
G01 X-1.7036 Y1.3749  
G01 X-1.6991 Y1.3704  
G01 X-1.6956 Y1.3652  
G01 X-1.6932 Y1.3593  
G01 X-1.6920 Y1.3532  
G01 X-1.6920 Y1.3468  
G01 X-1.6932 Y1.3407  
G01 X-1.6956 Y1.3348  
G01 X-1.6991 Y1.3296  
G01 X-1.7036 Y1.3251  
G01 X-1.7088 Y1.3216  
G01 X-1.7147 Y1.3192  
G01 X-1.7208 Y1.3180  
G01 X-1.7792 Y1.3180  
G00 Z0.0500  
G00 X-1.5970 Y1.2721  
G01 Z-0.0040 F10    
G01 X-1.5970 Y1.4029  F20    
G01 X-1.5955 Y1.4085  
G01 X-1.5926 Y1.4135  
G01 X-1.5885 Y1.4176  
G01 X-1.5470 Y1.4591  
G01 X-1.5470 Y1.7489  
G01 X-1.5472 Y1.7507  
G01 X-1.5470 Y1.7518  
G01 X-1.5470 Y1.7529  
G01 X-1.5465 Y1.7546  
G01 X-1.5462 Y1.7564  
G01 X-1.5458 Y1.7574  
G01 X-1.5455 Y1.7585  
G01 X-1.5446 Y1.7600  
G01 X-1.5439 Y1.7617  
G01 X-1.5432 Y1.7625  
G01 X-1.5426 Y1.7635  
G01 X-1.5413 Y1.7648  
G01 X-1.5402 Y1.7662  
G01 X-1.5393 Y1.7668  
G01 X-1.5385 Y1.7676  
G01 X-1.5369 Y1.7685  
G01 X-1.5355 Y1.7696  
G01 X-1.5345 Y1.7699  
G01 X-1.5335 Y1.7705  
G01 X-1.5318 Y1.7710  
G01 X-1.5301 Y1.7716  
G01 X-1.5290 Y1.7717  
G01 X-1.5279 Y1.7720  
G01 X-1.5261 Y1.7720  
G01 X-1.4797 Y1.7766  
G01 X-1.4793 Y1.7768  
G01 X-1.4768 Y1.7769  
G01 X-1.4743 Y1.7772  
G01 X-1.4739 Y1.7771  
G01 X-1.4735 Y1.7771  
G01 X-1.4711 Y1.7766  
G01 X-1.4690 Y1.7763  
G01 X-1.4633 Y1.7820  
G01 X-1.4367 Y1.7820  
G01 X-1.4180 Y1.7633  
G01 X-1.4180 Y1.7367  
G01 X-1.4367 Y1.7180  
G01 X-1.4633 Y1.7180  
G01 X-1.4779 Y1.7326  
G01 X-1.5030 Y1.7301  
G01 X-1.5030 Y1.4471  
G01 X-1.5045 Y1.4415  
G01 X-1.5074 Y1.4365  
G01 X-1.5530 Y1.3909  
G01 X-1.5530 Y1.2841  
G01 X-1.4659 Y1.1970  
G01 X-1.3591 Y1.1970  
G01 X-1.3570 Y1.1991  
G01 X-1.3570 Y1.2133  
G01 X-1.3383 Y1.2320  
G01 X-1.3117 Y1.2320  
G01 X-1.3017 Y1.2220  
G01 X-1.2233 Y1.2220  
G01 X-1.2204 Y1.2249  
G01 X-1.2152 Y1.2284  
G01 X-1.2093 Y1.2308  
G01 X-1.2032 Y1.2320  
G01 X-1.1968 Y1.2320  
G01 X-1.1928 Y1.2312  
G01 X-1.1024 Y1.2912  
G01 X-1.0792 Y1.7755  
G01 X-1.0867 Y1.7680  
G01 X-1.1133 Y1.7680  
G01 X-1.1320 Y1.7867  
G01 X-1.1320 Y1.8133  
G01 X-1.1133 Y1.8320  
G01 X-1.0867 Y1.8320  
G01 X-1.0767 Y1.8220  
G01 X-1.0589 Y1.8220  
G01 X-1.0583 Y1.8220  
G01 X-1.0578 Y1.8221  
G01 X-1.0555 Y1.8220  
G01 X-1.0531 Y1.8220  
G01 X-1.0525 Y1.8219  
G01 X-1.0521 Y1.8218  
G01 X-1.0498 Y1.8211  
G01 X-1.0475 Y1.8205  
G01 X-0.9592 Y1.7965  
G01 X-0.9573 Y1.7962  
G01 X-0.9564 Y1.7957  
G01 X-0.9554 Y1.7955  
G01 X-0.9538 Y1.7945  
G01 X-0.7901 Y1.7180  
G01 X-0.7547 Y1.7180  
G01 X-0.7545 Y1.7180  
G01 X-0.7518 Y1.7180  
G01 X-0.7491 Y1.7180  
G01 X-0.7489 Y1.7179  
G01 X-0.4478 Y1.7124  
G01 X-0.4383 Y1.7220  
G01 X-0.4117 Y1.7220  
G01 X-0.3930 Y1.7033  
G01 X-0.3930 Y1.6767  
G01 X-0.4117 Y1.6580  
G01 X-0.4383 Y1.6580  
G01 X-0.4487 Y1.6684  
G01 X-0.7522 Y1.6740  
G01 X-0.7940 Y1.6740  
G01 X-0.7960 Y1.6738  
G01 X-0.7969 Y1.6740  
G01 X-0.7979 Y1.6740  
G01 X-0.7998 Y1.6745  
G01 X-0.8017 Y1.6748  
G01 X-0.8026 Y1.6753  
G01 X-0.8035 Y1.6755  
G01 X-0.8052 Y1.6765  
G01 X-0.9716 Y1.7543  
G01 X-1.0353 Y1.7716  
G01 X-1.0590 Y1.2792  
G01 X-1.0589 Y1.2775  
G01 X-1.0591 Y1.2763  
G01 X-1.0592 Y1.2751  
G01 X-1.0597 Y1.2735  
G01 X-1.0600 Y1.2718  
G01 X-1.0606 Y1.2707  
G01 X-1.0609 Y1.2695  
G01 X-1.0618 Y1.2681  
G01 X-1.0626 Y1.2666  
G01 X-1.0634 Y1.2657  
G01 X-1.0641 Y1.2647  
G01 X-1.0653 Y1.2635  
G01 X-1.0664 Y1.2623  
G01 X-1.0674 Y1.2616  
G01 X-1.0684 Y1.2608  
G01 X-1.0698 Y1.2600  
G01 X-1.1685 Y1.1945  
G01 X-1.1692 Y1.1907  
G01 X-1.1716 Y1.1848  
G01 X-1.1751 Y1.1796  
G01 X-1.1796 Y1.1751  
G01 X-1.1848 Y1.1716  
G01 X-1.1907 Y1.1692  
G01 X-1.1968 Y1.1680  
G01 X-1.2032 Y1.1680  
G01 X-1.2093 Y1.1692  
G01 X-1.2152 Y1.1716  
G01 X-1.2204 Y1.1751  
G01 X-1.2233 Y1.1780  
G01 X-1.3017 Y1.1780  
G01 X-1.3117 Y1.1680  
G01 X-1.3259 Y1.1680  
G01 X-1.3365 Y1.1574  
G01 X-1.3415 Y1.1545  
G01 X-1.3471 Y1.1530  
G01 X-1.4779 Y1.1530  
G01 X-1.4835 Y1.1545  
G01 X-1.4885 Y1.1574  
G01 X-1.4926 Y1.1615  
G01 X-1.5926 Y1.2615  
G01 X-1.5955 Y1.2665  
G01 X-1.5970 Y1.2721  
G00 Z0.0500  
G00 X-1.5271 Y1.3212  
G01 Z-0.0040 F10    
G01 X-1.5288 Y1.3229  F20    
G01 X-1.5297 Y1.3251  
G01 X-1.5297 Y1.3749  
G01 X-1.5288 Y1.3771  
G01 X-1.5271 Y1.3788  
G01 X-1.5249 Y1.3797  
G01 X-1.5066 Y1.3797  
G01 X-1.4187 Y1.5116  
G01 X-1.4176 Y1.5135  
G01 X-1.4171 Y1.5140  
G01 X-1.4167 Y1.5146  
G01 X-1.4151 Y1.5161  
G01 X-1.4135 Y1.5176  
G01 X-1.4129 Y1.5180  
G01 X-1.4123 Y1.5184  
G01 X-1.4104 Y1.5194  
G01 X-1.4085 Y1.5205  
G01 X-1.4078 Y1.5207  
G01 X-1.4072 Y1.5210  
G01 X-1.4050 Y1.5214  
G01 X-1.4029 Y1.5220  
G01 X-1.4022 Y1.5220  
G01 X-1.4015 Y1.5221  
G01 X-1.3993 Y1.5220  
G01 X-1.2971 Y1.5220  
G01 X-1.2915 Y1.5205  
G01 X-1.2865 Y1.5176  
G01 X-1.2824 Y1.5135  
G01 X-1.2097 Y1.4409  
G01 X-1.1800 Y1.4847  
G01 X-1.1820 Y1.4867  
G01 X-1.1820 Y1.5109  
G01 X-1.2176 Y1.5465  
G01 X-1.2205 Y1.5515  
G01 X-1.2220 Y1.5571  
G01 X-1.2220 Y2.4269  
G01 X-1.2205 Y2.4325  
G01 X-1.2176 Y2.4375  
G01 X-1.2135 Y2.4416  
G01 X-1.1580 Y2.4971  
G01 X-1.1580 Y2.5032  
G01 X-1.1568 Y2.5093  
G01 X-1.1544 Y2.5152  
G01 X-1.1509 Y2.5204  
G01 X-1.1464 Y2.5249  
G01 X-1.1412 Y2.5284  
G01 X-1.1353 Y2.5308  
G01 X-1.1292 Y2.5320  
G01 X-1.0708 Y2.5320  
G01 X-1.0647 Y2.5308  
G01 X-1.0588 Y2.5284  
G01 X-1.0536 Y2.5249  
G01 X-1.0491 Y2.5204  
G01 X-1.0475 Y2.5180  
G01 X-1.0023 Y2.5180  
G01 X-0.9883 Y2.5320  
G01 X-0.9617 Y2.5320  
G01 X-0.9430 Y2.5133  
G01 X-0.9430 Y2.4867  
G01 X-0.9617 Y2.4680  
G01 X-0.9883 Y2.4680  
G01 X-0.9943 Y2.4740  
G01 X-1.0553 Y2.4740  
G01 X-1.0588 Y2.4716  
G01 X-1.0647 Y2.4692  
G01 X-1.0708 Y2.4680  
G01 X-1.1249 Y2.4680  
G01 X-1.1780 Y2.4149  
G01 X-1.1780 Y1.5691  
G01 X-1.1409 Y1.5320  
G01 X-1.1367 Y1.5320  
G01 X-1.1180 Y1.5133  
G01 X-1.1180 Y1.4867  
G01 X-1.1367 Y1.4680  
G01 X-1.1382 Y1.4680  
G01 X-1.1383 Y1.4678  
G01 X-1.1399 Y1.4655  
G01 X-1.1728 Y1.4169  
G01 X-1.1716 Y1.4152  
G01 X-1.1692 Y1.4093  
G01 X-1.1680 Y1.4032  
G01 X-1.1680 Y1.3968  
G01 X-1.1692 Y1.3907  
G01 X-1.1716 Y1.3848  
G01 X-1.1751 Y1.3796  
G01 X-1.1796 Y1.3751  
G01 X-1.1848 Y1.3716  
G01 X-1.1907 Y1.3692  
G01 X-1.1968 Y1.3680  
G01 X-1.2032 Y1.3680  
G01 X-1.2093 Y1.3692  
G01 X-1.2152 Y1.3716  
G01 X-1.2204 Y1.3751  
G01 X-1.2249 Y1.3796  
G01 X-1.2284 Y1.3848  
G01 X-1.2308 Y1.3907  
G01 X-1.2320 Y1.3968  
G01 X-1.2320 Y1.4009  
G01 X-1.3091 Y1.4780  
G01 X-1.3882 Y1.4780  
G01 X-1.4703 Y1.3550  
G01 X-1.4703 Y1.3251  
G01 X-1.4712 Y1.3229  
G01 X-1.4729 Y1.3212  
G01 X-1.4751 Y1.3203  
G01 X-1.5249 Y1.3203  
G01 X-1.5271 Y1.3212  
G00 Z0.0500  
G00 X-1.4570 Y1.2883  
G01 Z-0.0040 F10    
G01 X-1.4383 Y1.3070  F20    
G01 X-1.4340 Y1.3070  
G01 X-1.4336 Y1.3080  
G01 X-1.4332 Y1.3091  
G01 X-1.4323 Y1.3106  
G01 X-1.4316 Y1.3121  
G01 X-1.4308 Y1.3130  
G01 X-1.4302 Y1.3140  
G01 X-1.4289 Y1.3152  
G01 X-1.4278 Y1.3165  
G01 X-1.4268 Y1.3172  
G01 X-1.3550 Y1.3847  
G01 X-1.3570 Y1.3867  
G01 X-1.3570 Y1.4133  
G01 X-1.3383 Y1.4320  
G01 X-1.3117 Y1.4320  
G01 X-1.2930 Y1.4133  
G01 X-1.2930 Y1.3867  
G01 X-1.2980 Y1.3817  
G01 X-1.2802 Y1.3686  
G01 X-1.2790 Y1.3680  
G01 X-1.2779 Y1.3669  
G01 X-1.2766 Y1.3660  
G01 X-1.2758 Y1.3649  
G01 X-1.2439 Y1.3348  
G01 X-1.2167 Y1.3273  
G01 X-1.2152 Y1.3284  
G01 X-1.2093 Y1.3308  
G01 X-1.2032 Y1.3320  
G01 X-1.1968 Y1.3320  
G01 X-1.1907 Y1.3308  
G01 X-1.1848 Y1.3284  
G01 X-1.1796 Y1.3249  
G01 X-1.1751 Y1.3204  
G01 X-1.1716 Y1.3152  
G01 X-1.1692 Y1.3093  
G01 X-1.1680 Y1.3032  
G01 X-1.1680 Y1.2968  
G01 X-1.1692 Y1.2907  
G01 X-1.1716 Y1.2848  
G01 X-1.1751 Y1.2796  
G01 X-1.1796 Y1.2751  
G01 X-1.1848 Y1.2716  
G01 X-1.1907 Y1.2692  
G01 X-1.1968 Y1.2680  
G01 X-1.2032 Y1.2680  
G01 X-1.2093 Y1.2692  
G01 X-1.2152 Y1.2716  
G01 X-1.2204 Y1.2751  
G01 X-1.2249 Y1.2796  
G01 X-1.2284 Y1.2848  
G01 X-1.2604 Y1.2937  
G01 X-1.2629 Y1.2943  
G01 X-1.2632 Y1.2944  
G01 X-1.2636 Y1.2945  
G01 X-1.2658 Y1.2958  
G01 X-1.2680 Y1.2970  
G01 X-1.2683 Y1.2973  
G01 X-1.2686 Y1.2975  
G01 X-1.2704 Y1.2993  
G01 X-1.3061 Y1.3331  
G01 X-1.3283 Y1.3494  
G01 X-1.3932 Y1.2884  
G01 X-1.3930 Y1.2883  
G01 X-1.3930 Y1.2617  
G01 X-1.4117 Y1.2430  
G01 X-1.4383 Y1.2430  
G01 X-1.4570 Y1.2617  
G01 X-1.4570 Y1.2883  
G00 Z0.0500  
G00 X-1.4383 Y1.6430  
G01 Z-0.0040 F10    
G01 X-1.4570 Y1.6617  F20    
G01 X-1.4570 Y1.6883  
G01 X-1.4383 Y1.7070  
G01 X-1.4118 Y1.7070  
G01 X-1.3877 Y1.7176  
G01 X-1.3942 Y1.7739  
G01 X-1.4070 Y1.7867  
G01 X-1.4070 Y1.8133  
G01 X-1.3883 Y1.8320  
G01 X-1.3617 Y1.8320  
G01 X-1.3430 Y1.8133  
G01 X-1.3430 Y1.7867  
G01 X-1.3505 Y1.7793  
G01 X-1.3422 Y1.7069  
G01 X-1.3418 Y1.7045  
G01 X-1.3419 Y1.7041  
G01 X-1.3418 Y1.7036  
G01 X-1.3422 Y1.7012  
G01 X-1.3424 Y1.6987  
G01 X-1.3426 Y1.6983  
G01 X-1.3427 Y1.6979  
G01 X-1.3436 Y1.6956  
G01 X-1.3445 Y1.6933  
G01 X-1.3448 Y1.6930  
G01 X-1.3450 Y1.6926  
G01 X-1.3465 Y1.6906  
G01 X-1.3480 Y1.6887  
G01 X-1.3483 Y1.6884  
G01 X-1.3486 Y1.6880  
G01 X-1.3506 Y1.6866  
G01 X-1.3525 Y1.6850  
G01 X-1.3529 Y1.6849  
G01 X-1.3532 Y1.6846  
G01 X-1.3555 Y1.6837  
G01 X-1.3930 Y1.6672  
G01 X-1.3930 Y1.6617  
G01 X-1.4117 Y1.6430  
G01 X-1.4383 Y1.6430  
G00 Z0.0500  
G00 X-1.4367 Y1.8180  
G01 Z-0.0040 F10    
G01 X-1.4633 Y1.8180  F20    
G01 X-1.4820 Y1.8367  
G01 X-1.4820 Y1.8633  
G01 X-1.4690 Y1.8762  
G01 X-1.4629 Y1.9274  
G01 X-1.4626 Y1.9300  
G01 X-1.4625 Y1.9302  
G01 X-1.4625 Y1.9305  
G01 X-1.4615 Y1.9329  
G01 X-1.4459 Y1.9748  
G01 X-1.4464 Y1.9751  
G01 X-1.4509 Y1.9796  
G01 X-1.4544 Y1.9848  
G01 X-1.4568 Y1.9907  
G01 X-1.4580 Y1.9968  
G01 X-1.4580 Y2.0032  
G01 X-1.4568 Y2.0093  
G01 X-1.4544 Y2.0152  
G01 X-1.4509 Y2.0204  
G01 X-1.4464 Y2.0249  
G01 X-1.4412 Y2.0284  
G01 X-1.4353 Y2.0308  
G01 X-1.4292 Y2.0320  
G01 X-1.3708 Y2.0320  
G01 X-1.3647 Y2.0308  
G01 X-1.3588 Y2.0284  
G01 X-1.3536 Y2.0249  
G01 X-1.3491 Y2.0204  
G01 X-1.3456 Y2.0152  
G01 X-1.3432 Y2.0093  
G01 X-1.3420 Y2.0032  
G01 X-1.3420 Y1.9968  
G01 X-1.3432 Y1.9907  
G01 X-1.3456 Y1.9848  
G01 X-1.3491 Y1.9796  
G01 X-1.3536 Y1.9751  
G01 X-1.3588 Y1.9716  
G01 X-1.3647 Y1.9692  
G01 X-1.3708 Y1.9680  
G01 X-1.4015 Y1.9680  
G01 X-1.4195 Y1.9198  
G01 X-1.4254 Y1.8706  
G01 X-1.4180 Y1.8633  
G01 X-1.4180 Y1.8367  
G01 X-1.4367 Y1.8180  
G00 Z0.0500  
G00 X-1.4353 Y2.0692  
G01 Z-0.0040 F10    
G01 X-1.4412 Y2.0716  F20    
G01 X-1.4464 Y2.0751  
G01 X-1.4509 Y2.0796  
G01 X-1.4544 Y2.0848  
G01 X-1.4568 Y2.0907  
G01 X-1.4580 Y2.0968  
G01 X-1.4580 Y2.1032  
G01 X-1.4568 Y2.1093  
G01 X-1.4544 Y2.1152  
G01 X-1.4509 Y2.1204  
G01 X-1.4464 Y2.1249  
G01 X-1.4412 Y2.1284  
G01 X-1.4353 Y2.1308  
G01 X-1.4292 Y2.1320  
G01 X-1.3708 Y2.1320  
G01 X-1.3647 Y2.1308  
G01 X-1.3588 Y2.1284  
G01 X-1.3536 Y2.1249  
G01 X-1.3491 Y2.1204  
G01 X-1.3456 Y2.1152  
G01 X-1.3432 Y2.1093  
G01 X-1.3420 Y2.1032  
G01 X-1.3420 Y2.0968  
G01 X-1.3432 Y2.0907  
G01 X-1.3456 Y2.0848  
G01 X-1.3491 Y2.0796  
G01 X-1.3536 Y2.0751  
G01 X-1.3588 Y2.0716  
G01 X-1.3647 Y2.0692  
G01 X-1.3708 Y2.0680  
G01 X-1.4292 Y2.0680  
G01 X-1.4353 Y2.0692  
G00 Z0.0500  
G00 X-1.4353 Y2.1692  
G01 Z-0.0040 F10    
G01 X-1.4412 Y2.1716  F20    
G01 X-1.4464 Y2.1751  
G01 X-1.4509 Y2.1796  
G01 X-1.4544 Y2.1848  
G01 X-1.4548 Y2.1860  
G01 X-1.7187 Y2.1860  
G01 X-1.7300 Y2.1747  
G01 X-1.7300 Y2.0753  
G01 X-1.7180 Y2.0633  
G01 X-1.7180 Y2.0367  
G01 X-1.7367 Y2.0180  
G01 X-1.7633 Y2.0180  
G01 X-1.7820 Y2.0367  
G01 X-1.7820 Y2.0633  
G01 X-1.7740 Y2.0713  
G01 X-1.7740 Y2.1787  
G01 X-1.7820 Y2.1867  
G01 X-1.7820 Y2.2133  
G01 X-1.7633 Y2.2320  
G01 X-1.7367 Y2.2320  
G01 X-1.7340 Y2.2292  
G01 X-1.7328 Y2.2297  
G01 X-1.7318 Y2.2297  
G01 X-1.7309 Y2.2300  
G01 X-1.7290 Y2.2300  
G01 X-1.7270 Y2.2302  
G01 X-1.7261 Y2.2300  
G01 X-1.4372 Y2.2300  
G01 X-1.4353 Y2.2308  
G01 X-1.4292 Y2.2320  
G01 X-1.3708 Y2.2320  
G01 X-1.3647 Y2.2308  
G01 X-1.3588 Y2.2284  
G01 X-1.3536 Y2.2249  
G01 X-1.3491 Y2.2204  
G01 X-1.3456 Y2.2152  
G01 X-1.3432 Y2.2093  
G01 X-1.3420 Y2.2032  
G01 X-1.3420 Y2.1968  
G01 X-1.3432 Y2.1907  
G01 X-1.3456 Y2.1848  
G01 X-1.3491 Y2.1796  
G01 X-1.3536 Y2.1751  
G01 X-1.3588 Y2.1716  
G01 X-1.3647 Y2.1692  
G01 X-1.3708 Y2.1680  
G01 X-1.4292 Y2.1680  
G01 X-1.4353 Y2.1692  
G00 Z0.0500  
G00 X-1.4353 Y2.2692  
G01 Z-0.0040 F10    
G01 X-1.4412 Y2.2716  F20    
G01 X-1.4464 Y2.2751  
G01 X-1.4509 Y2.2796  
G01 X-1.4544 Y2.2848  
G01 X-1.4568 Y2.2907  
G01 X-1.4580 Y2.2968  
G01 X-1.4580 Y2.3032  
G01 X-1.4568 Y2.3093  
G01 X-1.4544 Y2.3152  
G01 X-1.4509 Y2.3204  
G01 X-1.4464 Y2.3249  
G01 X-1.4412 Y2.3284  
G01 X-1.4353 Y2.3308  
G01 X-1.4292 Y2.3320  
G01 X-1.3708 Y2.3320  
G01 X-1.3664 Y2.3311  
G01 X-1.2784 Y2.3871  
G01 X-1.2701 Y2.4486  
G01 X-1.2702 Y2.4492  
G01 X-1.2697 Y2.4515  
G01 X-1.2694 Y2.4538  
G01 X-1.2692 Y2.4543  
G01 X-1.2691 Y2.4549  
G01 X-1.2681 Y2.4570  
G01 X-1.2672 Y2.4592  
G01 X-1.2668 Y2.4596  
G01 X-1.2470 Y2.5010  
G01 X-1.2470 Y2.7814  
G01 X-1.2471 Y2.7836  
G01 X-1.2470 Y2.7842  
G01 X-1.2470 Y2.7849  
G01 X-1.2464 Y2.7871  
G01 X-1.2460 Y2.7893  
G01 X-1.2457 Y2.7899  
G01 X-1.2455 Y2.7905  
G01 X-1.2444 Y2.7924  
G01 X-1.2434 Y2.7945  
G01 X-1.2429 Y2.7949  
G01 X-1.2426 Y2.7955  
G01 X-1.2410 Y2.7971  
G01 X-1.2395 Y2.7988  
G01 X-1.2390 Y2.7991  
G01 X-1.2385 Y2.7996  
G01 X-1.2366 Y2.8007  
G01 X-1.1819 Y2.8367  
G01 X-1.1820 Y2.8633  
G01 X-1.1633 Y2.8820  
G01 X-1.1367 Y2.8820  
G01 X-1.1180 Y2.8633  
G01 X-1.1180 Y2.8417  
G01 X-0.8806 Y2.7611  
G01 X-0.8785 Y2.7605  
G01 X-0.8779 Y2.7601  
G01 X-0.8772 Y2.7599  
G01 X-0.8754 Y2.7587  
G01 X-0.8735 Y2.7576  
G01 X-0.8730 Y2.7571  
G01 X-0.8724 Y2.7567  
G01 X-0.8709 Y2.7550  
G01 X-0.8694 Y2.7535  
G01 X-0.8690 Y2.7529  
G01 X-0.8685 Y2.7523  
G01 X-0.8676 Y2.7504  
G01 X-0.8665 Y2.7485  
G01 X-0.8663 Y2.7478  
G01 X-0.8660 Y2.7471  
G01 X-0.8656 Y2.7450  
G01 X-0.8650 Y2.7429  
G01 X-0.8650 Y2.7422  
G01 X-0.8649 Y2.7414  
G01 X-0.8650 Y2.7393  
G01 X-0.8650 Y2.4320  
G01 X-0.8617 Y2.4320  
G01 X-0.8430 Y2.4133  
G01 X-0.8430 Y2.3867  
G01 X-0.8617 Y2.3680  
G01 X-0.8883 Y2.3680  
G01 X-0.8983 Y2.3780  
G01 X-1.0507 Y2.3780  
G01 X-1.0536 Y2.3751  
G01 X-1.0588 Y2.3716  
G01 X-1.0647 Y2.3692  
G01 X-1.0708 Y2.3680  
G01 X-1.0820 Y2.3680  
G01 X-1.0820 Y2.3320  
G01 X-1.0708 Y2.3320  
G01 X-1.0647 Y2.3308  
G01 X-1.0588 Y2.3284  
G01 X-1.0536 Y2.3249  
G01 X-1.0491 Y2.3204  
G01 X-1.0456 Y2.3152  
G01 X-1.0432 Y2.3093  
G01 X-1.0420 Y2.3032  
G01 X-1.0420 Y2.2968  
G01 X-1.0432 Y2.2907  
G01 X-1.0456 Y2.2848  
G01 X-1.0491 Y2.2796  
G01 X-1.0536 Y2.2751  
G01 X-1.0588 Y2.2716  
G01 X-1.0647 Y2.2692  
G01 X-1.0708 Y2.2680  
G01 X-1.1292 Y2.2680  
G01 X-1.1353 Y2.2692  
G01 X-1.1412 Y2.2716  
G01 X-1.1464 Y2.2751  
G01 X-1.1509 Y2.2796  
G01 X-1.1544 Y2.2848  
G01 X-1.1568 Y2.2907  
G01 X-1.1580 Y2.2968  
G01 X-1.1580 Y2.3032  
G01 X-1.1568 Y2.3093  
G01 X-1.1544 Y2.3152  
G01 X-1.1509 Y2.3204  
G01 X-1.1464 Y2.3249  
G01 X-1.1412 Y2.3284  
G01 X-1.1353 Y2.3308  
G01 X-1.1292 Y2.3320  
G01 X-1.1260 Y2.3320  
G01 X-1.1260 Y2.3680  
G01 X-1.1292 Y2.3680  
G01 X-1.1353 Y2.3692  
G01 X-1.1412 Y2.3716  
G01 X-1.1464 Y2.3751  
G01 X-1.1509 Y2.3796  
G01 X-1.1544 Y2.3848  
G01 X-1.1568 Y2.3907  
G01 X-1.1580 Y2.3968  
G01 X-1.1580 Y2.4032  
G01 X-1.1568 Y2.4093  
G01 X-1.1544 Y2.4152  
G01 X-1.1509 Y2.4204  
G01 X-1.1464 Y2.4249  
G01 X-1.1412 Y2.4284  
G01 X-1.1353 Y2.4308  
G01 X-1.1292 Y2.4320  
G01 X-1.0708 Y2.4320  
G01 X-1.0647 Y2.4308  
G01 X-1.0588 Y2.4284  
G01 X-1.0536 Y2.4249  
G01 X-1.0507 Y2.4220  
G01 X-0.9090 Y2.4220  
G01 X-0.9090 Y2.7242  
G01 X-1.1489 Y2.8057  
G01 X-1.2030 Y2.7701  
G01 X-1.2030 Y2.4968  
G01 X-1.2028 Y2.4948  
G01 X-1.2030 Y2.4940  
G01 X-1.2030 Y2.4931  
G01 X-1.2035 Y2.4911  
G01 X-1.2039 Y2.4891  
G01 X-1.2043 Y2.4883  
G01 X-1.2045 Y2.4875  
G01 X-1.2055 Y2.4857  
G01 X-1.2267 Y2.4416  
G01 X-1.2359 Y2.3730  
G01 X-1.2359 Y2.3721  
G01 X-1.2363 Y2.3701  
G01 X-1.2366 Y2.3682  
G01 X-1.2369 Y2.3673  
G01 X-1.2372 Y2.3664  
G01 X-1.2381 Y2.3647  
G01 X-1.2388 Y2.3628  
G01 X-1.2394 Y2.3621  
G01 X-1.2398 Y2.3613  
G01 X-1.2412 Y2.3598  
G01 X-1.2424 Y2.3583  
G01 X-1.2431 Y2.3577  
G01 X-1.2437 Y2.3570  
G01 X-1.2454 Y2.3559  
G01 X-1.2470 Y2.3547  
G01 X-1.2478 Y2.3544  
G01 X-1.3425 Y2.2941  
G01 X-1.3432 Y2.2907  
G01 X-1.3456 Y2.2848  
G01 X-1.3491 Y2.2796  
G01 X-1.3536 Y2.2751  
G01 X-1.3588 Y2.2716  
G01 X-1.3647 Y2.2692  
G01 X-1.3708 Y2.2680  
G01 X-1.4292 Y2.2680  
G01 X-1.4353 Y2.2692  
G00 Z0.0500  
G00 X-1.4353 Y2.3692  
G01 Z-0.0040 F10    
G01 X-1.4412 Y2.3716  F20    
G01 X-1.4464 Y2.3751  
G01 X-1.4509 Y2.3796  
G01 X-1.4544 Y2.3848  
G01 X-1.4568 Y2.3907  
G01 X-1.4580 Y2.3968  
G01 X-1.4580 Y2.4032  
G01 X-1.4568 Y2.4093  
G01 X-1.4544 Y2.4152  
G01 X-1.4509 Y2.4204  
G01 X-1.4464 Y2.4249  
G01 X-1.4412 Y2.4284  
G01 X-1.4353 Y2.4308  
G01 X-1.4292 Y2.4320  
G01 X-1.3708 Y2.4320  
G01 X-1.3647 Y2.4308  
G01 X-1.3623 Y2.4298  
G01 X-1.3200 Y2.4570  
G01 X-1.3200 Y2.8069  
G01 X-1.3185 Y2.8125  
G01 X-1.3156 Y2.8175  
G01 X-1.1895 Y2.9436  
G01 X-1.1845 Y2.9465  
G01 X-1.1789 Y2.9480  
G01 X-0.7220 Y2.9480  
G01 X-0.7212 Y2.9482  
G01 X-0.7191 Y2.9480  
G01 X-0.7171 Y2.9480  
G01 X-0.7163 Y2.9478  
G01 X-0.7154 Y2.9477  
G01 X-0.7135 Y2.9470  
G01 X-0.7115 Y2.9465  
G01 X-0.7108 Y2.9461  
G01 X-0.0105 Y2.6990  
G01 X-0.0085 Y2.6985  
G01 X-0.0078 Y2.6981  
G01 X-0.0069 Y2.6978  
G01 X-0.0053 Y2.6966  
G01 X-0.0035 Y2.6956  
G01 X-0.0029 Y2.6950  
G01 X-0.0022 Y2.6945  
G01 X-0.0008 Y2.6930  
G01 X0.0006  Y2.6915  
G01 X0.0010  Y2.6908  
G01 X0.0016  Y2.6901  
G01 X0.0025  Y2.6883  
G01 X0.0035  Y2.6865  
G01 X0.0037  Y2.6857  
G01 X0.0041  Y2.6849  
G01 X0.0045  Y2.6829  
G01 X0.0050  Y2.6809  
G01 X0.0050  Y2.6800  
G01 X0.0052  Y2.6792  
G01 X0.0050  Y2.6771  
G01 X0.0050  Y1.6537  
G01 X0.0051  Y1.6534  
G01 X0.0050  Y1.6508  
G01 X0.0050  Y1.6481  
G01 X0.0049  Y1.6479  
G01 X-0.0020 Y1.3078  
G01 X-0.0020 Y1.2973  
G01 X-0.0018 Y1.2957  
G01 X-0.0020 Y1.2944  
G01 X-0.0020 Y1.2931  
G01 X-0.0024 Y1.2915  
G01 X-0.0027 Y1.2899  
G01 X-0.0032 Y1.2888  
G01 X-0.0035 Y1.2875  
G01 X-0.0043 Y1.2861  
G01 X-0.0050 Y1.2846  
G01 X-0.0058 Y1.2836  
G01 X-0.0064 Y1.2825  
G01 X-0.0075 Y1.2813  
G01 X-0.0815 Y1.1879  
G01 X-0.0820 Y1.1871  
G01 X-0.0833 Y1.1856  
G01 X-0.0845 Y1.1841  
G01 X-0.0853 Y1.1835  
G01 X-0.0859 Y1.1828  
G01 X-0.0876 Y1.1818  
G01 X-0.0892 Y1.1806  
G01 X-0.0901 Y1.1803  
G01 X-0.0909 Y1.1798  
G01 X-0.0927 Y1.1792  
G01 X-0.0946 Y1.1785  
G01 X-0.0955 Y1.1784  
G01 X-0.0964 Y1.1781  
G01 X-0.0984 Y1.1780  
G01 X-0.1003 Y1.1778  
G01 X-0.1013 Y1.1779  
G01 X-0.4093 Y1.1681  
G01 X-0.5310 Y1.1414  
G01 X-0.5680 Y1.1155  
G01 X-0.5680 Y1.1067  
G01 X-0.5867 Y1.0880  
G01 X-0.6133 Y1.0880  
G01 X-0.6164 Y1.0911  
G01 X-0.6258 Y1.0879  
G01 X-0.6265 Y1.0875  
G01 X-0.6286 Y1.0870  
G01 X-0.6306 Y1.0862  
G01 X-0.6313 Y1.0862  
G01 X-0.6639 Y1.0774  
G01 X-0.6644 Y1.0772  
G01 X-0.6667 Y1.0766  
G01 X-0.6691 Y1.0760  
G01 X-0.6695 Y1.0760  
G01 X-0.6700 Y1.0759  
G01 X-0.6724 Y1.0760  
G01 X-0.6748 Y1.0760  
G01 X-0.6753 Y1.0761  
G01 X-0.7205 Y1.0780  
G01 X-0.7770 Y1.0780  
G01 X-0.7788 Y1.0778  
G01 X-0.7798 Y1.0780  
G01 X-0.7809 Y1.0780  
G01 X-0.7827 Y1.0785  
G01 X-0.7845 Y1.0788  
G01 X-0.7855 Y1.0792  
G01 X-0.7865 Y1.0795  
G01 X-0.7881 Y1.0804  
G01 X-0.7898 Y1.0812  
G01 X-0.7906 Y1.0819  
G01 X-0.7915 Y1.0824  
G01 X-0.7928 Y1.0837  
G01 X-0.7942 Y1.0849  
G01 X-0.7949 Y1.0857  
G01 X-0.7956 Y1.0865  
G01 X-0.7965 Y1.0881  
G01 X-0.8319 Y1.1377  
G01 X-0.8326 Y1.1385  
G01 X-0.8335 Y1.1401  
G01 X-0.8346 Y1.1416  
G01 X-0.8350 Y1.1426  
G01 X-0.8355 Y1.1435  
G01 X-0.8360 Y1.1453  
G01 X-0.8366 Y1.1470  
G01 X-0.8367 Y1.1481  
G01 X-0.8370 Y1.1491  
G01 X-0.8370 Y1.1510  
G01 X-0.8372 Y1.1528  
G01 X-0.8370 Y1.1538  
G01 X-0.8370 Y1.2361  
G01 X-0.8886 Y1.2701  
G01 X-0.8907 Y1.2692  
G01 X-0.8968 Y1.2680  
G01 X-0.9032 Y1.2680  
G01 X-0.9093 Y1.2692  
G01 X-0.9152 Y1.2716  
G01 X-0.9204 Y1.2751  
G01 X-0.9249 Y1.2796  
G01 X-0.9284 Y1.2848  
G01 X-0.9308 Y1.2907  
G01 X-0.9320 Y1.2968  
G01 X-0.9320 Y1.3032  
G01 X-0.9308 Y1.3093  
G01 X-0.9284 Y1.3152  
G01 X-0.9249 Y1.3204  
G01 X-0.9204 Y1.3249  
G01 X-0.9152 Y1.3284  
G01 X-0.9093 Y1.3308  
G01 X-0.9032 Y1.3320  
G01 X-0.8968 Y1.3320  
G01 X-0.8907 Y1.3308  
G01 X-0.8848 Y1.3284  
G01 X-0.8796 Y1.3249  
G01 X-0.8751 Y1.3204  
G01 X-0.8749 Y1.3200  
G01 X-0.8404 Y1.3173  
G01 X-0.7820 Y1.3351  
G01 X-0.7820 Y1.3533  
G01 X-0.7633 Y1.3720  
G01 X-0.7367 Y1.3720  
G01 X-0.7180 Y1.3533  
G01 X-0.7180 Y1.3267  
G01 X-0.7367 Y1.3080  
G01 X-0.7444 Y1.3080  
G01 X-0.7479 Y1.3042  
G01 X-0.7499 Y1.3021  
G01 X-0.7518 Y1.3000  
G01 X-0.7519 Y1.2999  
G01 X-0.7543 Y1.2984  
G01 X-0.7567 Y1.2969  
G01 X-0.7568 Y1.2968  
G01 X-0.7595 Y1.2960  
G01 X-0.7622 Y1.2951  
G01 X-0.8199 Y1.2775  
G01 X-0.8034 Y1.2667  
G01 X-0.8015 Y1.2656  
G01 X-0.8010 Y1.2651  
G01 X-0.8005 Y1.2648  
G01 X-0.7990 Y1.2631  
G01 X-0.7974 Y1.2615  
G01 X-0.7971 Y1.2609  
G01 X-0.7966 Y1.2605  
G01 X-0.7956 Y1.2584  
G01 X-0.7945 Y1.2565  
G01 X-0.7943 Y1.2559  
G01 X-0.7940 Y1.2553  
G01 X-0.7936 Y1.2531  
G01 X-0.7930 Y1.2509  
G01 X-0.7930 Y1.2502  
G01 X-0.7929 Y1.2496  
G01 X-0.7930 Y1.2474  
G01 X-0.7930 Y1.1590  
G01 X-0.7667 Y1.1220  
G01 X-0.7224 Y1.1220  
G01 X-0.7220 Y1.1221  
G01 X-0.7195 Y1.1220  
G01 X-0.7171 Y1.1220  
G01 X-0.7167 Y1.1219  
G01 X-0.6745 Y1.1201  
G01 X-0.6414 Y1.1290  
G01 X-0.6320 Y1.1323  
G01 X-0.6320 Y1.1333  
G01 X-0.6133 Y1.1520  
G01 X-0.5926 Y1.1520  
G01 X-0.5538 Y1.1792  
G01 X-0.5527 Y1.1802  
G01 X-0.5514 Y1.1809  
G01 X-0.5502 Y1.1817  
G01 X-0.5488 Y1.1822  
G01 X-0.5475 Y1.1829  
G01 X-0.5461 Y1.1832  
G01 X-0.5448 Y1.1837  
G01 X-0.5433 Y1.1838  
G01 X-0.4175 Y1.2113  
G01 X-0.4156 Y1.2119  
G01 X-0.4147 Y1.2119  
G01 X-0.4139 Y1.2121  
G01 X-0.4118 Y1.2120  
G01 X-0.1109 Y1.2217  
G01 X-0.0460 Y1.3037  
G01 X-0.0460 Y1.3053  
G01 X-0.0461 Y1.3056  
G01 X-0.0460 Y1.3082  
G01 X-0.0460 Y1.3109  
G01 X-0.0459 Y1.3111  
G01 X-0.0390 Y1.6512  
G01 X-0.0390 Y2.6624  
G01 X-0.7238 Y2.9040  
G01 X-1.1669 Y2.9040  
G01 X-1.2760 Y2.7949  
G01 X-1.2760 Y2.4455  
G01 X-1.2759 Y2.4432  
G01 X-1.2760 Y2.4426  
G01 X-1.2760 Y2.4421  
G01 X-1.2766 Y2.4398  
G01 X-1.2771 Y2.4375  
G01 X-1.2774 Y2.4370  
G01 X-1.2775 Y2.4365  
G01 X-1.2787 Y2.4345  
G01 X-1.2798 Y2.4323  
G01 X-1.2801 Y2.4320  
G01 X-1.2804 Y2.4315  
G01 X-1.2821 Y2.4298  
G01 X-1.2837 Y2.4281  
G01 X-1.2841 Y2.4278  
G01 X-1.2845 Y2.4274  
G01 X-1.2865 Y2.4262  
G01 X-1.3437 Y2.3894  
G01 X-1.3456 Y2.3848  
G01 X-1.3491 Y2.3796  
G01 X-1.3536 Y2.3751  
G01 X-1.3588 Y2.3716  
G01 X-1.3647 Y2.3692  
G01 X-1.3708 Y2.3680  
G01 X-1.4292 Y2.3680  
G01 X-1.4353 Y2.3692  
G00 Z0.0500  
G00 X-1.4353 Y2.5692  
G01 Z-0.0040 F10    
G01 X-1.4412 Y2.5716  F20    
G01 X-1.4464 Y2.5751  
G01 X-1.4509 Y2.5796  
G01 X-1.4544 Y2.5848  
G01 X-1.4568 Y2.5907  
G01 X-1.4580 Y2.5968  
G01 X-1.4580 Y2.6032  
G01 X-1.4568 Y2.6093  
G01 X-1.4544 Y2.6152  
G01 X-1.4509 Y2.6204  
G01 X-1.4464 Y2.6249  
G01 X-1.4412 Y2.6284  
G01 X-1.4353 Y2.6308  
G01 X-1.4292 Y2.6320  
G01 X-1.3708 Y2.6320  
G01 X-1.3647 Y2.6308  
G01 X-1.3588 Y2.6284  
G01 X-1.3536 Y2.6249  
G01 X-1.3491 Y2.6204  
G01 X-1.3456 Y2.6152  
G01 X-1.3432 Y2.6093  
G01 X-1.3420 Y2.6032  
G01 X-1.3420 Y2.5968  
G01 X-1.3432 Y2.5907  
G01 X-1.3456 Y2.5848  
G01 X-1.3491 Y2.5796  
G01 X-1.3536 Y2.5751  
G01 X-1.3588 Y2.5716  
G01 X-1.3647 Y2.5692  
G01 X-1.3708 Y2.5680  
G01 X-1.4292 Y2.5680  
G01 X-1.4353 Y2.5692  
G00 Z0.0500  
G00 X-1.4353 Y2.6692  
G01 Z-0.0040 F10    
G01 X-1.4412 Y2.6716  F20    
G01 X-1.4464 Y2.6751  
G01 X-1.4509 Y2.6796  
G01 X-1.4544 Y2.6848  
G01 X-1.4568 Y2.6907  
G01 X-1.4580 Y2.6968  
G01 X-1.4580 Y2.7032  
G01 X-1.4568 Y2.7093  
G01 X-1.4544 Y2.7152  
G01 X-1.4509 Y2.7204  
G01 X-1.4464 Y2.7249  
G01 X-1.4412 Y2.7284  
G01 X-1.4353 Y2.7308  
G01 X-1.4292 Y2.7320  
G01 X-1.3708 Y2.7320  
G01 X-1.3647 Y2.7308  
G01 X-1.3588 Y2.7284  
G01 X-1.3536 Y2.7249  
G01 X-1.3491 Y2.7204  
G01 X-1.3456 Y2.7152  
G01 X-1.3432 Y2.7093  
G01 X-1.3420 Y2.7032  
G01 X-1.3420 Y2.6968  
G01 X-1.3432 Y2.6907  
G01 X-1.3456 Y2.6848  
G01 X-1.3491 Y2.6796  
G01 X-1.3536 Y2.6751  
G01 X-1.3588 Y2.6716  
G01 X-1.3647 Y2.6692  
G01 X-1.3708 Y2.6680  
G01 X-1.4292 Y2.6680  
G01 X-1.4353 Y2.6692  
G00 Z0.0500  
G00 X-1.1464 Y2.6751  
G01 Z-0.0040 F10    
G01 X-1.1509 Y2.6796  F20    
G01 X-1.1544 Y2.6848  
G01 X-1.1568 Y2.6907  
G01 X-1.1580 Y2.6968  
G01 X-1.1580 Y2.7032  
G01 X-1.1568 Y2.7093  
G01 X-1.1544 Y2.7152  
G01 X-1.1509 Y2.7204  
G01 X-1.1464 Y2.7249  
G01 X-1.1412 Y2.7284  
G01 X-1.1353 Y2.7308  
G01 X-1.1292 Y2.7320  
G01 X-1.0708 Y2.7320  
G01 X-1.0647 Y2.7308  
G01 X-1.0588 Y2.7284  
G01 X-1.0536 Y2.7249  
G01 X-1.0491 Y2.7204  
G01 X-1.0456 Y2.7152  
G01 X-1.0432 Y2.7093  
G01 X-1.0420 Y2.7032  
G01 X-1.0420 Y2.6968  
G01 X-1.0432 Y2.6907  
G01 X-1.0456 Y2.6848  
G01 X-1.0491 Y2.6796  
G01 X-1.0536 Y2.6751  
G01 X-1.0588 Y2.6716  
G01 X-1.0647 Y2.6692  
G01 X-1.0708 Y2.6680  
G01 X-1.1292 Y2.6680  
G01 X-1.1353 Y2.6692  
G01 X-1.1412 Y2.6716  
G01 X-1.1464 Y2.6751  
G00 Z0.0500  
G00 X-1.1464 Y2.6249  
G01 Z-0.0040 F10    
G01 X-1.1412 Y2.6284  F20    
G01 X-1.1353 Y2.6308  
G01 X-1.1292 Y2.6320  
G01 X-1.0708 Y2.6320  
G01 X-1.0647 Y2.6308  
G01 X-1.0588 Y2.6284  
G01 X-1.0536 Y2.6249  
G01 X-1.0491 Y2.6204  
G01 X-1.0456 Y2.6152  
G01 X-1.0432 Y2.6093  
G01 X-1.0420 Y2.6032  
G01 X-1.0420 Y2.5968  
G01 X-1.0432 Y2.5907  
G01 X-1.0456 Y2.5848  
G01 X-1.0491 Y2.5796  
G01 X-1.0536 Y2.5751  
G01 X-1.0588 Y2.5716  
G01 X-1.0647 Y2.5692  
G01 X-1.0708 Y2.5680  
G01 X-1.1292 Y2.5680  
G01 X-1.1353 Y2.5692  
G01 X-1.1412 Y2.5716  
G01 X-1.1464 Y2.5751  
G01 X-1.1509 Y2.5796  
G01 X-1.1544 Y2.5848  
G01 X-1.1568 Y2.5907  
G01 X-1.1580 Y2.5968  
G01 X-1.1580 Y2.6032  
G01 X-1.1568 Y2.6093  
G01 X-1.1544 Y2.6152  
G01 X-1.1509 Y2.6204  
G01 X-1.1464 Y2.6249  
G00 Z0.0500  
G00 X-0.8191 Y2.6261  
G01 Z-0.0040 F10    
G01 X-0.8232 Y2.6322  F20    
G01 X-0.8261 Y2.6391  
G01 X-0.8275 Y2.6463  
G01 X-0.8275 Y2.6537  
G01 X-0.8261 Y2.6609  
G01 X-0.8232 Y2.6678  
G01 X-0.8191 Y2.6739  
G01 X-0.8139 Y2.6791  
G01 X-0.8078 Y2.6832  
G01 X-0.8009 Y2.6861  
G01 X-0.7937 Y2.6875  
G01 X-0.7863 Y2.6875  
G01 X-0.7791 Y2.6861  
G01 X-0.7722 Y2.6832  
G01 X-0.7661 Y2.6791  
G01 X-0.7609 Y2.6739  
G01 X-0.7596 Y2.6720  
G01 X-0.7184 Y2.6720  
G01 X-0.7128 Y2.6705  
G01 X-0.7078 Y2.6676  
G01 X-0.6661 Y2.6260  
G01 X-0.6660 Y2.6262  
G01 X-0.6608 Y2.6333  
G01 X-0.6546 Y2.6396  
G01 X-0.6475 Y2.6447  
G01 X-0.6396 Y2.6487  
G01 X-0.6312 Y2.6515  
G01 X-0.6225 Y2.6529  
G01 X-0.6137 Y2.6529  
G01 X-0.6050 Y2.6515  
G01 X-0.5966 Y2.6487  
G01 X-0.5888 Y2.6447  
G01 X-0.5816 Y2.6396  
G01 X-0.5754 Y2.6333  
G01 X-0.5702 Y2.6262  
G01 X-0.5662 Y2.6183  
G01 X-0.5635 Y2.6100  
G01 X-0.5621 Y2.6013  
G01 X-0.5621 Y2.4924  
G01 X-0.5635 Y2.4837  
G01 X-0.5662 Y2.4754  
G01 X-0.5702 Y2.4675  
G01 X-0.5754 Y2.4604  
G01 X-0.5816 Y2.4541  
G01 X-0.5888 Y2.4490  
G01 X-0.5966 Y2.4450  
G01 X-0.6050 Y2.4422  
G01 X-0.6137 Y2.4409  
G01 X-0.6225 Y2.4409  
G01 X-0.6312 Y2.4422  
G01 X-0.6396 Y2.4450  
G01 X-0.6475 Y2.4490  
G01 X-0.6546 Y2.4541  
G01 X-0.6608 Y2.4604  
G01 X-0.6660 Y2.4675  
G01 X-0.6700 Y2.4754  
G01 X-0.6727 Y2.4837  
G01 X-0.6741 Y2.4924  
G01 X-0.6741 Y2.5717  
G01 X-0.7304 Y2.6280  
G01 X-0.7596 Y2.6280  
G01 X-0.7609 Y2.6261  
G01 X-0.7661 Y2.6209  
G01 X-0.7722 Y2.6168  
G01 X-0.7791 Y2.6139  
G01 X-0.7863 Y2.6125  
G01 X-0.7937 Y2.6125  
G01 X-0.8009 Y2.6139  
G01 X-0.8078 Y2.6168  
G01 X-0.8139 Y2.6209  
G01 X-0.8191 Y2.6261  
G00 Z0.0500  
G00 X-0.8055 Y2.7125  
G01 Z-0.0040 F10    
G01 X-0.8275 Y2.7345  F20    
G01 X-0.8275 Y2.7655  
G01 X-0.8055 Y2.7875  
G01 X-0.7956 Y2.7875  
G01 X-0.7660 Y2.8171  
G01 X-0.7660 Y2.8207  
G01 X-0.7820 Y2.8367  
G01 X-0.7820 Y2.8633  
G01 X-0.7633 Y2.8820  
G01 X-0.7367 Y2.8820  
G01 X-0.7180 Y2.8633  
G01 X-0.7180 Y2.8367  
G01 X-0.7220 Y2.8327  
G01 X-0.7220 Y2.8303  
G01 X-0.7219 Y2.8278  
G01 X-0.7220 Y2.8274  
G01 X-0.7220 Y2.8051  
G01 X-0.7235 Y2.7995  
G01 X-0.7264 Y2.7945  
G01 X-0.7539 Y2.7670  
G01 X-0.7525 Y2.7655  
G01 X-0.7525 Y2.7345  
G01 X-0.7745 Y2.7125  
G01 X-0.8055 Y2.7125  
G00 Z0.0500  
G00 X-0.6242 Y2.3786  
G01 Z-0.0040 F10    
G01 X-0.6180 Y2.3848  F20    
G01 X-0.6108 Y2.3900  
G01 X-0.6030 Y2.3940  
G01 X-0.5946 Y2.3967  
G01 X-0.5859 Y2.3981  
G01 X-0.4771 Y2.3981  
G01 X-0.4684 Y2.3967  
G01 X-0.4600 Y2.3940  
G01 X-0.4521 Y2.3900  
G01 X-0.4450 Y2.3848  
G01 X-0.4388 Y2.3786  
G01 X-0.4336 Y2.3715  
G01 X-0.4296 Y2.3636  
G01 X-0.4269 Y2.3552  
G01 X-0.4255 Y2.3465  
G01 X-0.4255 Y2.3377  
G01 X-0.4269 Y2.3290  
G01 X-0.4296 Y2.3206  
G01 X-0.4336 Y2.3128  
G01 X-0.4388 Y2.3056  
G01 X-0.4450 Y2.2994  
G01 X-0.4521 Y2.2942  
G01 X-0.4600 Y2.2902  
G01 X-0.4684 Y2.2875  
G01 X-0.4771 Y2.2861  
G01 X-0.5859 Y2.2861  
G01 X-0.5946 Y2.2875  
G01 X-0.6030 Y2.2902  
G01 X-0.6108 Y2.2942  
G01 X-0.6180 Y2.2994  
G01 X-0.6242 Y2.3056  
G01 X-0.6294 Y2.3128  
G01 X-0.6334 Y2.3206  
G01 X-0.6361 Y2.3290  
G01 X-0.6375 Y2.3377  
G01 X-0.6375 Y2.3465  
G01 X-0.6361 Y2.3552  
G01 X-0.6334 Y2.3636  
G01 X-0.6294 Y2.3715  
G01 X-0.6242 Y2.3786  
G00 Z0.0500  
G00 X-0.6225 Y2.1029  
G01 Z-0.0040 F10    
G01 X-0.6137 Y2.1029  F20    
G01 X-0.6050 Y2.1015  
G01 X-0.5966 Y2.0987  
G01 X-0.5888 Y2.0947  
G01 X-0.5816 Y2.0896  
G01 X-0.5754 Y2.0833  
G01 X-0.5702 Y2.0762  
G01 X-0.5662 Y2.0683  
G01 X-0.5635 Y2.0600  
G01 X-0.5621 Y2.0513  
G01 X-0.5621 Y1.9424  
G01 X-0.5635 Y1.9337  
G01 X-0.5662 Y1.9254  
G01 X-0.5702 Y1.9175  
G01 X-0.5754 Y1.9104  
G01 X-0.5816 Y1.9041  
G01 X-0.5888 Y1.8990  
G01 X-0.5966 Y1.8950  
G01 X-0.6050 Y1.8922  
G01 X-0.6137 Y1.8909  
G01 X-0.6225 Y1.8909  
G01 X-0.6312 Y1.8922  
G01 X-0.6396 Y1.8950  
G01 X-0.6475 Y1.8990  
G01 X-0.6546 Y1.9041  
G01 X-0.6608 Y1.9104  
G01 X-0.6660 Y1.9175  
G01 X-0.6661 Y1.9177  
G01 X-0.6780 Y1.9058  
G01 X-0.6780 Y1.8233  
G01 X-0.6680 Y1.8133  
G01 X-0.6680 Y1.7867  
G01 X-0.6867 Y1.7680  
G01 X-0.7133 Y1.7680  
G01 X-0.7320 Y1.7867  
G01 X-0.7320 Y1.8133  
G01 X-0.7220 Y1.8233  
G01 X-0.7220 Y1.9179  
G01 X-0.7205 Y1.9235  
G01 X-0.7176 Y1.9285  
G01 X-0.6741 Y1.9720  
G01 X-0.6741 Y2.0513  
G01 X-0.6727 Y2.0600  
G01 X-0.6700 Y2.0683  
G01 X-0.6660 Y2.0762  
G01 X-0.6608 Y2.0833  
G01 X-0.6546 Y2.0896  
G01 X-0.6475 Y2.0947  
G01 X-0.6396 Y2.0987  
G01 X-0.6312 Y2.1015  
G01 X-0.6225 Y2.1029  
G00 Z0.0500  
G00 X-0.6180 Y1.8348  
G01 Z-0.0040 F10    
G01 X-0.6108 Y1.8400  F20    
G01 X-0.6030 Y1.8440  
G01 X-0.5946 Y1.8467  
G01 X-0.5859 Y1.8481  
G01 X-0.4771 Y1.8481  
G01 X-0.4684 Y1.8467  
G01 X-0.4600 Y1.8440  
G01 X-0.4521 Y1.8400  
G01 X-0.4450 Y1.8348  
G01 X-0.4388 Y1.8286  
G01 X-0.4336 Y1.8215  
G01 X-0.4296 Y1.8136  
G01 X-0.4269 Y1.8052  
G01 X-0.4255 Y1.7965  
G01 X-0.4255 Y1.7877  
G01 X-0.4269 Y1.7790  
G01 X-0.4296 Y1.7706  
G01 X-0.4336 Y1.7628  
G01 X-0.4388 Y1.7556  
G01 X-0.4450 Y1.7494  
G01 X-0.4521 Y1.7442  
G01 X-0.4600 Y1.7402  
G01 X-0.4684 Y1.7375  
G01 X-0.4771 Y1.7361  
G01 X-0.5859 Y1.7361  
G01 X-0.5946 Y1.7375  
G01 X-0.6030 Y1.7402  
G01 X-0.6108 Y1.7442  
G01 X-0.6180 Y1.7494  
G01 X-0.6242 Y1.7556  
G01 X-0.6294 Y1.7628  
G01 X-0.6334 Y1.7706  
G01 X-0.6361 Y1.7790  
G01 X-0.6375 Y1.7877  
G01 X-0.6375 Y1.7965  
G01 X-0.6361 Y1.8052  
G01 X-0.6334 Y1.8136  
G01 X-0.6294 Y1.8215  
G01 X-0.6242 Y1.8286  
G01 X-0.6180 Y1.8348  
G00 Z0.0500  
G00 X-0.7680 Y1.8867  
G01 Z-0.0040 F10    
G01 X-0.7867 Y1.8680  F20    
G01 X-0.8133 Y1.8680  
G01 X-0.8320 Y1.8867  
G01 X-0.8320 Y1.8980  
G01 X-1.0109 Y1.8980  
G01 X-1.0165 Y1.8995  
G01 X-1.0215 Y1.9024  
G01 X-1.0871 Y1.9680  
G01 X-1.1292 Y1.9680  
G01 X-1.1353 Y1.9692  
G01 X-1.1412 Y1.9716  
G01 X-1.1464 Y1.9751  
G01 X-1.1509 Y1.9796  
G01 X-1.1544 Y1.9848  
G01 X-1.1568 Y1.9907  
G01 X-1.1580 Y1.9968  
G01 X-1.1580 Y2.0032  
G01 X-1.1568 Y2.0093  
G01 X-1.1544 Y2.0152  
G01 X-1.1509 Y2.0204  
G01 X-1.1464 Y2.0249  
G01 X-1.1412 Y2.0284  
G01 X-1.1353 Y2.0308  
G01 X-1.1292 Y2.0320  
G01 X-1.0708 Y2.0320  
G01 X-1.0647 Y2.0308  
G01 X-1.0588 Y2.0284  
G01 X-1.0536 Y2.0249  
G01 X-1.0491 Y2.0204  
G01 X-1.0456 Y2.0152  
G01 X-1.0432 Y2.0093  
G01 X-1.0420 Y2.0032  
G01 X-1.0420 Y1.9968  
G01 X-1.0432 Y1.9907  
G01 X-1.0445 Y1.9876  
G01 X-0.9989 Y1.9420  
G01 X-0.8177 Y1.9420  
G01 X-0.8164 Y1.9422  
G01 X-0.8148 Y1.9420  
G01 X-0.8131 Y1.9420  
G01 X-0.8119 Y1.9417  
G01 X-0.8107 Y1.9415  
G01 X-0.8091 Y1.9409  
G01 X-0.8075 Y1.9405  
G01 X-0.8064 Y1.9399  
G01 X-0.8053 Y1.9394  
G01 X-0.8039 Y1.9384  
G01 X-0.8025 Y1.9376  
G01 X-0.8016 Y1.9367  
G01 X-0.8006 Y1.9360  
G01 X-0.7996 Y1.9347  
G01 X-0.7984 Y1.9335  
G01 X-0.7978 Y1.9324  
G01 X-0.7974 Y1.9320  
G01 X-0.7867 Y1.9320  
G01 X-0.7680 Y1.9133  
G01 X-0.7680 Y1.8867  
G00 Z0.0500  
G00 X-0.7633 Y1.5720  
G01 Z-0.0040 F10    
G01 X-0.7367 Y1.5720  F20    
G01 X-0.7180 Y1.5533  
G01 X-0.7180 Y1.5469  
G01 X-0.7158 Y1.5468  
G01 X-0.7152 Y1.5466  
G01 X-0.7146 Y1.5465  
G01 X-0.7124 Y1.5457  
G01 X-0.6729 Y1.5325  
G01 X-0.6266 Y1.5386  
G01 X-0.6133 Y1.5520  
G01 X-0.5867 Y1.5520  
G01 X-0.5680 Y1.5333  
G01 X-0.5680 Y1.5067  
G01 X-0.5867 Y1.4880  
G01 X-0.6133 Y1.4880  
G01 X-0.6203 Y1.4951  
G01 X-0.6506 Y1.4911  
G01 X-0.6503 Y1.4892  
G01 X-0.6500 Y1.4879  
G01 X-0.6500 Y1.4863  
G01 X-0.6498 Y1.4847  
G01 X-0.6500 Y1.4834  
G01 X-0.6500 Y1.2943  
G01 X-0.6499 Y1.2937  
G01 X-0.6500 Y1.2914  
G01 X-0.6500 Y1.2891  
G01 X-0.6502 Y1.2885  
G01 X-0.6502 Y1.2879  
G01 X-0.6509 Y1.2857  
G01 X-0.6515 Y1.2835  
G01 X-0.6518 Y1.2830  
G01 X-0.6520 Y1.2824  
G01 X-0.6532 Y1.2805  
G01 X-0.6544 Y1.2785  
G01 X-0.6548 Y1.2781  
G01 X-0.6955 Y1.2158  
G01 X-0.6930 Y1.2133  
G01 X-0.6930 Y1.1867  
G01 X-0.7117 Y1.1680  
G01 X-0.7383 Y1.1680  
G01 X-0.7570 Y1.1867  
G01 X-0.7570 Y1.2133  
G01 X-0.7383 Y1.2320  
G01 X-0.7375 Y1.2320  
G01 X-0.7366 Y1.2335  
G01 X-0.7362 Y1.2339  
G01 X-0.6940 Y1.2985  
G01 X-0.6940 Y1.4837  
G01 X-0.6952 Y1.4935  
G01 X-0.7248 Y1.5034  
G01 X-0.7489 Y1.5063  
G01 X-0.7773 Y1.4415  
G01 X-0.7777 Y1.4401  
G01 X-0.7784 Y1.4389  
G01 X-0.7790 Y1.4375  
G01 X-0.7799 Y1.4364  
G01 X-0.7807 Y1.4351  
G01 X-0.7817 Y1.4341  
G01 X-0.7826 Y1.4330  
G01 X-0.7838 Y1.4321  
G01 X-0.7849 Y1.4311  
G01 X-0.7861 Y1.4304  
G01 X-0.7873 Y1.4296  
G01 X-0.7887 Y1.4290  
G01 X-0.8462 Y1.3974  
G01 X-0.8475 Y1.3965  
G01 X-0.8487 Y1.3960  
G01 X-0.8499 Y1.3953  
G01 X-0.8514 Y1.3950  
G01 X-0.8705 Y1.3877  
G01 X-0.8716 Y1.3848  
G01 X-0.8751 Y1.3796  
G01 X-0.8796 Y1.3751  
G01 X-0.8848 Y1.3716  
G01 X-0.8907 Y1.3692  
G01 X-0.8968 Y1.3680  
G01 X-0.9032 Y1.3680  
G01 X-0.9093 Y1.3692  
G01 X-0.9152 Y1.3716  
G01 X-0.9204 Y1.3751  
G01 X-0.9249 Y1.3796  
G01 X-0.9284 Y1.3848  
G01 X-0.9308 Y1.3907  
G01 X-0.9320 Y1.3968  
G01 X-0.9320 Y1.4032  
G01 X-0.9308 Y1.4093  
G01 X-0.9284 Y1.4152  
G01 X-0.9249 Y1.4204  
G01 X-0.9204 Y1.4249  
G01 X-0.9152 Y1.4284  
G01 X-0.9093 Y1.4308  
G01 X-0.9032 Y1.4320  
G01 X-0.8968 Y1.4320  
G01 X-0.8907 Y1.4308  
G01 X-0.8860 Y1.4289  
G01 X-0.8673 Y1.4360  
G01 X-0.8152 Y1.4647  
G01 X-0.7835 Y1.5371  
G01 X-0.7827 Y1.5392  
G01 X-0.7823 Y1.5398  
G01 X-0.7820 Y1.5405  
G01 X-0.7820 Y1.5533  
G01 X-0.7633 Y1.5720  
G00 Z0.0500  
G00 X-0.4570 Y1.3033  
G01 Z-0.0040 F10    
G01 X-0.4383 Y1.3220  F20    
G01 X-0.4117 Y1.3220  
G01 X-0.4041 Y1.3144  
G01 X-0.2734 Y1.3287  
G01 X-0.2726 Y1.3289  
G01 X-0.2705 Y1.3290  
G01 X-0.2685 Y1.3292  
G01 X-0.2676 Y1.3291  
G01 X-0.1877 Y1.3315  
G01 X-0.1874 Y1.3319  
G01 X-0.1819 Y1.3374  
G01 X-0.1757 Y1.3419  
G01 X-0.1688 Y1.3454  
G01 X-0.1615 Y1.3478  
G01 X-0.1539 Y1.3490  
G01 X-0.1461 Y1.3490  
G01 X-0.1385 Y1.3478  
G01 X-0.1312 Y1.3454  
G01 X-0.1243 Y1.3419  
G01 X-0.1181 Y1.3374  
G01 X-0.1126 Y1.3319  
G01 X-0.1081 Y1.3257  
G01 X-0.1046 Y1.3188  
G01 X-0.1022 Y1.3115  
G01 X-0.1010 Y1.3039  
G01 X-0.1010 Y1.2961  
G01 X-0.1022 Y1.2885  
G01 X-0.1046 Y1.2812  
G01 X-0.1081 Y1.2743  
G01 X-0.1126 Y1.2681  
G01 X-0.1181 Y1.2626  
G01 X-0.1243 Y1.2581  
G01 X-0.1312 Y1.2546  
G01 X-0.1385 Y1.2522  
G01 X-0.1461 Y1.2510  
G01 X-0.1539 Y1.2510  
G01 X-0.1615 Y1.2522  
G01 X-0.1688 Y1.2546  
G01 X-0.1757 Y1.2581  
G01 X-0.1819 Y1.2626  
G01 X-0.1874 Y1.2681  
G01 X-0.1919 Y1.2743  
G01 X-0.1954 Y1.2812  
G01 X-0.1974 Y1.2872  
G01 X-0.2675 Y1.2850  
G01 X-0.3990 Y1.2707  
G01 X-0.4117 Y1.2580  
G01 X-0.4383 Y1.2580  
G01 X-0.4570 Y1.2767  
G01 X-0.4570 Y1.3033  
G00 Z0.0500  
G00 X-0.1874 Y1.1351  
G01 Z-0.0040 F10    
G01 X-0.1819 Y1.1405  F20    
G01 X-0.1757 Y1.1451  
G01 X-0.1688 Y1.1486  
G01 X-0.1615 Y1.1509  
G01 X-0.1539 Y1.1521  
G01 X-0.1461 Y1.1521  
G01 X-0.1385 Y1.1509  
G01 X-0.1312 Y1.1486  
G01 X-0.1243 Y1.1451  
G01 X-0.1181 Y1.1405  
G01 X-0.1126 Y1.1351  
G01 X-0.1081 Y1.1288  
G01 X-0.1046 Y1.1220  
G01 X-0.1022 Y1.1146  
G01 X-0.1010 Y1.1070  
G01 X-0.1010 Y1.0993  
G01 X-0.1022 Y1.0917  
G01 X-0.1046 Y1.0843  
G01 X-0.1081 Y1.0775  
G01 X-0.1126 Y1.0712  
G01 X-0.1181 Y1.0658  
G01 X-0.1243 Y1.0612  
G01 X-0.1260 Y1.0604  
G01 X-0.1260 Y0.9213  
G01 X-0.1180 Y0.9133  
G01 X-0.1180 Y0.8867  
G01 X-0.1367 Y0.8680  
G01 X-0.1633 Y0.8680  
G01 X-0.1820 Y0.8867  
G01 X-0.1820 Y0.9133  
G01 X-0.1700 Y0.9253  
G01 X-0.1700 Y1.0583  
G01 X-0.1757 Y1.0612  
G01 X-0.1819 Y1.0658  
G01 X-0.1874 Y1.0712  
G01 X-0.1919 Y1.0775  
G01 X-0.1954 Y1.0843  
G01 X-0.1978 Y1.0917  
G01 X-0.1990 Y1.0993  
G01 X-0.1990 Y1.1070  
G01 X-0.1978 Y1.1146  
G01 X-0.1954 Y1.1220  
G01 X-0.1919 Y1.1288  
G01 X-0.1874 Y1.1351  
G00 Z0.0500  
G00 X-1.0491 Y2.0796  
G01 Z-0.0040 F10    
G01 X-1.0536 Y2.0751  F20    
G01 X-1.0588 Y2.0716  
G01 X-1.0647 Y2.0692  
G01 X-1.0708 Y2.0680  
G01 X-1.1292 Y2.0680  
G01 X-1.1353 Y2.0692  
G01 X-1.1412 Y2.0716  
G01 X-1.1464 Y2.0751  
G01 X-1.1509 Y2.0796  
G01 X-1.1544 Y2.0848  
G01 X-1.1568 Y2.0907  
G01 X-1.1580 Y2.0968  
G01 X-1.1580 Y2.1032  
G01 X-1.1568 Y2.1093  
G01 X-1.1544 Y2.1152  
G01 X-1.1509 Y2.1204  
G01 X-1.1464 Y2.1249  
G01 X-1.1412 Y2.1284  
G01 X-1.1353 Y2.1308  
G01 X-1.1292 Y2.1320  
G01 X-1.0708 Y2.1320  
G01 X-1.0647 Y2.1308  
G01 X-1.0588 Y2.1284  
G01 X-1.0536 Y2.1249  
G01 X-1.0491 Y2.1204  
G01 X-1.0456 Y2.1152  
G01 X-1.0432 Y2.1093  
G01 X-1.0420 Y2.1032  
G01 X-1.0420 Y2.0968  
G01 X-1.0432 Y2.0907  
G01 X-1.0456 Y2.0848  
G01 X-1.0491 Y2.0796  
G00 Z0.0500  
G00 X-0.0004 Y0.4628  
G01 Z-0.0040 F10    
G01 X-0.5394 Y0.1429  F20    
G01 X-0.5408 Y0.1420  
G01 X-0.5414 Y0.1418  
G01 X-0.5419 Y0.1414  
G01 X-0.5435 Y0.1409  
G01 X-0.5451 Y0.1402  
G01 X-0.5457 Y0.1401  
G01 X-0.5463 Y0.1399  
G01 X-0.5480 Y0.1396  
G01 X-0.5497 Y0.1393  
G01 X-0.5503 Y0.1393  
G01 X-0.5509 Y0.1392  
G01 X-0.5526 Y0.1393  
G01 X-1.8503 Y0.1393  
G01 X-1.8549 Y0.1402  
G01 X-1.8592 Y0.1420  
G01 X-1.8631 Y0.1446  
G01 X-1.9401 Y0.2216  
G01 X-1.9434 Y0.2249  
G01 X-1.9460 Y0.2288  
G01 X-1.9478 Y0.2331  
G01 X-1.9487 Y0.2377  
G01 X-1.9487 Y1.5835  
G01 X-1.9488 Y1.5853  
G01 X-1.9487 Y1.5858  
G01 X-1.9487 Y1.5863  
G01 X-1.9483 Y1.5881  
G01 X-1.9481 Y1.5900  
G01 X-1.9479 Y1.5904  
G01 X-1.9478 Y1.5909  
G01 X-1.9471 Y1.5926  
G01 X-1.9465 Y1.5943  
G01 X-1.9462 Y1.5948  
G01 X-1.9460 Y1.5952  
G01 X-1.9450 Y1.5968  
G01 X-1.8117 Y1.8156  
G01 X-1.8939 Y1.8492  
G01 X-1.8960 Y1.8501  
G01 X-1.8981 Y1.8509  
G01 X-1.9001 Y1.8523  
G01 X-1.9020 Y1.8535  
G01 X-1.9037 Y1.8552  
G01 X-1.9053 Y1.8568  
G01 X-1.9067 Y1.8588  
G01 X-1.9080 Y1.8607  
G01 X-1.9089 Y1.8629  
G01 X-1.9098 Y1.8650  
G01 X-1.9102 Y1.8673  
G01 X-1.9107 Y1.8696  
G01 X-1.9107 Y1.8697  
G01 X-1.9107 Y1.8719  
G01 X-1.9107 Y1.8742  
G01 X-1.9107 Y2.5673  
G01 X-1.9108 Y2.5690  
G01 X-1.9107 Y2.5697  
G01 X-1.9107 Y2.5703  
G01 X-1.9104 Y2.5720  
G01 X-1.9101 Y2.5737  
G01 X-1.9099 Y2.5743  
G01 X-1.9098 Y2.5749  
G01 X-1.9091 Y2.5765  
G01 X-1.9086 Y2.5781  
G01 X-1.9083 Y2.5786  
G01 X-1.9080 Y2.5792  
G01 X-1.9071 Y2.5806  
G01 X-1.9062 Y2.5821  
G01 X-1.9058 Y2.5826  
G01 X-1.9054 Y2.5831  
G01 X-1.9042 Y2.5843  
G01 X-1.8198 Y2.6786  
G01 X-1.8194 Y2.6791  
G01 X-1.8182 Y2.6803  
G01 X-1.8171 Y2.6816  
G01 X-1.8166 Y2.6819  
G01 X-1.8161 Y2.6824  
G01 X-1.8147 Y2.6833  
G01 X-1.8134 Y2.6844  
G01 X-1.8128 Y2.6846  
G01 X-1.8122 Y2.6850  
G01 X-1.8107 Y2.6856  
G01 X-1.8092 Y2.6864  
G01 X-1.8085 Y2.6865  
G01 X-1.8079 Y2.6868  
G01 X-1.8063 Y2.6871  
G01 X-1.8046 Y2.6875  
G01 X-1.8040 Y2.6876  
G01 X-1.8033 Y2.6877  
G01 X-1.8017 Y2.6877  
G01 X-1.8000 Y2.6878  
G01 X-1.7993 Y2.6877  
G01 X-1.6885 Y2.6877  
G01 X-1.6868 Y2.6878  
G01 X-1.6862 Y2.6877  
G01 X-1.6857 Y2.6877  
G01 X-1.6839 Y2.6874  
G01 X-1.6821 Y2.6871  
G01 X-1.6816 Y2.6869  
G01 X-1.6811 Y2.6868  
G01 X-1.6794 Y2.6861  
G01 X-1.6778 Y2.6855  
G01 X-1.6773 Y2.6852  
G01 X-1.6768 Y2.6850  
G01 X-1.6753 Y2.6840  
G01 X-1.6738 Y2.6831  
G01 X-1.6733 Y2.6827  
G01 X-1.6729 Y2.6824  
G01 X-1.6716 Y2.6811  
G01 X-1.6703 Y2.6799  
G01 X-1.6700 Y2.6795  
G01 X-1.6696 Y2.6791  
G01 X-1.6686 Y2.6776  
G01 X-1.5852 Y2.5644  
G01 X-1.5840 Y2.5629  
G01 X-1.5838 Y2.5625  
G01 X-1.5835 Y2.5622  
G01 X-1.5827 Y2.5604  
G01 X-1.5818 Y2.5587  
G01 X-1.5817 Y2.5583  
G01 X-1.5816 Y2.5580  
G01 X-1.5811 Y2.5561  
G01 X-1.5806 Y2.5542  
G01 X-1.5805 Y2.5538  
G01 X-1.5804 Y2.5534  
G01 X-1.5803 Y2.5515  
G01 X-1.5783 Y2.5260  
G01 X-1.5720 Y2.5197  
G01 X-1.4534 Y2.5197  
G01 X-1.4522 Y2.5215  
G01 X-1.4475 Y2.5262  
G01 X-1.4420 Y2.5299  
G01 X-1.4358 Y2.5324  
G01 X-1.4293 Y2.5337  
G01 X-1.3707 Y2.5337  
G01 X-1.3642 Y2.5324  
G01 X-1.3580 Y2.5299  
G01 X-1.3525 Y2.5262  
G01 X-1.3478 Y2.5215  
G01 X-1.3441 Y2.5160  
G01 X-1.3416 Y2.5098  
G01 X-1.3403 Y2.5033  
G01 X-1.3403 Y2.4967  
G01 X-1.3416 Y2.4902  
G01 X-1.3441 Y2.4840  
G01 X-1.3478 Y2.4785  
G01 X-1.3525 Y2.4738  
G01 X-1.3580 Y2.4701  
G01 X-1.3642 Y2.4676  
G01 X-1.3707 Y2.4663  
G01 X-1.4293 Y2.4663  
G01 X-1.4358 Y2.4676  
G01 X-1.4420 Y2.4701  
G01 X-1.4452 Y2.4723  
G01 X-1.5800 Y2.4723  
G01 X-1.5860 Y2.4663  
G01 X-1.6140 Y2.4663  
G01 X-1.6337 Y2.4860  
G01 X-1.6337 Y2.5140  
G01 X-1.6255 Y2.5221  
G01 X-1.6271 Y2.5414  
G01 X-1.7000 Y2.6403  
G01 X-1.7904 Y2.6403  
G01 X-1.8633 Y2.5589  
G01 X-1.8633 Y1.8879  
G01 X-1.7701 Y1.8498  
G01 X-1.7684 Y1.8491  
G01 X-1.7667 Y1.8485  
G01 X-1.7663 Y1.8482  
G01 X-1.7659 Y1.8481  
G01 X-1.7642 Y1.8470  
G01 X-1.7627 Y1.8460  
G01 X-1.7623 Y1.8457  
G01 X-1.7620 Y1.8455  
G01 X-1.7606 Y1.8441  
G01 X-1.7592 Y1.8429  
G01 X-1.7590 Y1.8425  
G01 X-1.7587 Y1.8422  
G01 X-1.6616 Y1.7451  
G01 X-1.6590 Y1.7412  
G01 X-1.6572 Y1.7369  
G01 X-1.6563 Y1.7323  
G01 X-1.6563 Y1.5645  
G01 X-1.6562 Y1.5626  
G01 X-1.6563 Y1.5621  
G01 X-1.6563 Y1.5617  
G01 X-1.6567 Y1.5598  
G01 X-1.6570 Y1.5580  
G01 X-1.6571 Y1.5575  
G01 X-1.6572 Y1.5571  
G01 X-1.6579 Y1.5553  
G01 X-1.6586 Y1.5536  
G01 X-1.6588 Y1.5532  
G01 X-1.6590 Y1.5528  
G01 X-1.6600 Y1.5512  
G01 X-1.7051 Y1.4779  
G01 X-1.7025 Y1.4762  
G01 X-1.6978 Y1.4715  
G01 X-1.6941 Y1.4660  
G01 X-1.6916 Y1.4598  
G01 X-1.6903 Y1.4533  
G01 X-1.6903 Y1.4467  
G01 X-1.6916 Y1.4402  
G01 X-1.6941 Y1.4340  
G01 X-1.6978 Y1.4285  
G01 X-1.7025 Y1.4238  
G01 X-1.7080 Y1.4201  
G01 X-1.7142 Y1.4176  
G01 X-1.7207 Y1.4163  
G01 X-1.7793 Y1.4163  
G01 X-1.7858 Y1.4176  
G01 X-1.7920 Y1.4201  
G01 X-1.7975 Y1.4238  
G01 X-1.8022 Y1.4285  
G01 X-1.8059 Y1.4340  
G01 X-1.8084 Y1.4402  
G01 X-1.8097 Y1.4467  
G01 X-1.8097 Y1.4533  
G01 X-1.8084 Y1.4598  
G01 X-1.8059 Y1.4660  
G01 X-1.8022 Y1.4715  
G01 X-1.7975 Y1.4762  
G01 X-1.7920 Y1.4799  
G01 X-1.7858 Y1.4824  
G01 X-1.7793 Y1.4837  
G01 X-1.7571 Y1.4837  
G01 X-1.7037 Y1.5707  
G01 X-1.7037 Y1.7202  
G01 X-1.7724 Y1.7889  
G01 X-1.9013 Y1.5774  
G01 X-1.9013 Y0.2498  
G01 X-1.8382 Y0.1867  
G01 X-0.5585 Y0.1867  
G01 X-0.0347 Y0.4975  
G01 X-0.0347 Y0.7725  
G01 X-0.2212 Y0.8087  
G01 X-0.2232 Y0.8090  
G01 X-0.2235 Y0.8091  
G01 X-0.2238 Y0.8092  
G01 X-0.2257 Y0.8099  
G01 X-0.2275 Y0.8106  
G01 X-0.2278 Y0.8108  
G01 X-0.2281 Y0.8109  
G01 X-0.2298 Y0.8120  
G01 X-0.2315 Y0.8131  
G01 X-0.2317 Y0.8133  
G01 X-0.2320 Y0.8135  
G01 X-0.2334 Y0.8149  
G01 X-0.4578 Y1.0249  
G01 X-0.5783 Y1.0069  
G01 X-0.5784 Y1.0068  
G01 X-0.5806 Y1.0065  
G01 X-0.5828 Y1.0062  
G01 X-0.5829 Y1.0062  
G01 X-0.7946 Y0.9768  
G01 X-0.7949 Y0.9767  
G01 X-0.7970 Y0.9765  
G01 X-0.7991 Y0.9762  
G01 X-0.7993 Y0.9762  
G01 X-0.7995 Y0.9762  
G01 X-0.8016 Y0.9764  
G01 X-0.8037 Y0.9765  
G01 X-0.8039 Y0.9765  
G01 X-0.8041 Y0.9765  
G01 X-0.8062 Y0.9771  
G01 X-0.8082 Y0.9777  
G01 X-0.8084 Y0.9777  
G01 X-0.8086 Y0.9778  
G01 X-0.8105 Y0.9788  
G01 X-0.8124 Y0.9797  
G01 X-0.8126 Y0.9798  
G01 X-0.8128 Y0.9799  
G01 X-0.8145 Y0.9812  
G01 X-0.8162 Y0.9825  
G01 X-0.8163 Y0.9827  
G01 X-0.8165 Y0.9828  
G01 X-0.8179 Y0.9844  
G01 X-0.8193 Y0.9860  
G01 X-0.8194 Y0.9862  
G01 X-0.8777 Y1.0542  
G01 X-0.8883 Y1.0656  
G01 X-0.8883 Y1.0297  
G01 X-0.8892 Y1.0251  
G01 X-0.8910 Y1.0208  
G01 X-0.8936 Y1.0169  
G01 X-0.9163 Y0.9942  
G01 X-0.9163 Y0.9860  
G01 X-0.9360 Y0.9663  
G01 X-0.9363 Y0.9663  
G01 X-0.9363 Y0.7892  
G01 X-0.9338 Y0.7892  
G01 X-0.9177 Y0.7731  
G01 X-0.8713 Y0.7587  
G01 X-0.8694 Y0.7582  
G01 X-0.8691 Y0.7580  
G01 X-0.8687 Y0.7579  
G01 X-0.8670 Y0.7570  
G01 X-0.8652 Y0.7561  
G01 X-0.8650 Y0.7559  
G01 X-0.8646 Y0.7557  
G01 X-0.8631 Y0.7544  
G01 X-0.8616 Y0.7532  
G01 X-0.8613 Y0.7530  
G01 X-0.8611 Y0.7527  
G01 X-0.8598 Y0.7512  
G01 X-0.8585 Y0.7497  
G01 X-0.8583 Y0.7494  
G01 X-0.8581 Y0.7491  
G01 X-0.8572 Y0.7473  
G01 X-0.8562 Y0.7456  
G01 X-0.8561 Y0.7453  
G01 X-0.8559 Y0.7450  
G01 X-0.8554 Y0.7431  
G01 X-0.8548 Y0.7412  
G01 X-0.8547 Y0.7408  
G01 X-0.8546 Y0.7405  
G01 X-0.8544 Y0.7385  
G01 X-0.8449 Y0.6603  
G01 X-0.7939 Y0.5437  
G01 X-0.7893 Y0.5430  
G01 X-0.7825 Y0.5408  
G01 X-0.7760 Y0.5375  
G01 X-0.7702 Y0.5333  
G01 X-0.7651 Y0.5282  
G01 X-0.7609 Y0.5224  
G01 X-0.7576 Y0.5160  
G01 X-0.7554 Y0.5091  
G01 X-0.7543 Y0.5020  
G01 X-0.7543 Y0.4948  
G01 X-0.7554 Y0.4877  
G01 X-0.7576 Y0.4809  
G01 X-0.7609 Y0.4745  
G01 X-0.7651 Y0.4687  
G01 X-0.7702 Y0.4636  
G01 X-0.7760 Y0.4593  
G01 X-0.7825 Y0.4561  
G01 X-0.7893 Y0.4539  
G01 X-0.7964 Y0.4527  
G01 X-0.8036 Y0.4527  
G01 X-0.8107 Y0.4539  
G01 X-0.8175 Y0.4561  
G01 X-0.8240 Y0.4593  
G01 X-0.8298 Y0.4636  
G01 X-0.8349 Y0.4687  
G01 X-0.8391 Y0.4745  
G01 X-0.8424 Y0.4809  
G01 X-0.8446 Y0.4877  
G01 X-0.8457 Y0.4948  
G01 X-0.8457 Y0.5020  
G01 X-0.8446 Y0.5091  
G01 X-0.8424 Y0.5160  
G01 X-0.8391 Y0.5224  
G01 X-0.8374 Y0.5247  
G01 X-0.8892 Y0.6434  
G01 X-0.8898 Y0.6444  
G01 X-0.8902 Y0.6455  
G01 X-0.8907 Y0.6466  
G01 X-0.8909 Y0.6477  
G01 X-0.8912 Y0.6488  
G01 X-0.8914 Y0.6500  
G01 X-0.8917 Y0.6512  
G01 X-0.8917 Y0.6523  
G01 X-0.8997 Y0.7179  
G01 X-0.9203 Y0.7243  
G01 X-0.9338 Y0.7108  
G01 X-0.9662 Y0.7108  
G01 X-0.9892 Y0.7338  
G01 X-0.9892 Y0.7637  
G01 X-0.9938 Y0.7683  
G01 X-1.0799 Y0.7683  
G01 X-1.0820 Y0.7683  
G01 X-1.0822 Y0.7683  
G01 X-1.0823 Y0.7683  
G01 X-1.0838 Y0.7686  
G01 X-1.0860 Y0.7663  
G01 X-1.1140 Y0.7663  
G01 X-1.1337 Y0.7860  
G01 X-1.1337 Y0.8140  
G01 X-1.1140 Y0.8337  
G01 X-1.0860 Y0.8337  
G01 X-1.0680 Y0.8157  
G01 X-0.9837 Y0.8157  
G01 X-0.9837 Y0.9836  
G01 X-0.9838 Y0.9856  
G01 X-0.9837 Y0.9860  
G01 X-0.9837 Y0.9863  
G01 X-0.9837 Y1.0140  
G01 X-0.9640 Y1.0337  
G01 X-0.9438 Y1.0337  
G01 X-0.9357 Y1.0418  
G01 X-0.9357 Y1.0794  
G01 X-0.9358 Y1.0812  
G01 X-0.9357 Y1.0818  
G01 X-0.9357 Y1.0823  
G01 X-0.9354 Y1.0841  
G01 X-0.9351 Y1.0858  
G01 X-0.9349 Y1.0863  
G01 X-0.9348 Y1.0869  
G01 X-0.9341 Y1.0885  
G01 X-0.9335 Y1.0902  
G01 X-0.9332 Y1.0907  
G01 X-0.9330 Y1.0912  
G01 X-0.9327 Y1.0917  
G01 X-0.9337 Y1.0967  
G01 X-0.9337 Y1.1033  
G01 X-0.9324 Y1.1098  
G01 X-0.9299 Y1.1160  
G01 X-0.9262 Y1.1215  
G01 X-0.9215 Y1.1262  
G01 X-0.9160 Y1.1299  
G01 X-0.9098 Y1.1324  
G01 X-0.9033 Y1.1337  
G01 X-0.8967 Y1.1337  
G01 X-0.8902 Y1.1324  
G01 X-0.8840 Y1.1299  
G01 X-0.8785 Y1.1262  
G01 X-0.8738 Y1.1215  
G01 X-0.8701 Y1.1160  
G01 X-0.8699 Y1.1154  
G01 X-0.8696 Y1.1151  
G01 X-0.8694 Y1.1148  
G01 X-0.8439 Y1.0875  
G01 X-0.8435 Y1.0872  
G01 X-0.8423 Y1.0858  
G01 X-0.8411 Y1.0845  
G01 X-0.8408 Y1.0840  
G01 X-0.7904 Y1.0253  
G01 X-0.5874 Y1.0535  
G01 X-0.4545 Y1.0733  
G01 X-0.4531 Y1.0736  
G01 X-0.4521 Y1.0736  
G01 X-0.4512 Y1.0738  
G01 X-0.4498 Y1.0737  
G01 X-0.4485 Y1.0738  
G01 X-0.4475 Y1.0736  
G01 X-0.4465 Y1.0736  
G01 X-0.4452 Y1.0732  
G01 X-0.4438 Y1.0730  
G01 X-0.4429 Y1.0727  
G01 X-0.4420 Y1.0724  
G01 X-0.4408 Y1.0718  
G01 X-0.4395 Y1.0714  
G01 X-0.4387 Y1.0709  
G01 X-0.4378 Y1.0704  
G01 X-0.4367 Y1.0696  
G01 X-0.4355 Y1.0689  
G01 X-0.4348 Y1.0682  
G01 X-0.4340 Y1.0677  
G01 X-0.4331 Y1.0666  
G01 X-0.2058 Y0.8540  
G01 X-0.0087 Y0.8157  
G01 X-0.0064 Y0.8153  
G01 X-0.0042 Y0.8148  
G01 X-0.0041 Y0.8148  
G01 X-0.0020 Y0.8139  
G01 X0.0001  Y0.8131  
G01 X0.0021  Y0.8117  
G01 X0.0040  Y0.8105  
G01 X0.0057  Y0.8088  
G01 X0.0073  Y0.8072  
G01 X0.0087  Y0.8052  
G01 X0.0100  Y0.8033  
G01 X0.0109  Y0.8011  
G01 X0.0118  Y0.7990  
G01 X0.0118  Y0.7989  
G01 X0.0122  Y0.7967  
G01 X0.0127  Y0.7944  
G01 X0.0127  Y0.7943  
G01 X0.0127  Y0.7921  
G01 X0.0127  Y0.7898  
G01 X0.0127  Y0.4857  
G01 X0.0128  Y0.4851  
G01 X0.0127  Y0.4834  
G01 X0.0127  Y0.4817  
G01 X0.0126  Y0.4810  
G01 X0.0125  Y0.4804  
G01 X0.0121  Y0.4788  
G01 X0.0118  Y0.4771  
G01 X0.0115  Y0.4765  
G01 X0.0114  Y0.4759  
G01 X0.0107  Y0.4743  
G01 X0.0100  Y0.4728  
G01 X0.0096  Y0.4722  
G01 X0.0094  Y0.4717  
G01 X0.0084  Y0.4703  
G01 X0.0074  Y0.4689  
G01 X0.0070  Y0.4684  
G01 X0.0066  Y0.4679  
G01 X0.0053  Y0.4668  
G01 X0.0041  Y0.4656  
G01 X0.0036  Y0.4652  
G01 X0.0031  Y0.4648  
G01 X0.0016  Y0.4639  
G01 X0.0002  Y0.4630  
G01 X-0.0004 Y0.4628  
G00 Z0.0500  
G00 X-0.0544 Y0.5593  
G01 Z-0.0040 F10    
G01 X-0.0608 Y0.5528  F20    
G01 X-0.0682 Y0.5475  
G01 X-0.0763 Y0.5434  
G01 X-0.0849 Y0.5406  
G01 X-0.0939 Y0.5392  
G01 X-0.1030 Y0.5392  
G01 X-0.1119 Y0.5406  
G01 X-0.1206 Y0.5434  
G01 X-0.1287 Y0.5475  
G01 X-0.1360 Y0.5528  
G01 X-0.1424 Y0.5593  
G01 X-0.1478 Y0.5666  
G01 X-0.1519 Y0.5747  
G01 X-0.1547 Y0.5833  
G01 X-0.1561 Y0.5923  
G01 X-0.1561 Y0.6371  
G01 X-0.1571 Y0.6373  
G01 X-0.1584 Y0.6378  
G01 X-0.1597 Y0.6383  
G01 X-0.1605 Y0.6387  
G01 X-0.1614 Y0.6391  
G01 X-0.1626 Y0.6399  
G01 X-0.3015 Y0.7193  
G01 X-0.3033 Y0.7203  
G01 X-0.3035 Y0.7204  
G01 X-0.3038 Y0.7206  
G01 X-0.3053 Y0.7219  
G01 X-0.3069 Y0.7232  
G01 X-0.3071 Y0.7235  
G01 X-0.3073 Y0.7236  
G01 X-0.3086 Y0.7253  
G01 X-0.4376 Y0.8841  
G01 X-0.5029 Y0.9494  
G01 X-0.7401 Y0.9037  
G01 X-0.7763 Y0.8434  
G01 X-0.7763 Y0.7556  
G01 X-0.6795 Y0.5619  
G01 X-0.6790 Y0.5612  
G01 X-0.6784 Y0.5598  
G01 X-0.6778 Y0.5585  
G01 X-0.6775 Y0.5577  
G01 X-0.6772 Y0.5569  
G01 X-0.6769 Y0.5554  
G01 X-0.6765 Y0.5540  
G01 X-0.6765 Y0.5532  
G01 X-0.6763 Y0.5523  
G01 X-0.6763 Y0.5508  
G01 X-0.6762 Y0.5494  
G01 X-0.6763 Y0.5485  
G01 X-0.6763 Y0.4477  
G01 X-0.6772 Y0.4431  
G01 X-0.6790 Y0.4388  
G01 X-0.6816 Y0.4349  
G01 X-0.6849 Y0.4316  
G01 X-0.7349 Y0.3816  
G01 X-0.7388 Y0.3790  
G01 X-0.7431 Y0.3772  
G01 X-0.7477 Y0.3763  
G01 X-0.9023 Y0.3763  
G01 X-0.9069 Y0.3772  
G01 X-0.9112 Y0.3790  
G01 X-0.9151 Y0.3816  
G01 X-0.9184 Y0.3849  
G01 X-0.9684 Y0.4349  
G01 X-0.9710 Y0.4388  
G01 X-0.9728 Y0.4431  
G01 X-0.9737 Y0.4477  
G01 X-0.9737 Y0.6008  
G01 X-0.9929 Y0.5816  
G01 X-0.9968 Y0.5790  
G01 X-1.0011 Y0.5772  
G01 X-1.0057 Y0.5763  
G01 X-1.0760 Y0.5763  
G01 X-1.0860 Y0.5663  
G01 X-1.1140 Y0.5663  
G01 X-1.1240 Y0.5763  
G01 X-1.1763 Y0.5763  
G01 X-1.1763 Y0.4395  
G01 X-1.1553 Y0.4185  
G01 X-1.1553 Y0.3815  
G01 X-1.1763 Y0.3605  
G01 X-1.1763 Y0.3395  
G01 X-1.1553 Y0.3185  
G01 X-1.1553 Y0.2815  
G01 X-1.1815 Y0.2553  
G01 X-1.2185 Y0.2553  
G01 X-1.2447 Y0.2815  
G01 X-1.2447 Y0.2883  
G01 X-1.2553 Y0.2883  
G01 X-1.2553 Y0.2815  
G01 X-1.2815 Y0.2553  
G01 X-1.3185 Y0.2553  
G01 X-1.3447 Y0.2815  
G01 X-1.3447 Y0.2883  
G01 X-1.3553 Y0.2883  
G01 X-1.3553 Y0.2815  
G01 X-1.3815 Y0.2553  
G01 X-1.4185 Y0.2553  
G01 X-1.4447 Y0.2815  
G01 X-1.4447 Y0.3185  
G01 X-1.4185 Y0.3447  
G01 X-1.4077 Y0.3447  
G01 X-1.4077 Y0.3553  
G01 X-1.4185 Y0.3553  
G01 X-1.4447 Y0.3815  
G01 X-1.4447 Y0.4185  
G01 X-1.4185 Y0.4447  
G01 X-1.3815 Y0.4447  
G01 X-1.3685 Y0.4317  
G01 X-1.3315 Y0.4317  
G01 X-1.3185 Y0.4447  
G01 X-1.2815 Y0.4447  
G01 X-1.2553 Y0.4185  
G01 X-1.2553 Y0.4077  
G01 X-1.2447 Y0.4077  
G01 X-1.2447 Y0.4185  
G01 X-1.2237 Y0.4395  
G01 X-1.2237 Y0.5763  
G01 X-1.2760 Y0.5763  
G01 X-1.2860 Y0.5663  
G01 X-1.3140 Y0.5663  
G01 X-1.3240 Y0.5763  
G01 X-1.3943 Y0.5763  
G01 X-1.3989 Y0.5772  
G01 X-1.4032 Y0.5790  
G01 X-1.4071 Y0.5816  
G01 X-1.4363 Y0.6108  
G01 X-1.4662 Y0.6108  
G01 X-1.4892 Y0.6338  
G01 X-1.4892 Y0.6662  
G01 X-1.4662 Y0.6892  
G01 X-1.4338 Y0.6892  
G01 X-1.4108 Y0.6662  
G01 X-1.4108 Y0.6523  
G01 X-1.3822 Y0.6237  
G01 X-1.3240 Y0.6237  
G01 X-1.3140 Y0.6337  
G01 X-1.2860 Y0.6337  
G01 X-1.2760 Y0.6237  
G01 X-1.1997 Y0.6237  
G01 X-1.1997 Y0.9623  
G01 X-1.1988 Y0.9669  
G01 X-1.1970 Y0.9712  
G01 X-1.1944 Y0.9751  
G01 X-1.1836 Y0.9859  
G01 X-1.1837 Y0.9860  
G01 X-1.1837 Y1.0140  
G01 X-1.1756 Y1.0221  
G01 X-1.2151 Y1.0616  
G01 X-1.2184 Y1.0649  
G01 X-1.2210 Y1.0688  
G01 X-1.2228 Y1.0731  
G01 X-1.2233 Y1.0756  
G01 X-1.2262 Y1.0785  
G01 X-1.2274 Y1.0803  
G01 X-1.4903 Y1.0803  
G01 X-1.4949 Y1.0812  
G01 X-1.4992 Y1.0830  
G01 X-1.5031 Y1.0856  
G01 X-1.5064 Y1.0889  
G01 X-1.6534 Y1.2359  
G01 X-1.6560 Y1.2398  
G01 X-1.6578 Y1.2441  
G01 X-1.6587 Y1.2487  
G01 X-1.6587 Y1.4496  
G01 X-1.6588 Y1.4516  
G01 X-1.6587 Y1.4520  
G01 X-1.6587 Y1.4523  
G01 X-1.6583 Y1.4543  
G01 X-1.6580 Y1.4562  
G01 X-1.6579 Y1.4565  
G01 X-1.6578 Y1.4569  
G01 X-1.6570 Y1.4587  
G01 X-1.6563 Y1.4606  
G01 X-1.6561 Y1.4609  
G01 X-1.6560 Y1.4612  
G01 X-1.6549 Y1.4629  
G01 X-1.6539 Y1.4645  
G01 X-1.6536 Y1.4648  
G01 X-1.6534 Y1.4651  
G01 X-1.6520 Y1.4665  
G01 X-1.6507 Y1.4679  
G01 X-1.6504 Y1.4681  
G01 X-1.6501 Y1.4684  
G01 X-1.6485 Y1.4695  
G01 X-1.6237 Y1.4872  
G01 X-1.6237 Y1.6955  
G01 X-1.6504 Y1.7638  
G01 X-1.6512 Y1.7646  
G01 X-1.8384 Y1.9271  
G01 X-1.8391 Y1.9276  
G01 X-1.8402 Y1.9286  
G01 X-1.8413 Y1.9296  
G01 X-1.8418 Y1.9303  
G01 X-1.8424 Y1.9309  
G01 X-1.8432 Y1.9321  
G01 X-1.8442 Y1.9333  
G01 X-1.8445 Y1.9341  
G01 X-1.8450 Y1.9348  
G01 X-1.8456 Y1.9362  
G01 X-1.8462 Y1.9375  
G01 X-1.8465 Y1.9383  
G01 X-1.8468 Y1.9391  
G01 X-1.8471 Y1.9406  
G01 X-1.8475 Y1.9420  
G01 X-1.8475 Y1.9428  
G01 X-1.8477 Y1.9437  
G01 X-1.8477 Y1.9452  
G01 X-1.8478 Y1.9467  
G01 X-1.8477 Y1.9475  
G01 X-1.8477 Y2.2343  
G01 X-1.8468 Y2.2389  
G01 X-1.8450 Y2.2432  
G01 X-1.8424 Y2.2471  
G01 X-1.8391 Y2.2504  
G01 X-1.7911 Y2.2984  
G01 X-1.7872 Y2.3010  
G01 X-1.7829 Y2.3028  
G01 X-1.7783 Y2.3037  
G01 X-1.6337 Y2.3037  
G01 X-1.6337 Y2.3140  
G01 X-1.6317 Y2.3160  
G01 X-1.6317 Y2.3392  
G01 X-1.7447 Y2.4522  
G01 X-1.7463 Y2.4538  
G01 X-1.7477 Y2.4558  
G01 X-1.7490 Y2.4577  
G01 X-1.7499 Y2.4599  
G01 X-1.7508 Y2.4620  
G01 X-1.7512 Y2.4643  
G01 X-1.7740 Y2.5763  
G01 X-1.7837 Y2.5860  
G01 X-1.7837 Y2.6140  
G01 X-1.7640 Y2.6337  
G01 X-1.7360 Y2.6337  
G01 X-1.7163 Y2.6140  
G01 X-1.7163 Y2.5860  
G01 X-1.7257 Y2.5766  
G01 X-1.7062 Y2.4807  
G01 X-1.5896 Y2.3641  
G01 X-1.5870 Y2.3602  
G01 X-1.5852 Y2.3559  
G01 X-1.5843 Y2.3513  
G01 X-1.5843 Y2.3320  
G01 X-1.5663 Y2.3140  
G01 X-1.5663 Y2.2860  
G01 X-1.5860 Y2.2663  
G01 X-1.5886 Y2.2663  
G01 X-1.5894 Y2.2651  
G01 X-1.5895 Y2.2650  
G01 X-1.5896 Y2.2649  
G01 X-1.5911 Y2.2633  
G01 X-1.5927 Y2.2618  
G01 X-1.5928 Y2.2617  
G01 X-1.5929 Y2.2616  
G01 X-1.5947 Y2.2604  
G01 X-1.5965 Y2.2591  
G01 X-1.5967 Y2.2591  
G01 X-1.5968 Y2.2590  
G01 X-1.5988 Y2.2582  
G01 X-1.6008 Y2.2573  
G01 X-1.6010 Y2.2573  
G01 X-1.6011 Y2.2572  
G01 X-1.6032 Y2.2568  
G01 X-1.6054 Y2.2563  
G01 X-1.6055 Y2.2563  
G01 X-1.6057 Y2.2563  
G01 X-1.6079 Y2.2563  
G01 X-1.6100 Y2.2563  
G01 X-1.6102 Y2.2563  
G01 X-1.7662 Y2.2563  
G01 X-1.8003 Y2.2222  
G01 X-1.8003 Y1.9568  
G01 X-1.6251 Y1.8048  
G01 X-1.6249 Y1.8047  
G01 X-1.6246 Y1.8046  
G01 X-1.6227 Y1.8038  
G01 X-1.6208 Y1.8030  
G01 X-1.6206 Y1.8029  
G01 X-1.6203 Y1.8028  
G01 X-1.6186 Y1.8016  
G01 X-1.6169 Y1.8004  
G01 X-1.6167 Y1.8002  
G01 X-1.6165 Y1.8001  
G01 X-1.6151 Y1.7986  
G01 X-1.6136 Y1.7971  
G01 X-1.6135 Y1.7969  
G01 X-1.6133 Y1.7967  
G01 X-1.6122 Y1.7950  
G01 X-1.6110 Y1.7932  
G01 X-1.6109 Y1.7930  
G01 X-1.6108 Y1.7928  
G01 X-1.6100 Y1.7908  
G01 X-1.6092 Y1.7889  
G01 X-1.6092 Y1.7887  
G01 X-1.5780 Y1.7088  
G01 X-1.5772 Y1.7069  
G01 X-1.5772 Y1.7067  
G01 X-1.5771 Y1.7064  
G01 X-1.5767 Y1.7044  
G01 X-1.5763 Y1.7023  
G01 X-1.5763 Y1.7021  
G01 X-1.5763 Y1.7018  
G01 X-1.5763 Y1.6998  
G01 X-1.5763 Y1.4754  
G01 X-1.5762 Y1.4734  
G01 X-1.5763 Y1.4730  
G01 X-1.5763 Y1.4727  
G01 X-1.5767 Y1.4707  
G01 X-1.5770 Y1.4688  
G01 X-1.5771 Y1.4685  
G01 X-1.5772 Y1.4681  
G01 X-1.5780 Y1.4663  
G01 X-1.5787 Y1.4644  
G01 X-1.5789 Y1.4641  
G01 X-1.5790 Y1.4638  
G01 X-1.5801 Y1.4621  
G01 X-1.5811 Y1.4605  
G01 X-1.5814 Y1.4602  
G01 X-1.5816 Y1.4599  
G01 X-1.5830 Y1.4585  
G01 X-1.5843 Y1.4571  
G01 X-1.5846 Y1.4569  
G01 X-1.5849 Y1.4566  
G01 X-1.5865 Y1.4555  
G01 X-1.6113 Y1.4378  
G01 X-1.6113 Y1.2608  
G01 X-1.4782 Y1.1277  
G01 X-1.2192 Y1.1277  
G01 X-1.2160 Y1.1299  
G01 X-1.2098 Y1.1324  
G01 X-1.2033 Y1.1337  
G01 X-1.1967 Y1.1337  
G01 X-1.1902 Y1.1324  
G01 X-1.1840 Y1.1299  
G01 X-1.1785 Y1.1262  
G01 X-1.1738 Y1.1215  
